thearol/gender_bias_in_decision_making/Gender_bias_study_2/disagree_sensitivity_GBDM_wide_format.csv
"","SubjectID_right_unique","Trial_right","SubjectID_left_unique","Trial_left","SubjectID_left","SubjectID_right","Gender_left","Gender_right","Age_left","Age_right","Image_1","Image_2","Prop_red_image_1","Prop_red_image_2","Prop_yellow_image_1","Prop_yellow_image_2","Prop_green_image_1","Prop_green_image_2","Prop_blue_image_1","Prop_blue_image_2","Response_left","Response_right","Joint_left","Joint_right","Correct_left","Correct_right","Correct_joint","RT_left","RT_right","RT_joint_left","RT_joint_right","Round","Block","group_id","diff","response_right_dummy","response_left_dummy","response_joint_dummy","chosen_leader","Leader_gender","Follower_gender","leader_behavior","Intercept_left","Slope_left","Sensitivity_roll_left","Intercept_right","Slope_right","Sensitivity_roll_right","skill_dif","skill_dif_c","skill_dif_roll","skill_dif_roll_c","Response_left_abs","Response_right_abs","z_Response_left_abs","z_Response_right_abs","conf_dif","conf_dif_c"
"1","1_1",11,"3_1",11,"3",1,"Male","Male",24,23,"Stim\r11y26g25b38.jpeg","Stim\r15y16g12b03.jpeg",11,15,26,16,25,12,38,3,3,-2,0,-1,1,0,0,2.409,1.473,0,4.129,1,"rød","3_1",4,0,1,0,"Right_lead","Male","Male","stick",0.324012494989064,0.201752410100406,0.192172893000096,0.260050077871379,0.197117995876205,0.174750236210889,0.977029200187029,-0.0229707998129715,0.909338635032162,-0.0906613649678381,3,2,0.75727357564213,0.316106376724322,0.666666666666667,-0.333333333333333
"2","1_1",12,"3_1",12,"3",1,"Male","Male",24,23,"Stim\r11y14g08b23.jpeg","Stim\r08y23g10b29.jpeg",11,8,14,23,8,10,23,29,-2,1,0,-1,1,0,1,2.381,1.775,0,4.168,1,"rød","3_1",-3,1,0,0,"Right_lead","Male","Male","surrender",0.324012494989064,0.201752410100406,0.207454724487105,0.260050077871379,0.197117995876205,0.176645640184499,0.977029200187029,-0.0229707998129715,0.85149008113083,-0.14850991886917,2,1,-0.267273026697222,-1.29954843764443,0.5,-0.5
"3","1_1",13,"3_1",13,"3",1,"Male","Male",24,23,"Stim\r07y02g03b06.jpeg","Stim\r14y12g04b29.jpeg",7,14,2,12,3,4,6,29,-2,2,1,0,0,1,1,1.989,2.701,4.514,0,1,"rød","3_1",7,1,0,1,"Left_lead","Male","Male","surrender",0.324012494989064,0.201752410100406,0.191898788392715,0.260050077871379,0.197117995876205,0.183049075260736,1.02351086314367,0.0235108631436749,1.04834612313323,0.0483461231332276,2,2,-0.267273026697222,0.316106376724322,1,0
"4","1_1",15,"3_1",15,"3",1,"Male","Male",24,23,"Stim\r13y33g08b23.jpeg","Stim\r11y13g22b35.jpeg",13,11,33,13,8,22,23,35,2,-1,1,0,0,1,0,1.078,1.825,1.666,0,1,"rød","3_1",-2,0,1,1,"Left_lead","Male","Male","stick",0.324012494989064,0.201752410100406,0.209457086021144,0.260050077871379,0.197117995876205,0.207000752554059,1.02351086314367,0.0235108631436749,1.01186630211136,0.0118663021113583,2,1,-0.267273026697222,-1.29954843764443,2,1
"5","1_1",16,"3_1",16,"3",1,"Male","Male",24,23,"Stim\r07y14g27b22.jpeg","Stim\r09y06g26b32.jpeg",7,9,14,6,27,26,22,32,2,-2,0,-1,1,0,0,1.699,1.592,0,2.427,1,"rød","3_1",2,0,1,0,"Right_lead","Male","Male","stick",0.324012494989064,0.201752410100406,0.197912021966084,0.260050077871379,0.197117995876205,0.190042621067011,0.977029200187029,-0.0229707998129715,0.960237883374151,-0.0397621166258489,2,2,-0.267273026697222,0.316106376724322,1,0
"6","1_1",17,"3_1",17,"3",1,"Male","Male",24,23,"Stim\r08y09g09b11.jpeg","Stim\r09y06g26b32.jpeg",8,9,9,6,9,26,11,32,2,-2,-1,0,1,0,0,1.457,1.707,1.951,0,1,"rød","3_1",1,0,1,0,"Left_lead","Male","Male","surrender",0.324012494989064,0.201752410100406,0.201432627637386,0.260050077871379,0.197117995876205,0.193977977420809,1.02351086314367,0.0235108631436749,1.03843039460302,0.038430394603018,2,2,-0.267273026697222,0.316106376724322,1,0
"7","1_1",19,"3_1",19,"3",1,"Male","Male",24,23,"Stim\r14y12g04b29.jpeg","Stim\r13y33g08b23.jpeg",14,13,12,33,4,8,29,23,2,-2,-1,0,0,1,1,1.322,1.768,3.525,0,1,"rød","3_1",-1,0,1,0,"Left_lead","Male","Male","surrender",0.324012494989064,0.201752410100406,0.205353826706986,0.260050077871379,0.197117995876205,0.216924354033134,1.02351086314367,0.0235108631436749,0.946661003658535,-0.0533389963414651,2,2,-0.267273026697222,0.316106376724322,1,0
"8","1_1",2,"3_1",2,"3",1,"Male","Male",24,23,"Stim\r16y21g04b04.jpeg","Stim\r15y05g12b10.jpeg",16,15,21,5,4,12,4,10,3,-2,1,0,0,1,0,1.888,1.867,6.121,0,1,"rød","3_1",-1,0,1,1,"Left_lead","Male","Male","stick",0.324012494989064,0.201752410100406,NA,0.260050077871379,0.197117995876205,NA,1.02351086314367,0.0235108631436749,NA,NA,3,2,0.75727357564213,0.316106376724322,1.5,0.5
"9","1_1",21,"3_1",21,"3",1,"Male","Male",24,23,"Stim\r22y35g09b11.jpeg","Stim\r18y19g14b27.jpeg",22,18,35,19,9,14,11,27,-2,2,0,1,1,0,0,1.011,1.543,0,2.397,1,"rød","3_1",-4,1,0,1,"Right_lead","Male","Male","stick",0.324012494989064,0.201752410100406,0.224488290024071,0.260050077871379,0.197117995876205,0.227121036218894,0.977029200187029,-0.0229707998129715,1.01172776626585,0.0117277662658517,2,2,-0.267273026697222,0.316106376724322,1,0
"10","1_1",22,"3_1",22,"3",1,"Male","Male",24,23,"Stim\r21y03g15b37.jpeg","Stim\r18y13g28b06.jpeg",21,18,3,13,15,28,37,6,3,-2,1,0,0,1,0,1.607,1.42,1.824,0,1,"rød","3_1",-3,0,1,1,"Left_lead","Male","Male","stick",0.324012494989064,0.201752410100406,0.217106197114048,0.260050077871379,0.197117995876205,0.231812001558757,1.02351086314367,0.0235108631436749,0.93656150524639,-0.0634384947536099,3,2,0.75727357564213,0.316106376724322,1.5,0.5
"11","1_1",23,"3_1",23,"3",1,"Male","Male",24,23,"Stim\r18y19g14b27.jpeg","Stim\r19y10g06b15.jpeg",18,19,19,10,14,6,27,15,1,-2,-1,0,1,0,0,1.577,0.94,1.044,0,1,"rød","3_1",1,0,1,0,"Left_lead","Male","Male","surrender",0.324012494989064,0.201752410100406,0.232117549291868,0.260050077871379,0.197117995876205,0.236173559697678,1.02351086314367,0.0235108631436749,0.982826145267904,-0.0171738547320963,1,2,-1.29181962903657,0.316106376724322,0.5,-0.5
"12","1_1",24,"3_1",24,"3",1,"Male","Male",24,23,"Stim\r14y08g21b39.jpeg","Stim\r12y12g14b26.jpeg",14,12,8,12,21,14,39,26,2,-2,-1,0,0,1,1,2.765,1.178,1.33,0,1,"rød","3_1",-2,0,1,0,"Left_lead","Male","Male","surrender",0.324012494989064,0.201752410100406,0.23097591131886,0.260050077871379,0.197117995876205,0.237375510437828,1.02351086314367,0.0235108631436749,0.973040188066729,-0.0269598119332708,2,2,-0.267273026697222,0.316106376724322,1,0
"13","1_1",25,"3_1",25,"3",1,"Male","Male",24,23,"Stim\r03y03g02b05.jpeg","Stim\r04y28g27b06.jpeg",3,4,3,28,2,27,5,6,4,-2,1,0,1,0,1,1.327,1.206,1.14,0,1,"rød","3_1",1,0,1,1,"Left_lead","Male","Male","stick",0.324012494989064,0.201752410100406,0.227886165623891,0.260050077871379,0.197117995876205,0.242185804125343,1.02351086314367,0.0235108631436749,0.940955917903218,-0.0590440820967824,4,2,1.78182017798148,0.316106376724322,2,1
"14","1_1",27,"3_1",27,"3",1,"Male","Male",24,23,"Stim\r12y09g30b18.jpeg","Stim\r20y14g02b19.jpeg",12,20,9,14,30,2,18,19,3,-2,0,1,1,0,1,1.325,1.271,0,1.764,1,"blå","3_1",1,0,1,1,"Right_lead","Male","Male","surrender",0.324012494989064,0.201752410100406,0.206230013629404,0.260050077871379,0.197117995876205,0.232115482038626,0.977029200187029,-0.0229707998129715,1.1255174644741,0.125517464474101,3,2,0.75727357564213,0.316106376724322,0.666666666666667,-0.333333333333333
"15","1_1",29,"3_1",29,"3",1,"Male","Male",24,23,"Stim\r12y07g07b17.jpeg","Stim\r09y17g32b21.jpeg",12,9,7,17,7,32,17,21,-2,3,1,0,0,1,1,2.47,3.249,1.474,0,1,"blå","3_1",4,1,0,1,"Left_lead","Male","Male","surrender",0.324012494989064,0.201752410100406,0.200545078378128,0.260050077871379,0.197117995876205,0.2202218605196,1.02351086314367,0.0235108631436749,0.910650186611602,-0.0893498133883976,2,3,-0.267273026697222,1.93176119109308,0.666666666666667,-0.333333333333333
"16","1_1",33,"3_1",33,"3",1,"Male","Male",24,23,"Stim\r21y31g06b08.jpeg","Stim\r22y35g09b11.jpeg",21,22,31,35,6,9,8,11,4,-2,1,0,1,0,1,1.193,1.087,1.563,0,1,"blå","3_1",3,0,1,1,"Left_lead","Male","Male","stick",0.324012494989064,0.201752410100406,0.200936989093206,0.260050077871379,0.197117995876205,0.20608997954884,1.02351086314367,0.0235108631436749,0.974996404643668,-0.0250035953563323,4,2,1.78182017798148,0.316106376724322,2,1
"17","1_1",34,"3_1",34,"3",1,"Male","Male",24,23,"Stim\r13y33g08b23.jpeg","Stim\r17y22g16b15.jpeg",13,17,33,22,8,16,23,15,-1,2,1,0,1,0,0,2.316,3.728,1.064,0,1,"blå","3_1",-8,1,0,1,"Left_lead","Male","Male","surrender",0.324012494989064,0.201752410100406,0.208201869710929,0.260050077871379,0.197117995876205,0.175018325466046,1.02351086314367,0.0235108631436749,1.18960039845268,0.189600398452679,1,2,-1.29181962903657,0.316106376724322,0.5,-0.5
"18","1_1",35,"3_1",35,"3",1,"Male","Male",24,23,"Stim\r11y10g06b19.jpeg","Stim\r09y17g32b21.jpeg",11,9,10,17,6,32,19,21,4,-2,1,0,1,0,1,1.103,0.949,1.025,0,1,"blå","3_1",2,0,1,1,"Left_lead","Male","Male","stick",0.324012494989064,0.201752410100406,0.20943505589255,0.260050077871379,0.197117995876205,0.134863472392095,1.02351086314367,0.0235108631436749,1.5529412981719,0.552941298171898,4,2,1.78182017798148,0.316106376724322,2,1
"19","1_1",36,"3_1",36,"3",1,"Male","Male",24,23,"Stim\r10y02g36b05.jpeg","Stim\r21y31g06b08.jpeg",10,21,2,31,36,6,5,8,2,-2,-1,0,1,0,0,1.329,1.975,3.581,0,1,"blå","3_1",3,0,1,0,"Left_lead","Male","Male","surrender",0.324012494989064,0.201752410100406,0.202782297792303,0.260050077871379,0.197117995876205,0.135960271029506,1.02351086314367,0.0235108631436749,1.49148200615381,0.491482006153807,2,2,-0.267273026697222,0.316106376724322,1,0
"20","1_1",37,"3_1",37,"3",1,"Male","Male",24,23,"Stim\r09y06g26b32.jpeg","Stim\r03y11g01b26.jpeg",9,3,6,11,26,1,32,26,3,-2,1,0,0,1,0,1.549,2.378,1.316,0,1,"blå","3_1",-6,0,1,1,"Left_lead","Male","Male","stick",0.324012494989064,0.201752410100406,0.174391357530928,0.260050077871379,0.197117995876205,0.154283701662351,1.02351086314367,0.0235108631436749,1.13032909926275,0.13032909926275,3,2,0.75727357564213,0.316106376724322,1.5,0.5
"21","1_1",41,"3_1",41,"3",1,"Male","Male",24,23,"Stim\r09y17g32b21.jpeg","Stim\r20y14g02b19.jpeg",9,20,17,14,32,2,21,19,-3,1,-1,0,1,0,1,1.293,1.823,1.035,0,1,"blå","3_1",-2,1,0,0,"Left_lead","Male","Male","stick",0.324012494989064,0.201752410100406,0.162266679160133,0.260050077871379,0.197117995876205,0.147439767854462,1.02351086314367,0.0235108631436749,1.10056249763162,0.10056249763162,3,1,0.75727357564213,-1.29954843764443,3,2
"22","1_1",42,"3_1",42,"3",1,"Male","Male",24,23,"Stim\r03y06g12b09.jpeg","Stim\r16y09g06b10.jpeg",3,16,6,9,12,6,9,10,-1,3,0,-1,0,1,0,1.07,1.38,0,5.163,1,"blå","3_1",1,1,0,0,"Right_lead","Male","Male","surrender",0.324012494989064,0.201752410100406,0.156200003741204,0.260050077871379,0.197117995876205,0.145791351750289,0.977029200187029,-0.0229707998129715,0.933363305111309,-0.0666366948886908,1,3,-1.29181962903657,1.93176119109308,3,2
"23","1_1",43,"3_1",43,"3",1,"Male","Male",24,23,"Stim\r10y27g22b14.jpeg","Stim\r22y35g09b11.jpeg",10,22,27,35,22,9,14,11,2,-2,0,-1,0,1,1,1.15,2.212,0,4.827,1,"blå","3_1",-3,0,1,0,"Right_lead","Male","Male","stick",0.324012494989064,0.201752410100406,0.155203466055002,0.260050077871379,0.197117995876205,0.148820924950088,0.977029200187029,-0.0229707998129715,0.958876297887238,-0.0411237021127615,2,2,-0.267273026697222,0.316106376724322,1,0
"24","1_1",45,"3_1",45,"3",1,"Male","Male",24,23,"Stim\r10y03g03b07.jpeg","Stim\r08y09g09b11.jpeg",10,8,3,9,3,9,7,11,-1,2,0,1,0,1,1,2.094,1.491,0,2.682,1,"blå","3_1",4,1,0,1,"Right_lead","Male","Male","stick",0.324012494989064,0.201752410100406,0.167217234014831,0.260050077871379,0.197117995876205,0.174874220667482,0.977029200187029,-0.0229707998129715,1.04579065487934,0.0457906548793403,1,2,-1.29181962903657,0.316106376724322,2,1
"25","1_1",46,"3_1",46,"3",1,"Male","Male",24,23,"Stim\r14y08g21b39.jpeg","Stim\r05y28g23b30.jpeg",14,5,8,28,21,23,39,30,2,-3,0,-1,0,1,1,1.401,1.326,0,2.181,1,"blå","3_1",-9,0,1,0,"Right_lead","Male","Male","stick",0.324012494989064,0.201752410100406,0.166017396270378,0.260050077871379,0.197117995876205,0.191429544354953,0.977029200187029,-0.0229707998129715,1.15306918826259,0.153069188262587,2,3,-0.267273026697222,1.93176119109308,1.5,0.5
"26","1_1",47,"3_1",47,"3",1,"Male","Male",24,23,"Stim\r12y07g16b25.jpeg","Stim\r14y12g04b29.jpeg",12,14,7,12,16,4,25,29,4,-2,0,1,1,0,1,1.249,3.545,0,1.554,1,"blå","3_1",4,0,1,1,"Right_lead","Male","Male","surrender",0.324012494989064,0.201752410100406,0.172586123072449,0.260050077871379,0.197117995876205,0.182608924825122,0.977029200187029,-0.0229707998129715,1.05807420419581,0.0580742041958124,4,2,1.78182017798148,0.316106376724322,0.5,-0.5
"27","1_1",49,"3_1",49,"3",1,"Male","Male",24,23,"Stim\r16y09g06b10.jpeg","Stim\r21y31g06b08.jpeg",16,21,9,31,6,6,10,8,1,-2,-1,0,0,1,1,0.987,1.214,1.848,0,1,"blå","3_1",-2,0,1,0,"Left_lead","Male","Male","surrender",0.324012494989064,0.201752410100406,0.17328572698084,0.260050077871379,0.197117995876205,0.197711079582633,1.02351086314367,0.0235108631436749,0.876459363565488,-0.123540636434512,1,2,-1.29181962903657,0.316106376724322,0.5,-0.5
"28","1_1",5,"3_1",5,"3",1,"Male","Male",24,23,"Stim\r20y14g02b19.jpeg","Stim\r21y01g04b27.jpeg",20,21,14,1,2,4,19,27,2,-1,0,-1,1,0,0,2.142,1.872,0,7.432,1,"rød","3_1",1,0,1,0,"Right_lead","Male","Male","stick",0.324012494989064,0.201752410100406,NA,0.260050077871379,0.197117995876205,NA,0.977029200187029,-0.0229707998129715,NA,NA,2,1,-0.267273026697222,-1.29954843764443,0.5,-0.5
"29","1_1",52,"3_1",52,"3",1,"Male","Male",24,23,"Stim\r06y14g31b25.jpeg","Stim\r09y15g18b07.jpeg",6,9,14,15,31,18,25,7,3,-1,1,0,1,0,1,1.654,2.367,1,0,1,"gul","3_1",1,0,1,1,"Left_lead","Male","Male","stick",0.324012494989064,0.201752410100406,0.159364993410729,0.260050077871379,0.197117995876205,0.212046689991721,1.02351086314367,0.0235108631436749,0.751556147454842,-0.248443852545158,3,1,0.75727357564213,-1.29954843764443,3,2
"30","1_1",54,"3_1",54,"3",1,"Male","Male",24,23,"Stim\r06y19g29b08.jpeg","Stim\r22y23g20b06.jpeg",6,22,19,23,29,20,8,6,2,-3,-1,0,1,0,0,1.066,1.379,1.032,0,1,"gul","3_1",4,0,1,0,"Left_lead","Male","Male","surrender",0.324012494989064,0.201752410100406,0.173298942433396,0.260050077871379,0.197117995876205,0.194570949397604,1.02351086314367,0.0235108631436749,0.890672235346198,-0.109327764653802,2,3,-0.267273026697222,1.93176119109308,0.666666666666667,-0.333333333333333
"31","1_1",59,"3_1",59,"3",1,"Male","Male",24,23,"Stim\r08y23g10b29.jpeg","Stim\r07y14g27b22.jpeg",8,7,23,14,10,27,29,22,2,-1,0,1,0,1,0,1.37,1.299,0,3.06,1,"gul","3_1",-9,0,1,1,"Right_lead","Male","Male","surrender",0.324012494989064,0.201752410100406,0.183054901686351,0.260050077871379,0.197117995876205,0.189869819568411,0.977029200187029,-0.0229707998129715,1.03722881943766,0.0372288194376613,2,1,-0.267273026697222,-1.29954843764443,0.5,-0.5
"32","1_1",62,"3_1",62,"3",1,"Male","Male",24,23,"Stim\r09y15g18b07.jpeg","Stim\r12y07g07b17.jpeg",9,12,15,7,18,7,7,17,-2,2,0,1,1,0,0,1.208,2.054,0,4.292,1,"gul","3_1",-8,1,0,1,"Right_lead","Male","Male","stick",0.324012494989064,0.201752410100406,0.194759648749935,0.260050077871379,0.197117995876205,0.189510142061399,0.977029200187029,-0.0229707998129715,0.973046230457746,-0.0269537695422537,2,2,-0.267273026697222,0.316106376724322,1,0
"33","1_1",63,"3_1",63,"3",1,"Male","Male",24,23,"Stim\r19y10g06b15.jpeg","Stim\r14y08g21b39.jpeg",19,14,10,8,6,21,15,39,-1,1,0,-1,1,0,1,1.079,1.874,0,3.743,1,"gul","3_1",-2,1,0,0,"Right_lead","Male","Male","surrender",0.324012494989064,0.201752410100406,0.199513276834413,0.260050077871379,0.197117995876205,0.189349368915447,0.977029200187029,-0.0229707998129715,0.94905648345698,-0.0509435165430197,1,1,-1.29181962903657,-1.29954843764443,1,0
"34","1_1",68,"3_1",68,"3",1,"Male","Male",24,23,"Stim\r04y39g24b15.jpeg","Stim\r13y33g08b23.jpeg",4,13,39,33,24,8,15,23,-4,3,-1,0,1,0,1,1.042,1.554,4.111,0,1,"gul","3_1",-6,1,0,0,"Left_lead","Male","Male","stick",0.324012494989064,0.201752410100406,0.231389397193145,0.260050077871379,0.197117995876205,0.223053612179578,1.02351086314367,0.0235108631436749,1.03737121731459,0.0373712173145886,4,3,1.78182017798148,1.93176119109308,1.33333333333333,0.333333333333333
"35","1_1",7,"3_1",7,"3",1,"Male","Male",24,23,"Stim\r09y15g18b07.jpeg","Stim\r06y36g16b14.jpeg",9,6,15,36,18,16,7,14,-2,2,0,-1,1,0,1,1.693,2.856,0,4.031,1,"rød","3_1",-3,1,0,0,"Right_lead","Male","Male","surrender",0.324012494989064,0.201752410100406,NA,0.260050077871379,0.197117995876205,NA,0.977029200187029,-0.0229707998129715,NA,NA,2,2,-0.267273026697222,0.316106376724322,1,0
"36","1_1",71,"3_1",71,"3",1,"Male","Male",24,23,"Stim\r09y02g05b02.jpeg","Stim\r03y06g12b09.jpeg",9,3,2,6,5,12,2,9,-1,1,1,0,0,1,1,1.305,1.334,1.346,0,1,"gul","3_1",4,1,0,1,"Left_lead","Male","Male","surrender",0.324012494989064,0.201752410100406,0.240578127780516,0.260050077871379,0.197117995876205,0.193612464858464,1.02351086314367,0.0235108631436749,1.24257561596762,0.242575615967625,1,1,-1.29181962903657,-1.29954843764443,1,0
"37","1_1",74,"3_1",74,"3",1,"Male","Male",24,23,"Stim\r11y10g06b19.jpeg","Stim\r05y09g02b34.jpeg",11,5,10,9,6,2,19,34,-2,1,-1,0,1,0,1,1.349,1.844,1.659,0,1,"grøn","3_1",-4,1,0,0,"Left_lead","Male","Male","stick",0.324012494989064,0.201752410100406,0.244538361489844,0.260050077871379,0.197117995876205,0.228099185019095,1.02351086314367,0.0235108631436749,1.0720702990209,0.0720702990208966,2,1,-0.267273026697222,-1.29954843764443,2,1
"38","1_1",8,"3_1",8,"3",1,"Male","Male",24,23,"Stim\r08y23g10b29.jpeg","Stim\r10y02g36b05.jpeg",8,10,23,2,10,36,29,5,2,-1,-1,0,1,0,0,2.192,2.055,1.961,0,1,"rød","3_1",2,0,1,0,"Left_lead","Male","Male","surrender",0.324012494989064,0.201752410100406,NA,0.260050077871379,0.197117995876205,NA,1.02351086314367,0.0235108631436749,NA,NA,2,1,-0.267273026697222,-1.29954843764443,2,1
"39","1_1",80,"3_1",80,"3",1,"Male","Male",24,23,"Stim\r20y14g02b19.jpeg","Stim\r07y02g03b06.jpeg",20,7,14,2,2,3,19,6,-1,2,0,1,0,1,1,0.946,1.392,0,3.265,1,"grøn","3_1",1,1,0,1,"Right_lead","Male","Male","stick",0.324012494989064,0.201752410100406,0.208739900424473,0.260050077871379,0.197117995876205,0.210139527782603,0.977029200187029,-0.0229707998129715,1.00670512611764,0.0067051261176414,1,2,-1.29181962903657,0.316106376724322,2,1
"40","1_1",85,"3_1",85,"3",1,"Male","Male",24,23,"Stim\r09y15g18b07.jpeg","Stim\r03y06g12b09.jpeg",9,3,15,6,18,12,7,9,-4,1,0,-1,1,0,1,1.008,0.854,0,1.531,1,"grøn","3_1",-6,1,0,0,"Right_lead","Male","Male","surrender",0.324012494989064,0.201752410100406,0.202299965650865,0.260050077871379,0.197117995876205,0.191268222273673,0.977029200187029,-0.0229707998129715,0.945468387294584,-0.0545316127054164,4,1,1.78182017798148,-1.29954843764443,0.25,-0.75
"41","1_1",87,"3_1",87,"3",1,"Male","Male",24,23,"Stim\r15y05g12b10.jpeg","Stim\r08y23g10b29.jpeg",15,8,5,23,12,10,10,29,-3,2,-1,0,1,0,1,1.011,1.223,1.38,0,1,"grøn","3_1",-2,1,0,0,"Left_lead","Male","Male","stick",0.324012494989064,0.201752410100406,0.233337287762734,0.260050077871379,0.197117995876205,0.219388310195479,1.02351086314367,0.0235108631436749,1.06358122524772,0.0635812252477181,3,2,0.75727357564213,0.316106376724322,1.5,0.5
"42","1_1",88,"3_1",88,"3",1,"Male","Male",24,23,"Stim\r19y10g06b15.jpeg","Stim\r10y13g07b36.jpeg",19,10,10,13,6,7,15,36,-1,2,0,1,0,1,1,1.203,1.201,0,3.777,1,"grøn","3_1",1,1,0,1,"Right_lead","Male","Male","stick",0.324012494989064,0.201752410100406,0.229766939777941,0.260050077871379,0.197117995876205,0.217899237469946,0.977029200187029,-0.0229707998129715,0.948348956035779,-0.0516510439642213,1,2,-1.29181962903657,0.316106376724322,2,1
"43","1_1",89,"3_1",89,"3",1,"Male","Male",24,23,"Stim\r13y33g08b23.jpeg","Stim\r06y36g16b14.jpeg",13,6,33,36,8,16,23,14,-1,1,0,-1,0,1,0,2.091,2.021,0,3.893,1,"grøn","3_1",8,1,0,0,"Right_lead","Male","Male","surrender",0.324012494989064,0.201752410100406,0.23010148625968,0.260050077871379,0.197117995876205,0.231131268998751,0.977029200187029,-0.0229707998129715,1.00447534153651,0.00447534153651152,1,1,-1.29181962903657,-1.29954843764443,1,0
"44","1_1",90,"3_1",90,"3",1,"Male","Male",24,23,"Stim\r16y21g04b04.jpeg","Stim\r11y10g06b19.jpeg",16,11,21,10,4,6,4,19,-2,2,0,-1,0,1,0,1.27,1.25,0,3.656,1,"grøn","3_1",2,1,0,0,"Right_lead","Male","Male","surrender",0.324012494989064,0.201752410100406,0.23126267964311,0.260050077871379,0.197117995876205,0.244699634839226,0.977029200187029,-0.0229707998129715,1.05810256638405,0.0581025663840453,2,2,-0.267273026697222,0.316106376724322,1,0
"45","1_1",95,"3_1",95,"3",1,"Male","Male",24,23,"Stim\r07y06g08b05.jpeg","Stim\r16y09g06b10.jpeg",7,16,6,9,8,6,5,10,-4,1,-1,0,1,0,1,1.435,2.048,0.868,0,1,"grøn","3_1",-2,1,0,0,"Left_lead","Male","Male","stick",0.324012494989064,0.201752410100406,0.230279033956748,0.260050077871379,0.197117995876205,0.233744330068902,1.02351086314367,0.0235108631436749,0.985174844193515,-0.0148251558064852,4,1,1.78182017798148,-1.29954843764443,4,3
"46","1_1",97,"3_1",97,"3",1,"Male","Male",24,23,"Stim\r02y19g24b04.jpeg","Stim\r10y27g22b14.jpeg",2,10,19,27,24,22,4,14,-2,1,0,-1,1,0,1,1.173,1.483,0,3.596,1,"grøn","3_1",-2,1,0,0,"Right_lead","Male","Male","surrender",0.324012494989064,0.201752410100406,NA,0.260050077871379,0.197117995876205,NA,0.977029200187029,-0.0229707998129715,NA,NA,2,1,-0.267273026697222,-1.29954843764443,0.5,-0.5
"47","1_2",13,"4_2",13,"4",1,"Female","Male",23,23,"Stim\r05y40g33b16.jpeg","Stim\r04y16g13b13.jpeg",5,4,40,16,33,13,16,13,2,-1,1,0,0,1,0,1.47,2.899,3.892,0,2,"rød","4_1",-1,0,1,1,"Left_lead","Female","Male","stick",0.289278129951893,0.218157873900937,0.198035482299366,0.274240751420958,0.201190909959052,0.189195617204703,1.0843326567057,0.0843326567057019,1.04672341370941,0.0467234137094126,2,1,-0.0770991079443883,-2.16887067387615,2,1
"48","1_2",15,"4_2",15,"4",1,"Female","Male",23,23,"Stim\r11y14g08b23.jpeg","Stim\r09y15g18b07.jpeg",11,9,14,15,8,18,23,7,-2,2,-1,0,1,0,1,1.539,2.302,3.311,0,2,"rød","4_1",-2,1,0,0,"Left_lead","Female","Male","stick",0.289278129951893,0.218157873900937,0.21877245345443,0.274240751420958,0.201190909959052,0.215011061354587,1.0843326567057,0.0843326567057019,1.01749394694462,0.0174939469446174,2,2,-0.0770991079443883,-0.619677335393187,1,0
"49","1_2",22,"4_2",22,"4",1,"Female","Male",23,23,"Stim\r20y04g39b23.jpeg","Stim\r14y10g15b15.jpeg",20,14,4,10,39,15,23,15,-1,3,0,1,1,0,0,1.342,1.971,0,2.794,2,"rød","4_1",-6,1,0,1,"Right_lead","Male","Female","stick",0.289278129951893,0.218157873900937,0.226015795554242,0.274240751420958,0.201190909959052,0.214542051136269,0.922226213344979,-0.0777737866550214,0.949234767464651,-0.050765232535349,1,3,-1.04083795724924,0.92951600308978,3,2
"50","1_2",28,"4_2",28,"4",1,"Female","Male",23,23,"Stim\r10y07g11b10.jpeg","Stim\r10y03g03b07.jpeg",10,10,7,3,11,3,10,7,-2,3,1,0,1,0,0,1.933,2.262,3.532,0,2,"blå","4_1",-3,1,0,1,"Left_lead","Female","Male","surrender",0.289278129951893,0.218157873900937,0.222400986418272,0.274240751420958,0.201190909959052,0.178898110864127,1.0843326567057,0.0843326567057019,1.24317124056824,0.243171240568244,2,3,-0.0770991079443883,0.92951600308978,0.666666666666667,-0.333333333333333
"51","1_2",3,"4_2",3,"4",1,"Female","Male",23,23,"Stim\r21y31g06b08.jpeg","Stim\r20y14g02b19.jpeg",21,20,31,14,6,2,8,19,3,-3,0,1,0,1,0,1.192,3.086,0,3.017,2,"rød","4_1",-1,0,1,1,"Right_lead","Male","Female","surrender",0.289278129951893,0.218157873900937,NA,0.274240751420958,0.201190909959052,NA,0.922226213344979,-0.0777737866550214,NA,NA,3,3,0.886639741360465,0.92951600308978,1,0
"52","1_2",36,"4_2",36,"4",1,"Female","Male",23,23,"Stim\r21y01g04b27.jpeg","Stim\r15y17g24b30.jpeg",21,15,1,17,4,24,27,30,1,-3,-1,0,1,0,0,1.821,1.85,5.512,0,2,"blå","4_1",3,0,1,0,"Left_lead","Female","Male","surrender",0.289278129951893,0.218157873900937,0.178947826610293,0.274240751420958,0.201190909959052,0.150773148628265,1.0843326567057,0.0843326567057019,1.18686800825188,0.186868008251876,1,3,-1.04083795724924,0.92951600308978,0.333333333333333,-0.666666666666667
"53","1_2",38,"4_2",38,"4",1,"Female","Male",23,23,"Stim\r13y33g08b23.jpeg","Stim\r03y11g01b26.jpeg",13,3,33,11,8,1,23,26,2,-3,0,1,1,0,1,1.247,2.593,0,2.376,2,"blå","4_1",3,0,1,1,"Right_lead","Male","Female","surrender",0.289278129951893,0.218157873900937,0.164326844903828,0.274240751420958,0.201190909959052,0.145807645626048,0.922226213344979,-0.0777737866550214,0.887302654118271,-0.112697345881729,2,3,-0.0770991079443883,0.92951600308978,1.5,0.5
"54","1_2",4,"4_2",4,"4",1,"Female","Male",23,23,"Stim\r14y10g15b15.jpeg","Stim\r21y24g16b04.jpeg",14,21,10,24,15,16,15,4,2,-2,0,-1,1,0,0,1.523,1.554,0,2.404,2,"rød","4_1",7,0,1,0,"Right_lead","Male","Female","stick",0.289278129951893,0.218157873900937,NA,0.274240751420958,0.201190909959052,NA,0.922226213344979,-0.0777737866550214,NA,NA,2,2,-0.0770991079443883,-0.619677335393187,1,0
"55","1_2",43,"4_2",43,"4",1,"Female","Male",23,23,"Stim\r12y09g30b18.jpeg","Stim\r11y10g06b19.jpeg",12,11,9,10,30,6,18,19,4,-3,1,0,1,0,1,1.703,1.506,1.51,0,2,"blå","4_1",1,0,1,1,"Left_lead","Female","Male","stick",0.289278129951893,0.218157873900937,0.154936504486421,0.274240751420958,0.201190909959052,0.147282467796492,1.0843326567057,0.0843326567057019,1.05196841690964,0.0519684169096417,4,3,1.85037859066532,0.92951600308978,1.33333333333333,0.333333333333333
"56","1_2",46,"4_2",46,"4",1,"Female","Male",23,23,"Stim\r22y23g20b06.jpeg","Stim\r16y09g06b10.jpeg",22,16,23,9,20,6,6,10,1,-3,0,-1,1,0,0,2.035,2.115,0,2.215,2,"blå","4_1",4,0,1,0,"Right_lead","Male","Female","stick",0.289278129951893,0.218157873900937,0.182304780128936,0.274240751420958,0.201190909959052,0.174205634856617,0.922226213344979,-0.0777737866550214,0.955573598966572,-0.0444264010334279,1,3,-1.04083795724924,0.92951600308978,3,2
"57","1_2",49,"4_2",49,"4",1,"Female","Male",23,23,"Stim\r22y35g09b11.jpeg","Stim\r13y33g08b23.jpeg",22,13,35,33,9,8,11,23,-1,2,1,0,1,0,0,2.159,1.371,4.01,0,2,"gul","4_1",-2,1,0,1,"Left_lead","Female","Male","surrender",0.289278129951893,0.218157873900937,0.196339316516725,0.274240751420958,0.201190909959052,0.183456707964309,1.0843326567057,0.0843326567057019,1.07022151817377,0.0702215181737715,1,2,-1.04083795724924,-0.619677335393187,0.5,-0.5
"58","1_2",56,"4_2",56,"4",1,"Female","Male",23,23,"Stim\r09y17g32b21.jpeg","Stim\r13y21g23b09.jpeg",9,13,17,21,32,23,21,9,-4,3,0,-1,0,1,0,2.293,1.472,0,1.642,2,"gul","4_1",4,1,0,0,"Right_lead","Male","Female","surrender",0.289278129951893,0.218157873900937,0.208700849068092,0.274240751420958,0.201190909959052,0.224982251387051,0.922226213344979,-0.0777737866550214,1.07801311011268,0.0780131101126806,4,3,1.85037859066532,0.92951600308978,0.75,-0.25
"59","1_2",57,"4_2",57,"4",1,"Female","Male",23,23,"Stim\r09y15g18b07.jpeg","Stim\r17y12g19b18.jpeg",9,17,15,12,18,19,7,18,-2,2,-1,0,1,0,1,1.804,4.033,4.565,0,2,"gul","4_1",-3,1,0,0,"Left_lead","Female","Male","stick",0.289278129951893,0.218157873900937,0.19557883020966,0.274240751420958,0.201190909959052,0.191936668360971,1.0843326567057,0.0843326567057019,1.01897585219016,0.0189758521901571,2,2,-0.0770991079443883,-0.619677335393187,1,0
"60","1_2",58,"4_2",58,"4",1,"Female","Male",23,23,"Stim\r10y03g03b07.jpeg","Stim\r03y06g12b09.jpeg",10,3,3,6,3,12,7,9,2,-2,-1,0,1,0,0,2.34,1.803,2.205,0,2,"gul","4_1",3,0,1,0,"Left_lead","Female","Male","surrender",0.289278129951893,0.218157873900937,0.195750012278223,0.274240751420958,0.201190909959052,0.170297841116103,1.0843326567057,0.0843326567057019,1.14945680459195,0.149456804591948,2,2,-0.0770991079443883,-0.619677335393187,1,0
"61","1_2",6,"4_2",6,"4",1,"Female","Male",23,23,"Stim\r10y27g22b14.jpeg","Stim\r13y33g08b23.jpeg",10,13,27,33,22,8,14,23,3,-2,1,0,1,0,1,2.001,1.847,2.105,0,2,"rød","4_1",3,0,1,1,"Left_lead","Female","Male","stick",0.289278129951893,0.218157873900937,NA,0.274240751420958,0.201190909959052,NA,1.0843326567057,0.0843326567057019,NA,NA,3,2,0.886639741360465,-0.619677335393187,1.5,0.5
"62","1_2",7,"4_2",7,"4",1,"Female","Male",23,23,"Stim\r13y24g05b28.jpeg","Stim\r14y10g15b15.jpeg",13,14,24,10,5,15,28,15,4,-2,0,1,1,0,1,1.537,1.95,0,1.34,2,"rød","4_1",1,0,1,1,"Right_lead","Male","Female","surrender",0.289278129951893,0.218157873900937,NA,0.274240751420958,0.201190909959052,NA,0.922226213344979,-0.0777737866550214,NA,NA,4,2,1.85037859066532,-0.619677335393187,0.5,-0.5
"63","1_2",71,"4_2",71,"4",1,"Female","Male",23,23,"Stim\r04y16g13b13.jpeg","Stim\r17y20g40b07.jpeg",4,17,16,20,13,40,13,7,-1,3,0,1,0,1,1,2.162,1.409,0,2.149,2,"gul","4_1",4,1,0,1,"Right_lead","Male","Female","stick",0.289278129951893,0.218157873900937,0.238881495928703,0.274240751420958,0.201190909959052,0.261185658765457,0.922226213344979,-0.0777737866550214,1.09336915255843,0.0933691525584341,1,3,-1.04083795724924,0.92951600308978,3,2
"64","1_2",72,"4_2",72,"4",1,"Female","Male",23,23,"Stim\r03y11g01b26.jpeg","Stim\r08y12g20b03.jpeg",3,8,11,12,1,20,26,3,1,-2,1,0,1,0,1,1.976,1.439,1.407,0,2,"gul","4_1",1,0,1,1,"Left_lead","Female","Male","stick",0.289278129951893,0.218157873900937,0.232486895219411,0.274240751420958,0.201190909959052,0.240163985362424,1.0843326567057,0.0843326567057019,0.968033965911135,-0.0319660340888654,1,2,-1.04083795724924,-0.619677335393187,0.5,-0.5
"65","1_2",76,"4_2",76,"4",1,"Female","Male",23,23,"Stim\r17y07g07b24.jpeg","Stim\r10y03g03b07.jpeg",17,10,7,3,7,3,24,7,-4,2,-1,0,1,0,1,1.57,2.632,1.267,0,2,"grøn","4_1",-4,1,0,0,"Left_lead","Female","Male","stick",0.289278129951893,0.218157873900937,0.23588056553614,0.274240751420958,0.201190909959052,0.23306156312396,1.0843326567057,0.0843326567057019,1.01209552692599,0.0120955269259935,4,2,1.85037859066532,-0.619677335393187,2,1
"66","1_2",78,"4_2",78,"4",1,"Female","Male",23,23,"Stim\r14y08g21b39.jpeg","Stim\r08y12g20b03.jpeg",14,8,8,12,21,20,39,3,1,-2,1,0,0,1,0,1.022,1.334,1.394,0,2,"grøn","4_1",-1,0,1,1,"Left_lead","Female","Male","stick",0.289278129951893,0.218157873900937,0.211560191469842,0.274240751420958,0.201190909959052,0.210355304534692,1.0843326567057,0.0843326567057019,1.0057278657071,0.00572786570709605,1,2,-1.04083795724924,-0.619677335393187,0.5,-0.5
"67","1_2",79,"4_2",79,"4",1,"Female","Male",23,23,"Stim\r21y24g16b04.jpeg","Stim\r09y15g18b07.jpeg",21,9,24,15,16,18,4,7,2,-2,0,1,1,0,1,1.148,4.692,0,2.5,2,"grøn","4_1",2,0,1,1,"Right_lead","Male","Female","surrender",0.289278129951893,0.218157873900937,0.205053738592673,0.274240751420958,0.201190909959052,0.202836425269882,0.922226213344979,-0.0777737866550214,0.989186672049927,-0.0108133279500725,2,2,-0.0770991079443883,-0.619677335393187,1,0
"68","1_2",84,"4_2",84,"4",1,"Female","Male",23,23,"Stim\r07y02g03b06.jpeg","Stim\r10y37g07b02.jpeg",7,10,2,37,3,7,6,2,-2,3,-1,0,0,1,0,1.665,3.007,2.355,0,2,"grøn","4_1",4,1,0,0,"Left_lead","Female","Male","stick",0.289278129951893,0.218157873900937,0.207386927529689,0.274240751420958,0.201190909959052,0.204757294528274,1.0843326567057,0.0843326567057019,1.01284268288206,0.0128426828820591,2,3,-0.0770991079443883,0.92951600308978,0.666666666666667,-0.333333333333333
"69","1_2",90,"4_2",90,"4",1,"Female","Male",23,23,"Stim\r10y07g11b10.jpeg","Stim\r18y19g14b27.jpeg",10,18,7,19,11,14,10,27,-2,3,1,0,0,1,1,1.827,1.573,2.359,0,2,"grøn","4_1",3,1,0,1,"Left_lead","Female","Male","surrender",0.289278129951893,0.218157873900937,0.245440620576189,0.274240751420958,0.201190909959052,0.256522949693012,1.0843326567057,0.0843326567057019,0.9567979039299,-0.0432020960701002,2,3,-0.0770991079443883,0.92951600308978,0.666666666666667,-0.333333333333333
"70","1_2",92,"4_2",92,"4",1,"Female","Male",23,23,"Stim\r12y12g14b26.jpeg","Stim\r11y14g08b23.jpeg",12,11,12,14,14,8,26,23,-2,1,0,-1,1,0,1,1.432,2.695,0,2.127,2,"grøn","4_1",-6,1,0,0,"Right_lead","Male","Female","surrender",0.289278129951893,0.218157873900937,0.2527282434317,0.274240751420958,0.201190909959052,0.258791386560951,0.922226213344979,-0.0777737866550214,1.02399076196203,0.0239907619620268,2,1,-0.0770991079443883,-2.16887067387615,0.5,-0.5
"71","1_2",95,"4_2",95,"4",1,"Female","Male",23,23,"Stim\r07y14g27b22.jpeg","Stim\r12y09g30b18.jpeg",7,12,14,9,27,30,22,18,-1,3,1,0,0,1,1,1.625,3.323,2.853,0,2,"grøn","4_1",3,1,0,1,"Left_lead","Female","Male","surrender",0.289278129951893,0.218157873900937,0.236046905387401,0.274240751420958,0.201190909959052,0.233182409426517,1.0843326567057,0.0843326567057019,1.01228435698871,0.0122843569887148,1,3,-1.04083795724924,0.92951600308978,0.333333333333333,-0.666666666666667
"72","11_1",10,"9_1",10,"9",11,"Male","Male",23,23,"Stim\r01y27g01b01.jpeg","Stim\r04y39g24b15.jpeg",1,4,27,39,1,24,1,15,-3,2,0,1,0,1,1,9.674,2.235,0,5.264,1,"rød","9_11",3,1,0,1,"Right_lead","Male","Male","stick",0.195060614609337,0.224368305517434,0.20661102408461,0.17508556247702,0.208198993676053,0.196738875670427,0.927934064465604,-0.0720659355343957,0.952218675368744,-0.047781324631256,3,2,-0.66884408058887,-0.952500952501429,0.666666666666667,-0.333333333333333
"73","11_1",16,"9_1",16,"9",11,"Male","Male",23,23,"Stim\r14y10g15b15.jpeg","Stim\r15y05g12b10.jpeg",14,15,10,5,15,12,15,10,4,-4,1,0,1,0,1,1.404,2.117,2.386,0,1,"rød","9_11",1,0,1,1,"Left_lead","Male","Male","stick",0.195060614609337,0.224368305517434,0.211016334207425,0.17508556247702,0.208198993676053,0.201624068717939,1.07766277615414,0.0776627761541422,1.04658305701898,0.0465830570189776,4,4,0.812167812143628,1.01600101600152,1,0
"74","11_1",17,"9_1",17,"9",11,"Male","Male",23,23,"Stim\r02y19g24b04.jpeg","Stim\r04y39g24b15.jpeg",2,4,19,39,24,24,4,15,-4,3,0,1,0,1,1,2.177,1.789,0,1.975,1,"rød","9_11",2,1,0,1,"Right_lead","Male","Male","stick",0.195060614609337,0.224368305517434,0.210360928570663,0.17508556247702,0.208198993676053,0.203998465907189,0.927934064465604,-0.0720659355343957,0.969754541840517,-0.030245458159483,4,3,0.812167812143628,0.0317500317500476,0.75,-0.25
"75","11_1",20,"9_1",20,"9",11,"Male","Male",23,23,"Stim\r21y31g06b08.jpeg","Stim\r17y11g38b07.jpeg",21,17,31,11,6,38,8,7,-4,4,0,1,1,0,0,1.773,1.369,0,1.548,1,"rød","9_11",-4,1,0,1,"Right_lead","Male","Male","stick",0.195060614609337,0.224368305517434,0.240731805534843,0.17508556247702,0.208198993676053,0.225302838987142,0.927934064465604,-0.0720659355343957,0.935908067845784,-0.0640919321542156,4,4,0.812167812143628,1.01600101600152,1,0
"76","11_1",22,"9_1",22,"9",11,"Male","Male",23,23,"Stim\r05y40g33b16.jpeg","Stim\r08y23g10b29.jpeg",5,8,40,23,33,10,16,29,4,-2,1,0,1,0,1,3.141,2.354,3.796,0,1,"rød","9_11",3,0,1,1,"Left_lead","Male","Male","stick",0.195060614609337,0.224368305517434,0.232523099890748,0.17508556247702,0.208198993676053,0.223031255106905,1.07766277615414,0.0776627761541422,1.04255836151437,0.0425583615143683,4,2,0.812167812143628,-0.952500952501429,2,1
"77","11_1",24,"9_1",24,"9",11,"Male","Male",23,23,"Stim\r10y37g07b02.jpeg","Stim\r06y14g31b25.jpeg",10,6,37,14,7,31,2,25,4,-3,0,-1,0,1,1,1.145,1.457,0,1.214,1,"rød","9_11",-4,0,1,0,"Right_lead","Male","Male","stick",0.195060614609337,0.224368305517434,0.238908170417743,0.17508556247702,0.208198993676053,0.237256263192537,0.927934064465604,-0.0720659355343957,0.993085597607158,-0.00691440239284224,4,3,0.812167812143628,0.0317500317500476,0.75,-0.25
"78","11_1",25,"9_1",25,"9",11,"Male","Male",23,23,"Stim\r06y14g31b25.jpeg","Stim\r09y06g26b32.jpeg",6,9,14,6,31,26,25,32,4,-3,1,0,1,0,1,1.843,1.339,1.916,0,1,"rød","9_11",3,0,1,1,"Left_lead","Male","Male","stick",0.195060614609337,0.224368305517434,0.243382136210498,0.17508556247702,0.208198993676053,0.240073335090461,1.07766277615414,0.0776627761541422,1.01378245992538,0.0137824599253817,4,3,0.812167812143628,0.0317500317500476,1.33333333333333,0.333333333333333
"79","11_1",29,"9_1",29,"9",11,"Male","Male",23,23,"Stim\r12y09g30b18.jpeg","Stim\r10y27g22b14.jpeg",12,10,9,27,30,22,18,14,4,-3,-1,0,0,1,1,1.819,2.099,2.679,0,1,"blå","9_11",-4,0,1,0,"Left_lead","Male","Male","surrender",0.195060614609337,0.224368305517434,0.231807197406181,0.17508556247702,0.208198993676053,0.232209267448896,1.07766277615414,0.0776627761541422,0.998268501308616,-0.001731498691384,4,3,0.812167812143628,0.0317500317500476,1.33333333333333,0.333333333333333
"80","11_1",30,"9_1",30,"9",11,"Male","Male",23,23,"Stim\r10y02g36b05.jpeg","Stim\r04y28g27b06.jpeg",10,4,2,28,36,27,5,6,4,-2,0,1,1,0,1,1.906,1.769,0,2.152,1,"blå","9_11",1,0,1,1,"Right_lead","Male","Male","surrender",0.195060614609337,0.224368305517434,0.223407598479719,0.17508556247702,0.208198993676053,0.228645441778298,0.927934064465604,-0.0720659355343957,1.02344523343979,0.0234452334397859,4,2,0.812167812143628,-0.952500952501429,0.5,-0.5
"81","11_1",32,"9_1",32,"9",11,"Male","Male",23,23,"Stim\r04y16g13b13.jpeg","Stim\r15y05g12b10.jpeg",4,15,16,5,13,12,13,10,-3,3,0,1,1,0,0,1.365,1.578,0,1.263,1,"blå","9_11",-3,1,0,1,"Right_lead","Male","Male","stick",0.195060614609337,0.224368305517434,0.221631382950889,0.17508556247702,0.208198993676053,0.22486375629395,0.927934064465604,-0.0720659355343957,1.01458445685816,0.0145844568581575,3,3,-0.66884408058887,0.0317500317500476,1,0
"82","11_1",33,"9_1",33,"9",11,"Male","Male",23,23,"Stim\r06y14g31b25.jpeg","Stim\r13y24g05b28.jpeg",6,13,14,24,31,5,25,28,3,-2,0,-1,1,0,0,1.691,1.571,0,1.912,1,"blå","9_11",3,0,1,0,"Right_lead","Male","Male","stick",0.195060614609337,0.224368305517434,0.207271224779841,0.17508556247702,0.208198993676053,0.204518251528728,0.927934064465604,-0.0720659355343957,0.986718015228418,-0.013281984771582,3,2,-0.66884408058887,-0.952500952501429,0.666666666666667,-0.333333333333333
"83","11_1",34,"9_1",34,"9",11,"Male","Male",23,23,"Stim\r17y20g40b07.jpeg","Stim\r09y07g06b09.jpeg",17,9,20,7,40,6,7,9,4,-2,1,0,1,0,1,1.297,2.01,1.113,0,1,"blå","9_11",2,0,1,1,"Left_lead","Male","Male","stick",0.195060614609337,0.224368305517434,0.222019524785158,0.17508556247702,0.208198993676053,0.187857241161151,1.07766277615414,0.0776627761541422,1.18185236519417,0.181852365194171,4,2,0.812167812143628,-0.952500952501429,2,1
"84","11_1",37,"9_1",37,"9",11,"Male","Male",23,23,"Stim\r16y21g04b04.jpeg","Stim\r17y11g38b07.jpeg",16,17,21,11,4,38,4,7,4,-3,0,-1,1,0,0,1.118,1.399,0,1.181,1,"blå","9_11",3,0,1,0,"Right_lead","Male","Male","stick",0.195060614609337,0.224368305517434,0.189277110228623,0.17508556247702,0.208198993676053,0.160259713726748,0.927934064465604,-0.0720659355343957,0.846693578178441,-0.153306421821559,4,3,0.812167812143628,0.0317500317500476,0.75,-0.25
"85","11_1",39,"9_1",39,"9",11,"Male","Male",23,23,"Stim\r22y35g09b11.jpeg","Stim\r09y07g06b09.jpeg",22,9,35,7,9,6,11,9,-2,1,0,-1,1,0,1,3.815,2.556,0,3.192,1,"blå","9_11",-2,1,0,0,"Right_lead","Male","Male","surrender",0.195060614609337,0.224368305517434,0.164601489469392,0.17508556247702,0.208198993676053,0.146709319195121,0.927934064465604,-0.0720659355343957,0.891300070661887,-0.108699929338113,2,1,-2.14985597332137,-1.93675193675291,0.5,-0.5
"86","11_1",43,"9_1",43,"9",11,"Male","Male",23,23,"Stim\r11y14g08b23.jpeg","Stim\r09y17g32b21.jpeg",11,9,14,17,8,32,23,21,2,-2,0,-1,0,1,1,2.535,2.581,0,1.68,1,"blå","9_11",-2,0,1,0,"Right_lead","Male","Male","stick",0.195060614609337,0.224368305517434,0.154589675727151,0.17508556247702,0.208198993676053,0.149013868120712,0.927934064465604,-0.0720659355343957,0.963931565415272,-0.0360684345847276,2,2,-2.14985597332137,-0.952500952501429,1,0
"87","11_1",45,"9_1",45,"9",11,"Male","Male",23,23,"Stim\r21y24g16b04.jpeg","Stim\r21y31g06b08.jpeg",21,21,24,31,16,6,4,8,4,-1,0,-1,1,0,0,1.799,1.78,0,1.811,1,"blå","9_11",4,0,1,0,"Right_lead","Male","Male","stick",0.195060614609337,0.224368305517434,0.171755681970261,0.17508556247702,0.208198993676053,0.165314226325792,0.927934064465604,-0.0720659355343957,0.962496404365916,-0.0375035956340839,4,1,0.812167812143628,-1.93675193675291,0.25,-0.75
"88","11_1",49,"9_1",49,"9",11,"Male","Male",23,23,"Stim\r08y09g09b11.jpeg","Stim\r03y06g12b09.jpeg",8,3,9,6,9,12,11,9,3,-2,1,0,0,1,0,0.99,1.035,1.346,0,1,"blå","9_11",-2,0,1,1,"Left_lead","Male","Male","stick",0.195060614609337,0.224368305517434,0.16959214435705,0.17508556247702,0.208198993676053,0.171431016258473,1.07766277615414,0.0776627761541422,0.989273400219185,-0.0107265997808149,3,2,-0.66884408058887,-0.952500952501429,1.5,0.5
"89","11_1",54,"9_1",54,"9",11,"Male","Male",23,23,"Stim\r15y16g12b03.jpeg","Stim\r02y19g24b04.jpeg",15,2,16,19,12,24,3,4,-3,4,-1,0,0,1,0,1.417,1.231,1.41,0,1,"gul","9_11",3,1,0,0,"Left_lead","Male","Male","stick",0.195060614609337,0.224368305517434,0.166471940471019,0.17508556247702,0.208198993676053,0.1684041957913,1.07766277615414,0.0776627761541422,0.988526085640552,-0.0114739143594476,3,4,-0.66884408058887,1.01600101600152,0.75,-0.25
"90","11_1",57,"9_1",57,"9",11,"Male","Male",23,23,"Stim\r15y17g24b30.jpeg","Stim\r19y15g35b05.jpeg",15,19,17,15,24,35,30,5,-4,4,0,1,1,0,0,1.936,2.086,0,1.501,1,"gul","9_11",-2,1,0,1,"Right_lead","Male","Male","stick",0.195060614609337,0.224368305517434,0.202383851672639,0.17508556247702,0.208198993676053,0.239735482407151,0.927934064465604,-0.0720659355343957,1.18455835495674,0.184558354956744,4,4,0.812167812143628,1.01600101600152,1,0
"91","11_1",58,"9_1",58,"9",11,"Male","Male",23,23,"Stim\r11y26g25b38.jpeg","Stim\r05y28g23b30.jpeg",11,5,26,28,25,23,38,30,-3,4,1,0,0,1,1,1.851,1.447,2.295,0,1,"gul","9_11",2,1,0,1,"Left_lead","Male","Male","surrender",0.195060614609337,0.224368305517434,0.201039035711761,0.17508556247702,0.208198993676053,0.249582761986535,1.07766277615414,0.0776627761541422,0.805500484535094,-0.194499515464906,3,4,-0.66884408058887,1.01600101600152,0.75,-0.25
"92","11_1",59,"9_1",59,"9",11,"Male","Male",23,23,"Stim\r09y15g18b07.jpeg","Stim\r08y12g20b03.jpeg",9,8,15,12,18,20,7,3,-4,2,-1,0,1,0,1,1.379,1.791,1.562,0,1,"gul","9_11",-3,1,0,0,"Left_lead","Male","Male","stick",0.195060614609337,0.224368305517434,0.199548214649241,0.17508556247702,0.208198993676053,0.201980223318863,1.07766277615414,0.0776627761541422,0.987959174271321,-0.0120408257286786,4,2,0.812167812143628,-0.952500952501429,2,1
"93","11_1",60,"9_1",60,"9",11,"Male","Male",23,23,"Stim\r19y15g35b05.jpeg","Stim\r12y12g14b26.jpeg",19,12,15,12,35,14,5,26,-2,4,0,1,1,0,0,1.64,1.753,0,1.411,1,"gul","9_11",-3,1,0,1,"Right_lead","Male","Male","stick",0.195060614609337,0.224368305517434,0.220529214226415,0.17508556247702,0.208198993676053,0.182437124664287,0.927934064465604,-0.0720659355343957,0.827269644542336,-0.172730355457664,2,4,-2.14985597332137,1.01600101600152,2,1
"94","11_1",62,"9_1",62,"9",11,"Male","Male",23,23,"Stim\r21y31g06b08.jpeg","Stim\r01y27g01b01.jpeg",21,1,31,27,6,1,8,1,-4,4,-1,0,1,0,1,2.077,1.555,2.793,0,1,"gul","9_11",-4,1,0,0,"Left_lead","Male","Male","stick",0.195060614609337,0.224368305517434,0.231602357187178,0.17508556247702,0.208198993676053,0.198633321959366,1.07766277615414,0.0776627761541422,1.16597937799458,0.165979377994576,4,4,0.812167812143628,1.01600101600152,1,0
"95","11_1",63,"9_1",63,"9",11,"Male","Male",23,23,"Stim\r22y23g20b06.jpeg","Stim\r21y24g16b04.jpeg",22,21,23,24,20,16,6,4,-3,2,-1,0,0,1,0,1.632,2.08,1.272,0,1,"gul","9_11",1,1,0,0,"Left_lead","Male","Male","stick",0.195060614609337,0.224368305517434,0.235217565682949,0.17508556247702,0.208198993676053,0.193355800765142,1.07766277615414,0.0776627761541422,1.21650121047392,0.216501210473918,3,2,-0.66884408058887,-0.952500952501429,1.5,0.5
"96","11_1",66,"9_1",66,"9",11,"Male","Male",23,23,"Stim\r02y19g24b04.jpeg","Stim\r19y15g35b05.jpeg",2,19,19,15,24,35,4,5,-3,4,0,1,1,0,0,1.051,1.48,0,2.158,1,"gul","9_11",-4,1,0,1,"Right_lead","Male","Male","stick",0.195060614609337,0.224368305517434,0.23040935907051,0.17508556247702,0.208198993676053,0.207097316670917,0.927934064465604,-0.0720659355343957,0.898823370310843,-0.101176629689157,3,4,-0.66884408058887,1.01600101600152,1.33333333333333,0.333333333333333
"97","11_1",73,"9_1",73,"9",11,"Male","Male",23,23,"Stim\r09y17g32b21.jpeg","Stim\r07y14g27b22.jpeg",9,7,17,14,32,27,21,22,-3,4,0,1,1,0,0,1.619,1.183,0,1.126,1,"gul","9_11",-3,1,0,1,"Right_lead","Male","Male","stick",0.195060614609337,0.224368305517434,0.248779209975402,0.17508556247702,0.208198993676053,0.232527340511653,0.927934064465604,-0.0720659355343957,0.934673522496691,-0.0653264775033087,3,4,-0.66884408058887,1.01600101600152,1.33333333333333,0.333333333333333
"98","11_1",85,"9_1",85,"9",11,"Male","Male",23,23,"Stim\r17y12g19b18.jpeg","Stim\r21y24g16b04.jpeg",17,21,12,24,19,16,18,4,3,-4,0,-1,0,1,1,1.878,1.803,0,1.278,1,"grøn","9_11",-3,0,1,0,"Right_lead","Male","Male","stick",0.195060614609337,0.224368305517434,0.198658997042259,0.17508556247702,0.208198993676053,0.205149618608847,0.927934064465604,-0.0720659355343957,1.03267217525118,0.0326721752511783,3,4,-0.66884408058887,1.01600101600152,1.33333333333333,0.333333333333333
"99","11_1",87,"9_1",87,"9",11,"Male","Male",23,23,"Stim\r06y14g31b25.jpeg","Stim\r07y14g27b22.jpeg",6,7,14,14,31,27,25,22,4,-4,0,-1,0,1,1,1.958,1.881,0,2.423,1,"grøn","9_11",-4,0,1,0,"Right_lead","Male","Male","stick",0.195060614609337,0.224368305517434,0.224531366813919,0.17508556247702,0.208198993676053,0.238756405539773,0.927934064465604,-0.0720659355343957,1.06335434967375,0.0633543496737499,4,4,0.812167812143628,1.01600101600152,1,0
"100","11_1",9,"9_1",9,"9",11,"Male","Male",23,23,"Stim\r13y24g05b28.jpeg","Stim\r21y31g06b08.jpeg",13,21,24,31,5,6,28,8,3,-2,1,0,1,0,1,1.64,2.201,2.945,0,1,"rød","9_11",8,0,1,1,"Left_lead","Male","Male","stick",0.195060614609337,0.224368305517434,NA,0.17508556247702,0.208198993676053,NA,1.07766277615414,0.0776627761541422,NA,NA,3,2,-0.66884408058887,-0.952500952501429,1.5,0.5
"101","11_1",90,"9_1",90,"9",11,"Male","Male",23,23,"Stim\r06y19g29b08.jpeg","Stim\r05y40g33b16.jpeg",6,5,19,40,29,33,8,16,4,-4,0,-1,1,0,0,1.255,1.683,0,1.174,1,"grøn","9_11",4,0,1,0,"Right_lead","Male","Male","stick",0.195060614609337,0.224368305517434,0.245923415673733,0.17508556247702,0.208198993676053,0.244931611958074,0.927934064465604,-0.0720659355343957,0.995967022038378,-0.00403297796162205,4,4,0.812167812143628,1.01600101600152,1,0
"102","11_1",93,"9_1",93,"9",11,"Male","Male",23,23,"Stim\r11y14g08b23.jpeg","Stim\r13y24g05b28.jpeg",11,13,14,24,8,5,23,28,-4,4,0,-1,1,0,1,1.275,1.005,0,1.014,1,"grøn","9_11",-3,1,0,0,"Right_lead","Male","Male","surrender",0.195060614609337,0.224368305517434,0.236330069693963,0.17508556247702,0.208198993676053,0.235671663271541,0.927934064465604,-0.0720659355343957,0.997214038724422,-0.00278596127557795,4,4,0.812167812143628,1.01600101600152,1,0
"103","11_2",11,"12_2",11,"12",11,"Female","Male",24,23,"Stim\r21y01g04b27.jpeg","Stim\r18y13g28b06.jpeg",21,18,1,13,4,28,27,6,1,-4,-1,0,0,1,1,1.925,1.271,1.975,0,2,"rød","12_11",-3,0,1,0,"Left_lead","Female","Male","surrender",0.406059892585172,0.213013104756036,0.193378971618642,0.186099968697354,0.219146525377373,0.184928958276908,0.972012238794224,-0.0279877612057761,1.04569329444381,0.0456932944438111,1,4,-0.640961115694596,0.440170421541475,0.25,-0.75
"104","11_2",14,"12_2",14,"12",11,"Female","Male",24,23,"Stim\r10y07g11b10.jpeg","Stim\r14y10g15b15.jpeg",10,14,7,10,11,15,10,15,-1,4,0,1,0,1,1,1.088,1.318,0,1.437,2,"rød","12_11",4,1,0,1,"Right_lead","Male","Female","stick",0.406059892585172,0.213013104756036,0.200266125247789,0.186099968697354,0.219146525377373,0.204997389566374,1.02879363045932,0.0287936304593188,1.02362488570012,0.0236248857001204,1,4,-0.640961115694596,0.440170421541475,4,3
"105","11_2",18,"12_2",18,"12",11,"Female","Male",24,23,"Stim\r14y12g04b29.jpeg","Stim\r17y20g40b07.jpeg",14,17,12,20,4,40,29,7,1,-4,-1,0,1,0,0,1.894,1.24,1.566,0,2,"rød","12_11",3,0,1,0,"Left_lead","Female","Male","surrender",0.406059892585172,0.213013104756036,0.217774717059083,0.186099968697354,0.219146525377373,0.23246042111094,0.972012238794224,-0.0279877612057761,0.936824927092219,-0.0631750729077806,1,4,-0.640961115694596,0.440170421541475,0.25,-0.75
"106","11_2",2,"12_2",2,"12",11,"Female","Male",24,23,"Stim\r14y08g21b39.jpeg","Stim\r18y13g28b06.jpeg",14,18,8,13,21,28,39,6,2,-3,-1,0,1,0,0,1.07,1.5,4.155,0,2,"rød","12_11",4,0,1,0,"Left_lead","Female","Male","surrender",0.406059892585172,0.213013104756036,NA,0.186099968697354,0.219146525377373,NA,0.972012238794224,-0.0279877612057761,NA,NA,2,3,0.498525312206908,-1.32051126462443,0.666666666666667,-0.333333333333333
"107","11_2",21,"12_2",21,"12",11,"Female","Male",24,23,"Stim\r17y22g16b15.jpeg","Stim\r13y21g23b09.jpeg",17,13,22,21,16,23,15,9,1,-4,-1,0,0,1,1,1.435,2.547,1.53,0,2,"rød","12_11",-4,0,1,0,"Left_lead","Female","Male","surrender",0.406059892585172,0.213013104756036,0.225985707268372,0.186099968697354,0.219146525377373,0.233822307350814,0.972012238794224,-0.0279877612057761,0.966484805614871,-0.0335151943851294,1,4,-0.640961115694596,0.440170421541475,0.25,-0.75
"108","11_2",23,"12_2",23,"12",11,"Female","Male",24,23,"Stim\r06y19g29b08.jpeg","Stim\r05y28g23b30.jpeg",6,5,19,28,29,23,8,30,2,-4,0,-1,0,1,1,1.099,1.56,0,2.498,2,"rød","12_11",-1,0,1,0,"Right_lead","Male","Female","stick",0.406059892585172,0.213013104756036,0.228728479459388,0.186099968697354,0.219146525377373,0.242151083239125,1.02879363045932,0.0287936304593188,1.05868357019407,0.058683570194066,2,4,0.498525312206908,0.440170421541475,2,1
"109","11_2",27,"12_2",27,"12",11,"Female","Male",24,23,"Stim\r20y14g02b19.jpeg","Stim\r04y39g24b15.jpeg",20,4,14,39,2,24,19,15,4,-4,0,1,0,1,0,1.315,1.229,0,2.282,2,"blå","12_11",-4,0,1,1,"Right_lead","Male","Female","surrender",0.406059892585172,0.213013104756036,0.2166456152095,0.186099968697354,0.219146525377373,0.255781775661991,1.02879363045932,0.0287936304593188,1.18064598452475,0.180645984524753,4,4,2.77749816800991,0.440170421541475,1,0
"110","11_2",28,"12_2",28,"12",11,"Female","Male",24,23,"Stim\r10y13g07b36.jpeg","Stim\r15y17g24b30.jpeg",10,15,13,17,7,24,36,30,3,-4,0,-1,0,1,1,1.037,1.233,0,1.405,2,"blå","12_11",-6,0,1,0,"Right_lead","Male","Female","stick",0.406059892585172,0.213013104756036,0.198664450009456,0.186099968697354,0.219146525377373,0.270580837467939,1.02879363045932,0.0287936304593188,1.36199927795365,0.361999277953654,3,4,1.63801174010841,0.440170421541475,1.33333333333333,0.333333333333333
"111","11_2",29,"12_2",29,"12",11,"Female","Male",24,23,"Stim\r07y06g08b05.jpeg","Stim\r18y13g28b06.jpeg",7,18,6,13,8,28,5,6,1,-4,-1,0,1,0,0,1.567,2.013,1.963,0,2,"blå","12_11",1,0,1,0,"Left_lead","Female","Male","surrender",0.406059892585172,0.213013104756036,0.197282596961304,0.186099968697354,0.219146525377373,0.268408128738133,0.972012238794224,-0.0279877612057761,0.735009769967805,-0.264990230032195,1,4,-0.640961115694596,0.440170421541475,0.25,-0.75
"112","11_2",3,"12_2",3,"12",11,"Female","Male",24,23,"Stim\r11y10g06b19.jpeg","Stim\r09y06g26b32.jpeg",11,9,10,6,6,26,19,32,1,-4,1,0,0,1,0,1.874,2.336,5.858,0,2,"rød","12_11",-2,0,1,1,"Left_lead","Female","Male","stick",0.406059892585172,0.213013104756036,NA,0.186099968697354,0.219146525377373,NA,0.972012238794224,-0.0279877612057761,NA,NA,1,4,-0.640961115694596,0.440170421541475,0.25,-0.75
"113","11_2",30,"12_2",30,"12",11,"Female","Male",24,23,"Stim\r22y23g20b06.jpeg","Stim\r16y21g04b04.jpeg",22,16,23,21,20,4,6,4,1,-3,0,1,0,1,0,1.572,1.701,0,2.231,2,"blå","12_11",-2,0,1,1,"Right_lead","Male","Female","surrender",0.406059892585172,0.213013104756036,0.200726722849211,0.186099968697354,0.219146525377373,0.239886396984276,1.02879363045932,0.0287936304593188,1.19508949072258,0.19508949072258,1,3,-0.640961115694596,-1.32051126462443,3,2
"114","11_2",35,"12_2",35,"12",11,"Female","Male",24,23,"Stim\r11y13g22b35.jpeg","Stim\r21y03g15b37.jpeg",11,21,13,3,22,15,35,37,-1,4,1,0,0,1,1,1.622,1.944,1.614,0,2,"blå","12_11",2,1,0,1,"Left_lead","Female","Male","surrender",0.406059892585172,0.213013104756036,0.17270952665356,0.186099968697354,0.219146525377373,0.250063139218901,0.972012238794224,-0.0279877612057761,0.690663674754451,-0.309336325245549,1,4,-0.640961115694596,0.440170421541475,0.25,-0.75
"115","11_2",37,"12_2",37,"12",11,"Female","Male",24,23,"Stim\r11y10g06b19.jpeg","Stim\r05y40g33b16.jpeg",11,5,10,40,6,33,19,16,1,-4,0,-1,0,1,1,1.444,1.873,0,1.431,2,"blå","12_11",-3,0,1,0,"Right_lead","Male","Female","stick",0.406059892585172,0.213013104756036,0.166304819000119,0.186099968697354,0.219146525377373,0.194451581119313,1.02879363045932,0.0287936304593188,1.16924802473207,0.169248024732066,1,4,-0.640961115694596,0.440170421541475,4,3
"116","11_2",38,"12_2",38,"12",11,"Female","Male",24,23,"Stim\r17y07g07b24.jpeg","Stim\r12y07g16b25.jpeg",17,12,7,7,7,16,24,25,-2,4,0,1,0,1,1,0.952,1.661,0,1.679,2,"blå","12_11",1,1,0,1,"Right_lead","Male","Female","stick",0.406059892585172,0.213013104756036,0.165777890012108,0.186099968697354,0.219146525377373,0.176944453592537,1.02879363045932,0.0287936304593188,1.067358581893,0.067358581892998,2,4,0.498525312206908,0.440170421541475,2,1
"117","11_2",41,"12_2",41,"12",11,"Female","Male",24,23,"Stim\r17y11g38b07.jpeg","Stim\r10y02g36b05.jpeg",17,10,11,2,38,36,7,5,1,-4,0,-1,0,1,1,0.999,2.861,0,1.161,2,"blå","12_11",-2,0,1,0,"Right_lead","Male","Female","stick",0.406059892585172,0.213013104756036,0.155480596706244,0.186099968697354,0.219146525377373,0.165441119877713,1.02879363045932,0.0287936304593188,1.06406280515046,0.0640628051504577,1,4,-0.640961115694596,0.440170421541475,4,3
"118","11_2",47,"12_2",47,"12",11,"Female","Male",24,23,"Stim\r06y14g31b25.jpeg","Stim\r14y12g04b29.jpeg",6,14,14,12,31,4,25,29,-1,4,0,1,0,1,1,1.719,2.465,0,1.378,2,"blå","12_11",4,1,0,1,"Right_lead","Male","Female","stick",0.406059892585172,0.213013104756036,0.181213172400123,0.186099968697354,0.219146525377373,0.186553896115499,1.02879363045932,0.0287936304593188,1.02947205020827,0.0294720502082684,1,4,-0.640961115694596,0.440170421541475,4,3
"119","11_2",48,"12_2",48,"12",11,"Female","Male",24,23,"Stim\r11y14g08b23.jpeg","Stim\r11y10g06b19.jpeg",11,11,14,10,8,6,23,19,1,-4,0,-1,0,1,1,4.497,1.224,0,1.199,2,"blå","12_11",-4,0,1,0,"Right_lead","Male","Female","stick",0.406059892585172,0.213013104756036,0.173782141699616,0.186099968697354,0.219146525377373,0.187191620629301,1.02879363045932,0.0287936304593188,1.07716258298199,0.0771625829819924,1,4,-0.640961115694596,0.440170421541475,4,3
"120","11_2",49,"12_2",49,"12",11,"Female","Male",24,23,"Stim\r07y02g03b06.jpeg","Stim\r19y10g06b15.jpeg",7,19,2,10,3,6,6,15,4,-4,0,1,1,0,1,1.451,2.096,0,1.16,2,"gul","12_11",8,0,1,1,"Right_lead","Male","Female","surrender",0.406059892585172,0.213013104756036,0.181901951098357,0.186099968697354,0.219146525377373,0.18733095785471,1.02879363045932,0.0287936304593188,1.02984578627976,0.0298457862797603,4,4,2.77749816800991,0.440170421541475,1,0
"121","11_2",51,"12_2",51,"12",11,"Female","Male",24,23,"Stim\r21y31g06b08.jpeg","Stim\r10y27g22b14.jpeg",21,10,31,27,6,22,8,14,2,-4,0,1,0,1,0,1.241,2.019,0,1.181,2,"gul","12_11",-4,0,1,1,"Right_lead","Male","Female","surrender",0.406059892585172,0.213013104756036,0.183884009818229,0.186099968697354,0.219146525377373,0.206282477244322,1.02879363045932,0.0287936304593188,1.12180758646842,0.121807586468416,2,4,0.498525312206908,0.440170421541475,2,1
"122","11_2",57,"12_2",57,"12",11,"Female","Male",24,23,"Stim\r14y10g15b15.jpeg","Stim\r10y07g11b10.jpeg",14,10,10,7,15,11,15,10,-1,4,0,1,1,0,0,1.235,2.097,0,1.147,2,"gul","12_11",-3,1,0,1,"Right_lead","Male","Female","stick",0.406059892585172,0.213013104756036,0.169330205007621,0.186099968697354,0.219146525377373,0.140806497292705,1.02879363045932,0.0287936304593188,0.831549795184904,-0.168450204815096,1,4,-0.640961115694596,0.440170421541475,4,3
"123","11_2",58,"12_2",58,"12",11,"Female","Male",24,23,"Stim\r04y28g27b06.jpeg","Stim\r10y27g22b14.jpeg",4,10,28,27,27,22,6,14,-3,4,1,0,1,0,0,1.434,1.563,2.728,0,2,"gul","12_11",-1,1,0,1,"Left_lead","Female","Male","surrender",0.406059892585172,0.213013104756036,0.191912433062469,0.186099968697354,0.219146525377373,0.14303269135459,0.972012238794224,-0.0279877612057761,1.34173825050038,0.341738250500384,3,4,1.63801174010841,0.440170421541475,0.75,-0.25
"124","11_2",72,"12_2",72,"12",11,"Female","Male",24,23,"Stim\r13y24g05b28.jpeg","Stim\r10y27g22b14.jpeg",13,10,24,27,5,22,28,14,-1,4,1,0,0,1,1,0.957,1.136,2.431,0,2,"gul","12_11",3,1,0,1,"Left_lead","Female","Male","surrender",0.406059892585172,0.213013104756036,0.230376918348221,0.186099968697354,0.219146525377373,0.241619855565412,0.972012238794224,-0.0279877612057761,0.953468487964776,-0.0465315120352238,1,4,-0.640961115694596,0.440170421541475,0.25,-0.75
"125","11_2",73,"12_2",73,"12",11,"Female","Male",24,23,"Stim\r21y31g06b08.jpeg","Stim\r10y37g07b02.jpeg",21,10,31,37,6,7,8,2,1,-4,0,-1,1,0,0,2.566,2.978,0,1.114,2,"grøn","12_11",1,0,1,0,"Right_lead","Male","Female","stick",0.406059892585172,0.213013104756036,0.234931861730299,0.186099968697354,0.219146525377373,0.241832504717227,1.02879363045932,0.0287936304593188,1.02937295493299,0.029372954932992,1,4,-0.640961115694596,0.440170421541475,4,3
"126","11_2",74,"12_2",74,"12",11,"Female","Male",24,23,"Stim\r07y06g08b05.jpeg","Stim\r09y02g05b02.jpeg",7,9,6,2,8,5,5,2,-1,4,0,1,1,0,0,0.997,1.948,0,1.955,2,"grøn","12_11",-3,1,0,1,"Right_lead","Male","Female","stick",0.406059892585172,0.213013104756036,0.240629986004343,0.186099968697354,0.219146525377373,0.236035762083468,1.02879363045932,0.0287936304593188,0.980907516984221,-0.0190924830157787,1,4,-0.640961115694596,0.440170421541475,4,3
"127","11_2",76,"12_2",76,"12",11,"Female","Male",24,23,"Stim\r20y04g39b23.jpeg","Stim\r17y20g40b07.jpeg",20,17,4,20,39,40,23,7,-2,4,1,0,0,1,1,0.88,3.759,2.295,0,2,"grøn","12_11",1,1,0,1,"Left_lead","Female","Male","surrender",0.406059892585172,0.213013104756036,0.239290957990862,0.186099968697354,0.219146525377373,0.233019575560999,0.972012238794224,-0.0279877612057761,1.02691354327105,0.0269135432710514,2,4,0.498525312206908,0.440170421541475,0.5,-0.5
"128","11_2",78,"12_2",78,"12",11,"Female","Male",24,23,"Stim\r04y28g27b06.jpeg","Stim\r09y06g26b32.jpeg",4,9,28,6,27,26,6,32,-2,4,1,0,1,0,0,1.783,1.412,1.71,0,2,"grøn","12_11",-1,1,0,1,"Left_lead","Female","Male","surrender",0.406059892585172,0.213013104756036,0.206012601865046,0.186099968697354,0.219146525377373,0.207810121461233,0.972012238794224,-0.0279877612057761,0.991350182640058,-0.00864981735994197,2,4,0.498525312206908,0.440170421541475,0.5,-0.5
"129","11_2",79,"12_2",79,"12",11,"Female","Male",24,23,"Stim\r11y13g22b35.jpeg","Stim\r04y16g13b13.jpeg",11,4,13,16,22,13,35,13,-2,2,0,1,1,0,0,2.57,1.747,0,2.783,2,"grøn","12_11",-9,1,0,1,"Right_lead","Male","Female","stick",0.406059892585172,0.213013104756036,0.208631716854891,0.186099968697354,0.219146525377373,0.194333027388761,1.02879363045932,0.0287936304593188,0.931464449980656,-0.068535550019344,2,2,0.498525312206908,-3.08119295079033,1,0
"130","11_2",8,"12_2",8,"12",11,"Female","Male",24,23,"Stim\r09y17g32b21.jpeg","Stim\r13y33g08b23.jpeg",9,13,17,33,32,8,21,23,1,-4,-1,0,1,0,0,2.503,1.666,2.395,0,2,"rød","12_11",4,0,1,0,"Left_lead","Female","Male","surrender",0.406059892585172,0.213013104756036,NA,0.186099968697354,0.219146525377373,NA,0.972012238794224,-0.0279877612057761,NA,NA,1,4,-0.640961115694596,0.440170421541475,0.25,-0.75
"131","11_2",83,"12_2",83,"12",11,"Female","Male",24,23,"Stim\r22y35g09b11.jpeg","Stim\r10y37g07b02.jpeg",22,10,35,37,9,7,11,2,-1,2,0,1,1,0,0,1.606,1.859,0,1.401,2,"grøn","12_11",-2,1,0,1,"Right_lead","Male","Female","stick",0.406059892585172,0.213013104756036,0.215354565280056,0.186099968697354,0.219146525377373,0.190577225996169,1.02879363045932,0.0287936304593188,0.884946301223447,-0.115053698776553,1,2,-0.640961115694596,-3.08119295079033,2,1
"132","11_2",87,"12_2",87,"12",11,"Female","Male",24,23,"Stim\r18y19g14b27.jpeg","Stim\r04y16g13b13.jpeg",18,4,19,16,14,13,27,13,2,-3,1,0,0,1,0,1.37,1.932,4.438,0,2,"grøn","12_11",-1,0,1,1,"Left_lead","Female","Male","stick",0.406059892585172,0.213013104756036,0.234363597803792,0.186099968697354,0.219146525377373,0.214645226012968,0.972012238794224,-0.0279877612057761,1.09186494457432,0.0918649445743214,2,3,0.498525312206908,-1.32051126462443,0.666666666666667,-0.333333333333333
"133","11_2",89,"12_2",89,"12",11,"Female","Male",24,23,"Stim\r17y22g16b15.jpeg","Stim\r22y23g20b06.jpeg",17,22,22,23,16,20,15,6,1,-3,0,-1,1,0,0,0.795,1.69,0,1.299,2,"grøn","12_11",4,0,1,0,"Right_lead","Male","Female","stick",0.406059892585172,0.213013104756036,0.247582890536323,0.186099968697354,0.219146525377373,0.238715463001303,1.02879363045932,0.0287936304593188,0.964184005139406,-0.0358159948605943,1,3,-0.640961115694596,-1.32051126462443,3,2
"134","11_2",95,"12_2",95,"12",11,"Female","Male",24,23,"Stim\r11y26g25b38.jpeg","Stim\r04y39g24b15.jpeg",11,4,26,39,25,24,38,15,-1,4,0,1,1,0,0,1.353,1.633,0,1.094,2,"grøn","12_11",-1,1,0,1,"Right_lead","Male","Female","stick",0.406059892585172,0.213013104756036,0.244365261966419,0.186099968697354,0.219146525377373,0.242391036823031,1.02879363045932,0.0287936304593188,0.991921007398919,-0.00807899260108125,1,4,-0.640961115694596,0.440170421541475,4,3
"135","12_1",1,"10_1",1,"10",12,"Female","Female",26,24,"Stim\r10y02g36b05.jpeg","Stim\r09y07g06b09.jpeg",10,9,2,7,36,6,5,9,2,-1,0,1,0,1,0,5.521,9.827,0,13.074,1,"rød","10_12",-1,0,1,1,"Right_lead","Female","Female","surrender",0.350292350953413,0.21602345253645,NA,-0.139576742809814,0.228749746419545,NA,1.05891163081447,0.0589116308144702,NA,NA,2,1,-0.169106025888688,-1.03204944184868,0.5,-0.5
"136","12_1",10,"10_1",10,"10",12,"Female","Female",26,24,"Stim\r09y17g32b21.jpeg","Stim\r10y37g07b02.jpeg",9,10,17,37,32,7,21,2,2,-3,-1,0,1,0,0,4.776,1.99,13.944,0,1,"rød","10_12",1,0,1,0,"Left_lead","Female","Female","surrender",0.350292350953413,0.21602345253645,0.182767678432287,-0.139576742809814,0.228749746419545,0.212269904347532,0.944365866706783,-0.055634133293217,0.86101550285271,-0.13898449714729,2,3,-0.169106025888688,1.19082627905617,0.666666666666667,-0.333333333333333
"137","12_1",14,"10_1",14,"10",12,"Female","Female",26,24,"Stim\r12y07g07b17.jpeg","Stim\r08y23g10b29.jpeg",12,8,7,23,7,10,17,29,2,-2,1,0,0,1,0,1.295,2.473,3.564,0,1,"rød","10_12",-4,0,1,1,"Left_lead","Female","Female","stick",0.350292350953413,0.21602345253645,0.19080903278088,-0.139576742809814,0.228749746419545,0.207588467003433,0.944365866706783,-0.055634133293217,0.919169718507168,-0.0808302814928322,2,2,-0.169106025888688,0.0793884186037444,1,0
"138","12_1",15,"10_1",15,"10",12,"Female","Female",26,24,"Stim\r22y35g09b11.jpeg","Stim\r21y03g15b37.jpeg",22,21,35,3,9,15,11,37,2,-4,-1,0,0,1,1,1.439,1.437,2.497,0,1,"rød","10_12",-1,0,1,0,"Left_lead","Female","Female","surrender",0.350292350953413,0.21602345253645,0.205961693961006,-0.139576742809814,0.228749746419545,0.22265570762685,0.944365866706783,-0.055634133293217,0.925023194582456,-0.0749768054175445,2,4,-0.169106025888688,2.30226413950859,0.5,-0.5
"139","12_1",19,"10_1",19,"10",12,"Female","Female",26,24,"Stim\r06y19g29b08.jpeg","Stim\r05y09g02b34.jpeg",6,5,19,9,29,2,8,34,1,-2,0,-1,0,1,1,1.589,2.853,0,6.282,1,"rød","10_12",-1,0,1,0,"Right_lead","Female","Female","stick",0.350292350953413,0.21602345253645,0.218499591689188,-0.139576742809814,0.228749746419545,0.244902597797311,1.05891163081447,0.0589116308144702,1.1208377823684,0.120837782368403,1,2,-1.11609977086534,0.0793884186037444,2,1
"140","12_1",25,"10_1",25,"10",12,"Female","Female",26,24,"Stim\r08y12g20b03.jpeg","Stim\r07y02g03b06.jpeg",8,7,12,2,20,3,3,6,2,-3,0,-1,0,1,1,2.541,1.121,0,3.913,1,"rød","10_12",-1,0,1,0,"Right_lead","Female","Female","stick",0.350292350953413,0.21602345253645,0.245081745324456,-0.139576742809814,0.228749746419545,0.256009312571463,1.05891163081447,0.0589116308144702,1.04458743849951,0.0445874384995109,2,3,-0.169106025888688,1.19082627905617,1.5,0.5
"141","12_1",30,"10_1",30,"10",12,"Female","Female",26,24,"Stim\r16y09g06b10.jpeg","Stim\r18y13g28b06.jpeg",16,18,9,13,6,28,10,6,2,-2,0,1,0,1,0,1.309,2.74,0,5.699,1,"blå","10_12",-4,0,1,1,"Right_lead","Female","Female","surrender",0.350292350953413,0.21602345253645,0.218648946208651,-0.139576742809814,0.228749746419545,0.231498938850962,1.05891163081447,0.0589116308144702,1.0587699728955,0.0587699728954951,2,2,-0.169106025888688,0.0793884186037444,1,0
"142","12_1",31,"10_1",31,"10",12,"Female","Female",26,24,"Stim\r17y20g40b07.jpeg","Stim\r21y24g16b04.jpeg",17,21,20,24,40,16,7,4,1,-2,-1,0,0,1,1,2.064,1.812,3.281,0,1,"blå","10_12",-3,0,1,0,"Left_lead","Female","Female","surrender",0.350292350953413,0.21602345253645,0.220535677073619,-0.139576742809814,0.228749746419545,0.244538848032334,0.944365866706783,-0.055634133293217,0.901843117558396,-0.0981568824416036,1,2,-1.11609977086534,0.0793884186037444,0.5,-0.5
"143","12_1",33,"10_1",33,"10",12,"Female","Female",26,24,"Stim\r04y16g13b13.jpeg","Stim\r14y10g15b15.jpeg",4,14,16,10,13,15,13,15,4,-2,1,0,1,0,1,1.515,2.71,1.391,0,1,"blå","10_12",2,0,1,1,"Left_lead","Female","Female","stick",0.350292350953413,0.21602345253645,0.210264553727766,-0.139576742809814,0.228749746419545,0.221847853118603,0.944365866706783,-0.055634133293217,0.947787191861422,-0.0522128081385778,4,2,1.72488146406462,0.0793884186037444,2,1
"144","12_1",36,"10_1",36,"10",12,"Female","Female",26,24,"Stim\r21y24g16b04.jpeg","Stim\r09y02g05b02.jpeg",21,9,24,2,16,5,4,2,4,-1,1,0,0,1,0,1.376,2.016,1.298,0,1,"blå","10_12",-2,0,1,1,"Left_lead","Female","Female","stick",0.350292350953413,0.21602345253645,0.190567055182273,-0.139576742809814,0.228749746419545,0.212274128734767,0.944365866706783,-0.055634133293217,0.897740371462711,-0.102259628537289,4,1,1.72488146406462,-1.03204944184868,4,3
"145","12_1",40,"10_1",40,"10",12,"Female","Female",26,24,"Stim\r19y15g35b05.jpeg","Stim\r08y12g20b03.jpeg",19,8,15,12,35,20,5,3,1,-1,-1,0,0,1,1,5.523,1.879,1.709,0,1,"blå","10_12",-2,0,1,0,"Left_lead","Female","Female","surrender",0.350292350953413,0.21602345253645,0.155150759271796,-0.139576742809814,0.228749746419545,0.154595376228655,0.944365866706783,-0.055634133293217,1.00359249452791,0.003592494527906,1,1,-1.11609977086534,-1.03204944184868,1,0
"146","12_1",42,"10_1",42,"10",12,"Female","Female",26,24,"Stim\r04y28g27b06.jpeg","Stim\r10y03g03b07.jpeg",4,10,28,3,27,3,6,7,4,-1,1,0,1,0,1,1.446,1.895,3.406,0,1,"blå","10_12",1,0,1,1,"Left_lead","Female","Female","stick",0.350292350953413,0.21602345253645,0.157782445880202,-0.139576742809814,0.228749746419545,0.156110230183777,0.944365866706783,-0.055634133293217,1.01071176241593,0.0107117624159314,4,1,1.72488146406462,-1.03204944184868,4,3
"147","12_1",45,"10_1",45,"10",12,"Female","Female",26,24,"Stim\r08y23g10b29.jpeg","Stim\r07y14g27b22.jpeg",8,7,23,14,10,27,29,22,3,-2,-1,0,0,1,1,1.161,1.125,2.392,0,1,"blå","10_12",-7,0,1,0,"Left_lead","Female","Female","surrender",0.350292350953413,0.21602345253645,0.166661517377846,-0.139576742809814,0.228749746419545,0.174185045183229,0.944365866706783,-0.055634133293217,0.956807268973816,-0.0431927310261844,3,2,0.777887719087967,0.0793884186037444,1.5,0.5
"148","12_1",49,"10_1",49,"10",12,"Female","Female",26,24,"Stim\r10y13g07b36.jpeg","Stim\r09y06g26b32.jpeg",10,9,13,6,7,26,36,32,4,-4,0,1,0,1,0,1.684,1.548,0,11.35,1,"blå","10_12",-4,0,1,1,"Right_lead","Female","Female","surrender",0.350292350953413,0.21602345253645,0.177173708226549,-0.139576742809814,0.228749746419545,0.201835096104112,1.05891163081447,0.0589116308144702,1.13919327040347,0.139193270403467,4,4,1.72488146406462,2.30226413950859,1,0
"149","12_1",5,"10_1",5,"10",12,"Female","Female",26,24,"Stim\r12y07g16b25.jpeg","Stim\r09y02g05b02.jpeg",12,9,7,2,16,5,25,2,3,-2,0,1,0,1,0,1.628,1.942,0,9.918,1,"rød","10_12",-3,0,1,1,"Right_lead","Female","Female","surrender",0.350292350953413,0.21602345253645,NA,-0.139576742809814,0.228749746419545,NA,1.05891163081447,0.0589116308144702,NA,NA,3,2,0.777887719087967,0.0793884186037444,0.666666666666667,-0.333333333333333
"150","12_1",57,"10_1",57,"10",12,"Female","Female",26,24,"Stim\r08y23g10b29.jpeg","Stim\r10y27g22b14.jpeg",8,10,23,27,10,22,29,14,3,-1,0,1,1,0,1,1.274,1.671,0,3.096,1,"gul","10_12",4,0,1,1,"Right_lead","Female","Female","surrender",0.350292350953413,0.21602345253645,0.28065875564867,-0.139576742809814,0.228749746419545,0.272154208167814,1.05891163081447,0.0589116308144702,0.969697907834017,-0.0303020921659827,3,1,0.777887719087967,-1.03204944184868,0.333333333333333,-0.666666666666667
"151","12_1",62,"10_1",62,"10",12,"Female","Female",26,24,"Stim\r14y12g04b29.jpeg","Stim\r18y13g28b06.jpeg",14,18,12,13,4,28,29,6,-2,3,0,1,0,1,1,0.982,1.48,0,4.282,1,"gul","10_12",1,1,0,1,"Right_lead","Female","Female","stick",0.350292350953413,0.21602345253645,0.233618080026572,-0.139576742809814,0.228749746419545,0.22556363455883,1.05891163081447,0.0589116308144702,0.965523021733481,-0.034476978266519,2,3,-0.169106025888688,1.19082627905617,1.5,0.5
"152","12_1",64,"10_1",64,"10",12,"Female","Female",26,24,"Stim\r03y06g12b09.jpeg","Stim\r10y03g03b07.jpeg",3,10,6,3,12,3,9,7,2,-2,-1,0,0,1,1,0.854,1.219,1.471,0,1,"gul","10_12",-3,0,1,0,"Left_lead","Female","Female","surrender",0.350292350953413,0.21602345253645,0.216070187060885,-0.139576742809814,0.228749746419545,0.220362617390744,0.944365866706783,-0.055634133293217,0.980521059421582,-0.0194789405784183,2,2,-0.169106025888688,0.0793884186037444,1,0
"153","12_1",67,"10_1",67,"10",12,"Female","Female",26,24,"Stim\r06y19g29b08.jpeg","Stim\r14y20g16b10.jpeg",6,14,19,20,29,16,8,10,-1,2,1,0,0,1,1,1.934,0.847,2.474,0,1,"gul","10_12",1,1,0,1,"Left_lead","Female","Female","surrender",0.350292350953413,0.21602345253645,0.231445999560893,-0.139576742809814,0.228749746419545,0.241948465848478,0.944365866706783,-0.055634133293217,0.956592135227002,-0.0434078647729977,1,2,-1.11609977086534,0.0793884186037444,0.5,-0.5
"154","12_1",7,"10_1",7,"10",12,"Female","Female",26,24,"Stim\r22y23g20b06.jpeg","Stim\r16y21g04b04.jpeg",22,16,23,21,20,4,6,4,3,-3,0,-1,0,1,1,2.329,1.93,0,3.411,1,"rød","10_12",-6,0,1,0,"Right_lead","Female","Female","stick",0.350292350953413,0.21602345253645,NA,-0.139576742809814,0.228749746419545,NA,1.05891163081447,0.0589116308144702,NA,NA,3,3,0.777887719087967,1.19082627905617,1,0
"155","12_1",73,"10_1",73,"10",12,"Female","Female",26,24,"Stim\r22y02g34b05.jpeg","Stim\r10y03g03b07.jpeg",22,10,2,3,34,3,5,7,3,-1,1,0,1,0,1,1.066,1.178,0.983,0,1,"gul","10_12",1,0,1,1,"Left_lead","Female","Female","stick",0.350292350953413,0.21602345253645,0.230508805251679,-0.139576742809814,0.228749746419545,0.241289828901217,0.944365866706783,-0.055634133293217,0.955319195597127,-0.0446808044028731,3,1,0.777887719087967,-1.03204944184868,3,2
"156","12_1",80,"10_1",80,"10",12,"Female","Female",26,24,"Stim\r11y26g25b38.jpeg","Stim\r11y13g22b35.jpeg",11,11,26,13,25,22,38,35,-2,2,1,0,1,0,0,0.873,1.521,2.12,0,1,"grøn","10_12",-3,1,0,1,"Left_lead","Female","Female","surrender",0.350292350953413,0.21602345253645,0.209697026650933,-0.139576742809814,0.228749746419545,0.203774561374019,0.944365866706783,-0.055634133293217,1.02906381069835,0.029063810698351,2,2,-0.169106025888688,0.0793884186037444,1,0
"157","12_1",84,"10_1",84,"10",12,"Female","Female",26,24,"Stim\r04y16g13b13.jpeg","Stim\r08y23g10b29.jpeg",4,8,16,23,13,10,13,29,3,-2,0,1,0,1,0,1.109,1.205,0,2.13,1,"grøn","10_12",-3,0,1,1,"Right_lead","Female","Female","surrender",0.350292350953413,0.21602345253645,0.203301978601357,-0.139576742809814,0.228749746419545,0.20415618793735,1.05891163081447,0.0589116308144702,1.00420167743506,0.00420167743506306,3,2,0.777887719087967,0.0793884186037444,0.666666666666667,-0.333333333333333
"158","12_1",85,"10_1",85,"10",12,"Female","Female",26,24,"Stim\r21y24g16b04.jpeg","Stim\r15y16g12b03.jpeg",21,15,24,16,16,12,4,3,-1,1,1,0,1,0,0,0.991,1.406,1.275,0,1,"grøn","10_12",-4,1,0,1,"Left_lead","Female","Female","surrender",0.350292350953413,0.21602345253645,0.198632297811275,-0.139576742809814,0.228749746419545,0.189583223779,0.944365866706783,-0.055634133293217,1.0477314070934,0.0477314070934021,1,1,-1.11609977086534,-1.03204944184868,1,0
"159","12_1",92,"10_1",92,"10",12,"Female","Female",26,24,"Stim\r13y33g08b23.jpeg","Stim\r17y07g07b24.jpeg",13,17,33,7,8,7,23,24,1,-2,0,-1,0,1,1,1.288,0.969,0,2.683,1,"grøn","10_12",-1,0,1,0,"Right_lead","Female","Female","stick",0.350292350953413,0.21602345253645,0.257696892495491,-0.139576742809814,0.228749746419545,0.255474447849542,1.05891163081447,0.0589116308144702,0.99137574138195,-0.00862425861805027,1,2,-1.11609977086534,0.0793884186037444,2,1
"160","12_1",93,"10_1",93,"10",12,"Female","Female",26,24,"Stim\r14y08g21b39.jpeg","Stim\r03y06g12b09.jpeg",14,3,8,6,21,12,39,9,-1,1,1,0,1,0,0,0.926,1.57,5.309,0,1,"grøn","10_12",-9,1,0,1,"Left_lead","Female","Female","surrender",0.350292350953413,0.21602345253645,0.244507009657091,-0.139576742809814,0.228749746419545,0.233759505564212,0.944365866706783,-0.055634133293217,1.04597675746677,0.0459767574667749,1,1,-1.11609977086534,-1.03204944184868,1,0
"161","12_1",94,"10_1",94,"10",12,"Female","Female",26,24,"Stim\r09y02g05b02.jpeg","Stim\r03y11g01b26.jpeg",9,3,2,11,5,1,2,26,-1,1,0,-1,1,0,1,1.94,1.087,0,3.98,1,"grøn","10_12",-4,1,0,0,"Right_lead","Female","Female","surrender",0.350292350953413,0.21602345253645,0.250491350329966,-0.139576742809814,0.228749746419545,0.225147663352611,1.05891163081447,0.0589116308144702,0.898824103331431,-0.101175896668569,1,1,-1.11609977086534,-1.03204944184868,1,0
"162","12_1",95,"10_1",95,"10",12,"Female","Female",26,24,"Stim\r10y13g07b36.jpeg","Stim\r16y21g04b04.jpeg",10,16,13,21,7,4,36,4,-1,1,1,0,1,0,0,1.031,1.844,1.856,0,1,"grøn","10_12",-3,1,0,1,"Left_lead","Female","Female","surrender",0.350292350953413,0.21602345253645,0.244574066451445,-0.139576742809814,0.228749746419545,0.225889670099252,0.944365866706783,-0.055634133293217,1.0827147002516,0.0827147002516024,1,1,-1.11609977086534,-1.03204944184868,1,0
"163","14_1",18,"13_1",18,"13",14,"Male","Female",23,25,"Stim\r18y13g28b06.jpeg","Stim\r12y07g16b25.jpeg",18,12,13,7,28,16,6,25,2,-2,1,0,0,1,0,2.298,1.469,2.879,0,1,"rød","13_14",-6,0,1,1,"Left_lead","Male","Female","stick",-0.0147393558200618,0.214348980677473,0.196618626143643,-0.095073968668725,0.197921814831584,0.211251258665445,1.08299825797306,0.0829982579730619,0.930733513190681,-0.0692664868093186,2,2,0.174728902734291,0.514016039001138,1,0
"164","14_1",19,"13_1",19,"13",14,"Male","Female",23,25,"Stim\r10y07g11b10.jpeg","Stim\r09y15g18b07.jpeg",10,9,7,15,11,18,10,7,-1,1,1,0,1,0,0,2.529,1.738,8.43,0,1,"rød","13_14",-1,1,0,1,"Left_lead","Male","Female","surrender",-0.0147393558200618,0.214348980677473,0.20037639306088,-0.095073968668725,0.197921814831584,0.215056314886829,1.08299825797306,0.0829982579730619,0.931739173371058,-0.068260826628942,1,1,-1.09205564208932,-1.14225786444697,1,0
"165","14_1",2,"13_1",2,"13",14,"Male","Female",23,25,"Stim\r14y20g16b10.jpeg","Stim\r16y21g04b04.jpeg",14,16,20,21,16,4,10,4,-2,2,0,-1,0,1,0,4.215,3.494,0,8.333,1,"rød","13_14",2,1,0,0,"Right_lead","Female","Male","surrender",-0.0147393558200618,0.214348980677473,NA,-0.095073968668725,0.197921814831584,NA,0.923362519411249,-0.0766374805887512,NA,NA,2,2,0.174728902734291,0.514016039001138,1,0
"166","14_1",23,"13_1",23,"13",14,"Male","Female",23,25,"Stim\r13y21g23b09.jpeg","Stim\r12y07g16b25.jpeg",13,12,21,7,23,16,9,25,3,-3,0,-1,0,1,1,1.763,1.492,0,7.612,1,"rød","13_14",-1,0,1,0,"Right_lead","Female","Male","stick",-0.0147393558200618,0.214348980677473,0.222623588564678,-0.095073968668725,0.197921814831584,0.233750890964127,0.923362519411249,-0.0766374805887512,1.04998258482486,0.049982584824861,3,3,1.4415134475579,2.17028994244925,1,0
"167","14_1",24,"13_1",24,"13",14,"Male","Female",23,25,"Stim\r10y37g07b02.jpeg","Stim\r13y21g23b09.jpeg",10,13,37,21,7,23,2,9,-1,2,0,1,0,1,1,2.93,2.909,0,6.117,1,"rød","13_14",3,1,0,1,"Right_lead","Female","Male","stick",-0.0147393558200618,0.214348980677473,0.222989875105102,-0.095073968668725,0.197921814831584,0.233752712667638,0.923362519411249,-0.0766374805887512,1.04826603700039,0.0482660370003936,1,2,-1.09205564208932,0.514016039001138,2,1
"168","14_1",26,"13_1",26,"13",14,"Male","Female",23,25,"Stim\r04y28g27b06.jpeg","Stim\r10y27g22b14.jpeg",4,10,28,27,27,22,6,14,2,-3,-1,0,1,0,0,1.258,1.754,4.536,0,1,"blå","13_14",8,0,1,0,"Left_lead","Male","Female","surrender",-0.0147393558200618,0.214348980677473,0.239732508597787,-0.095073968668725,0.197921814831584,0.246040459801772,1.08299825797306,0.0829982579730619,0.974362138613027,-0.0256378613869733,2,3,0.174728902734291,2.17028994244925,0.666666666666667,-0.333333333333333
"169","14_1",32,"13_1",32,"13",14,"Male","Female",23,25,"Stim\r10y27g22b14.jpeg","Stim\r12y09g30b18.jpeg",10,12,27,9,22,30,14,18,-2,2,0,1,0,1,1,1.989,1.285,0,4.834,1,"blå","13_14",4,1,0,1,"Right_lead","Female","Male","stick",-0.0147393558200618,0.214348980677473,0.210538198703145,-0.095073968668725,0.197921814831584,0.209255759627394,0.923362519411249,-0.0766374805887512,0.99390875820326,-0.00609124179674014,2,2,0.174728902734291,0.514016039001138,1,0
"170","14_1",33,"13_1",33,"13",14,"Male","Female",23,25,"Stim\r18y19g14b27.jpeg","Stim\r05y28g23b30.jpeg",18,5,19,28,14,23,27,30,2,-1,-1,0,1,0,0,3.325,2.952,3.016,0,1,"blå","13_14",3,0,1,0,"Left_lead","Male","Female","surrender",-0.0147393558200618,0.214348980677473,0.203696465862492,-0.095073968668725,0.197921814831584,0.196651550384931,1.08299825797306,0.0829982579730619,1.03582435767107,0.0358243576710739,2,1,0.174728902734291,-1.14225786444697,2,1
"171","14_1",37,"13_1",37,"13",14,"Male","Female",23,25,"Stim\r09y07g06b09.jpeg","Stim\r22y35g09b11.jpeg",9,22,7,35,6,9,9,11,-2,2,-1,0,0,1,0,1.871,1.484,2.843,0,1,"blå","13_14",2,1,0,0,"Left_lead","Male","Female","stick",-0.0147393558200618,0.214348980677473,0.174488975559347,-0.095073968668725,0.197921814831584,0.184998543231412,1.08299825797306,0.0829982579730619,0.943191078759368,-0.0568089212406323,2,2,0.174728902734291,0.514016039001138,1,0
"172","14_1",39,"13_1",39,"13",14,"Male","Female",23,25,"Stim\r12y09g30b18.jpeg","Stim\r09y17g32b21.jpeg",12,9,9,17,30,32,18,21,2,-2,1,0,1,0,1,1.171,1.569,3.171,0,1,"blå","13_14",3,0,1,1,"Left_lead","Male","Female","stick",-0.0147393558200618,0.214348980677473,0.154089091150282,-0.095073968668725,0.197921814831584,0.153280854941712,1.08299825797306,0.0829982579730619,1.00527291036364,0.00527291036364153,2,2,0.174728902734291,0.514016039001138,1,0
"173","14_1",40,"13_1",40,"13",14,"Male","Female",23,25,"Stim\r15y16g12b03.jpeg","Stim\r22y23g20b06.jpeg",15,22,16,23,12,20,3,6,1,-1,0,1,1,0,1,2.078,1.308,0,4.612,1,"blå","13_14",3,0,1,1,"Right_lead","Female","Male","surrender",-0.0147393558200618,0.214348980677473,0.151148691127795,-0.095073968668725,0.197921814831584,0.147050045358578,0.923362519411249,-0.0766374805887512,0.972883352554131,-0.0271166474458693,1,1,-1.09205564208932,-1.14225786444697,1,0
"174","14_1",41,"13_1",41,"13",14,"Male","Female",23,25,"Stim\r17y11g38b07.jpeg","Stim\r06y19g29b08.jpeg",17,6,11,19,38,29,7,8,1,-1,0,1,1,0,1,6.864,1.567,0,4.736,1,"blå","13_14",1,0,1,1,"Right_lead","Female","Male","surrender",-0.0147393558200618,0.214348980677473,0.157491042216322,-0.095073968668725,0.197921814831584,0.153150639260186,0.923362519411249,-0.0766374805887512,0.972440318540947,-0.0275596814590525,1,1,-1.09205564208932,-1.14225786444697,1,0
"175","14_1",42,"13_1",42,"13",14,"Male","Female",23,25,"Stim\r21y01g04b27.jpeg","Stim\r15y17g24b30.jpeg",21,15,1,17,4,24,27,30,1,-2,0,-1,1,0,0,2.188,1.182,0,3.628,1,"blå","13_14",3,0,1,0,"Right_lead","Female","Male","stick",-0.0147393558200618,0.214348980677473,0.158161965169633,-0.095073968668725,0.197921814831584,0.148491096445348,0.923362519411249,-0.0766374805887512,0.938854649953845,-0.0611453500461551,1,2,-1.09205564208932,0.514016039001138,2,1
"176","14_1",47,"13_1",47,"13",14,"Male","Female",23,25,"Stim\r09y06g26b32.jpeg","Stim\r05y28g23b30.jpeg",9,5,6,28,26,23,32,30,-2,2,0,1,1,0,0,2.39,2.669,0,2.252,1,"blå","13_14",-2,1,0,1,"Right_lead","Female","Male","stick",-0.0147393558200618,0.214348980677473,0.189303082227389,-0.095073968668725,0.197921814831584,0.177864166312399,0.923362519411249,-0.0766374805887512,0.939573535832609,-0.0604264641673909,2,2,0.174728902734291,0.514016039001138,1,0
"177","14_1",48,"13_1",48,"13",14,"Male","Female",23,25,"Stim\r11y14g08b23.jpeg","Stim\r12y12g14b26.jpeg",11,12,14,12,8,14,23,26,3,-2,1,0,1,0,1,5.236,1.548,4.186,0,1,"blå","13_14",3,0,1,1,"Left_lead","Male","Female","stick",-0.0147393558200618,0.214348980677473,0.192030178624285,-0.095073968668725,0.197921814831584,0.174254492463268,1.08299825797306,0.0829982579730619,1.10200991612749,0.102009916127494,3,2,1.4415134475579,0.514016039001138,1.5,0.5
"178","14_1",49,"13_1",49,"13",14,"Male","Female",23,25,"Stim\r03y06g12b09.jpeg","Stim\r22y35g09b11.jpeg",3,22,6,35,12,9,9,11,2,-1,0,1,1,0,1,2.471,1.399,0,2.227,1,"blå","13_14",2,0,1,1,"Right_lead","Female","Male","surrender",-0.0147393558200618,0.214348980677473,0.204418575413836,-0.095073968668725,0.197921814831584,0.182759563388438,0.923362519411249,-0.0766374805887512,0.894045773572434,-0.105954226427566,2,1,0.174728902734291,-1.14225786444697,0.5,-0.5
"179","14_1",51,"13_1",51,"13",14,"Male","Female",23,25,"Stim\r12y07g16b25.jpeg","Stim\r03y06g12b09.jpeg",12,3,7,6,16,12,25,9,3,-2,0,-1,0,1,1,2.664,1.509,0,2.332,1,"gul","13_14",-1,0,1,0,"Right_lead","Female","Male","stick",-0.0147393558200618,0.214348980677473,0.237156695686315,-0.095073968668725,0.197921814831584,0.197458348714961,0.923362519411249,-0.0766374805887512,0.832607100312012,-0.167392899687988,3,2,1.4415134475579,0.514016039001138,0.666666666666667,-0.333333333333333
"180","14_1",53,"13_1",53,"13",14,"Male","Female",23,25,"Stim\r18y19g14b27.jpeg","Stim\r08y23g10b29.jpeg",18,8,19,23,14,10,27,29,-1,2,1,0,0,1,1,1.731,2.31,1.489,0,1,"gul","13_14",4,1,0,1,"Left_lead","Male","Female","surrender",-0.0147393558200618,0.214348980677473,0.212936134440548,-0.095073968668725,0.197921814831584,0.201910388396662,1.08299825797306,0.0829982579730619,1.05460712611887,0.0546071261188674,1,2,-1.09205564208932,0.514016039001138,0.5,-0.5
"181","14_1",56,"13_1",56,"13",14,"Male","Female",23,25,"Stim\r16y09g06b10.jpeg","Stim\r09y07g06b09.jpeg",16,9,9,7,6,6,10,9,-1,2,0,1,1,0,0,2.831,1.127,0,2.725,1,"gul","13_14",-2,1,0,1,"Right_lead","Female","Male","stick",-0.0147393558200618,0.214348980677473,0.162258305344288,-0.095073968668725,0.197921814831584,0.12032858636656,0.923362519411249,-0.0766374805887512,0.741586608532861,-0.258413391467139,1,2,-1.09205564208932,0.514016039001138,2,1
"182","14_1",63,"13_1",63,"13",14,"Male","Female",23,25,"Stim\r13y21g23b09.jpeg","Stim\r18y19g14b27.jpeg",13,18,21,19,23,14,9,27,-4,1,-1,0,1,0,1,1.667,0.863,1.729,0,1,"gul","13_14",-2,1,0,0,"Left_lead","Male","Female","stick",-0.0147393558200618,0.214348980677473,0.213736535148987,-0.095073968668725,0.197921814831584,0.197232957410391,1.08299825797306,0.0829982579730619,1.08367555785444,0.0836755578544426,4,1,2.7082979923815,-1.14225786444697,4,3
"183","14_1",66,"13_1",66,"13",14,"Male","Female",23,25,"Stim\r09y07g06b09.jpeg","Stim\r07y14g27b22.jpeg",9,7,7,14,6,27,9,22,2,-2,-1,0,1,0,0,2.58,1.909,2.195,0,1,"gul","13_14",7,0,1,0,"Left_lead","Male","Female","surrender",-0.0147393558200618,0.214348980677473,0.220732775465927,-0.095073968668725,0.197921814831584,0.20543644622554,1.08299825797306,0.0829982579730619,1.07445771926756,0.0744577192675628,2,2,0.174728902734291,0.514016039001138,1,0
"184","14_1",67,"13_1",67,"13",14,"Male","Female",23,25,"Stim\r07y14g27b22.jpeg","Stim\r11y13g22b35.jpeg",7,11,14,13,27,22,22,35,-1,1,-1,0,1,0,1,1.127,1.223,1.243,0,1,"gul","13_14",-1,1,0,0,"Left_lead","Male","Female","stick",-0.0147393558200618,0.214348980677473,0.239596455565852,-0.095073968668725,0.197921814831584,0.223618450465647,1.08299825797306,0.0829982579730619,1.07145208754883,0.0714520875488296,1,1,-1.09205564208932,-1.14225786444697,1,0
"185","14_1",69,"13_1",69,"13",14,"Male","Female",23,25,"Stim\r17y22g16b15.jpeg","Stim\r14y20g16b10.jpeg",17,14,22,20,16,16,15,10,-3,2,0,-1,1,0,1,1.526,1.006,0,3.112,1,"gul","13_14",-2,1,0,0,"Right_lead","Female","Male","surrender",-0.0147393558200618,0.214348980677473,0.243700300626029,-0.095073968668725,0.197921814831584,0.20564363465804,0.923362519411249,-0.0766374805887512,0.843838247756662,-0.156161752243338,3,2,1.4415134475579,0.514016039001138,0.666666666666667,-0.333333333333333
"186","14_1",7,"13_1",7,"13",14,"Male","Female",23,25,"Stim\r03y06g12b09.jpeg","Stim\r07y02g03b06.jpeg",3,7,6,2,12,3,9,6,1,-2,-1,0,1,0,0,3.281,2.461,6.032,0,1,"rød","13_14",4,0,1,0,"Left_lead","Male","Female","surrender",-0.0147393558200618,0.214348980677473,NA,-0.095073968668725,0.197921814831584,NA,1.08299825797306,0.0829982579730619,NA,NA,1,2,-1.09205564208932,0.514016039001138,0.5,-0.5
"187","14_1",70,"13_1",70,"13",14,"Male","Female",23,25,"Stim\r21y03g15b37.jpeg","Stim\r03y11g01b26.jpeg",21,3,3,11,15,1,37,26,2,-1,1,0,1,0,1,4.022,1.744,2.412,0,1,"gul","13_14",8,0,1,1,"Left_lead","Male","Female","stick",-0.0147393558200618,0.214348980677473,0.265309687046214,-0.095073968668725,0.197921814831584,0.157669988132225,1.08299825797306,0.0829982579730619,1.68268983963974,0.682689839639744,2,1,0.174728902734291,-1.14225786444697,2,1
"188","14_1",71,"13_1",71,"13",14,"Male","Female",23,25,"Stim\r11y26g25b38.jpeg","Stim\r05y28g23b30.jpeg",11,5,26,28,25,23,38,30,-2,1,-1,0,0,1,0,1.303,1.943,1.113,0,1,"gul","13_14",2,1,0,0,"Left_lead","Male","Female","stick",-0.0147393558200618,0.214348980677473,0.251075959440856,-0.095073968668725,0.197921814831584,0.162547859980095,1.08299825797306,0.0829982579730619,1.54462789895605,0.544627898956048,2,1,0.174728902734291,-1.14225786444697,2,1
"189","14_1",75,"13_1",75,"13",14,"Male","Female",23,25,"Stim\r12y12g14b26.jpeg","Stim\r15y16g12b03.jpeg",12,15,12,16,14,12,26,3,-2,1,0,-1,1,0,1,2.029,0.974,0,4.346,1,"grøn","13_14",-2,1,0,0,"Right_lead","Female","Male","surrender",-0.0147393558200618,0.214348980677473,0.252205046872505,-0.095073968668725,0.197921814831584,0.207338275093108,0.923362519411249,-0.0766374805887512,0.822102006538838,-0.177897993461162,2,1,0.174728902734291,-1.14225786444697,0.5,-0.5
"190","14_1",77,"13_1",77,"13",14,"Male","Female",23,25,"Stim\r14y12g04b29.jpeg","Stim\r12y07g07b17.jpeg",14,12,12,7,4,7,29,17,1,-1,0,-1,1,0,0,1.311,1.407,0,3.642,1,"grøn","13_14",3,0,1,0,"Right_lead","Female","Male","stick",-0.0147393558200618,0.214348980677473,0.214691574915023,-0.095073968668725,0.197921814831584,0.196327435515379,0.923362519411249,-0.0766374805887512,0.914462691854989,-0.0855373081450108,1,1,-1.09205564208932,-1.14225786444697,1,0
"191","14_1",89,"13_1",89,"13",14,"Male","Female",23,25,"Stim\r17y22g16b15.jpeg","Stim\r09y15g18b07.jpeg",17,9,22,15,16,18,15,7,2,-2,0,1,1,0,1,2.062,1.306,0,2.071,1,"grøn","13_14",2,0,1,1,"Right_lead","Female","Male","surrender",-0.0147393558200618,0.214348980677473,0.258496896038872,-0.095073968668725,0.197921814831584,0.25556933593476,0.923362519411249,-0.0766374805887512,0.988674679855066,-0.0113253201449341,2,2,0.174728902734291,0.514016039001138,1,0
"192","15_2",1,"13_2",1,"13",15,"Male","Male",23,20,"Stim\r08y12g20b03.jpeg","Stim\r10y37g07b02.jpeg",8,10,12,37,20,7,3,2,-1,2,0,1,0,1,1,1.369,5.818,0,2.19,2,"rød","13_15",2,1,0,1,"Right_lead","Male","Male","stick",0.35544035557098,0.192914250493589,NA,0.504632124227035,0.185077030105372,NA,0.959374590689051,-0.0406254093109489,NA,NA,1,2,-1.46427699060242,-0.445023402515898,2,1
"193","15_2",14,"13_2",14,"13",15,"Male","Male",23,20,"Stim\r18y19g14b27.jpeg","Stim\r10y03g03b07.jpeg",18,10,19,3,14,3,27,7,2,-2,1,0,0,1,0,2.281,2.061,5.082,0,2,"rød","13_15",-8,0,1,1,"Left_lead","Male","Male","stick",0.35544035557098,0.192914250493589,0.193985833787304,0.504632124227035,0.185077030105372,0.200478878462999,1.04234572158282,0.0423457215828185,0.967612325420638,-0.0323876745793616,2,2,-0.306476579428413,-0.445023402515898,1,0
"194","15_2",18,"13_2",18,"13",15,"Male","Male",23,20,"Stim\r12y12g14b26.jpeg","Stim\r08y12g20b03.jpeg",12,8,12,12,14,20,26,3,-2,3,1,0,1,0,0,2.349,1.345,1.034,0,2,"rød","13_15",-4,1,0,1,"Left_lead","Male","Male","surrender",0.35544035557098,0.192914250493589,0.204317176757961,0.504632124227035,0.185077030105372,0.223374517788871,1.04234572158282,0.0423457215828185,0.914684355137937,-0.0853156448620634,2,3,-0.306476579428413,0.930503477987786,0.666666666666667,-0.333333333333333
"195","15_2",19,"13_2",19,"13",15,"Male","Male",23,20,"Stim\r17y20g40b07.jpeg","Stim\r16y09g06b10.jpeg",17,16,20,9,40,6,7,10,-2,2,0,-1,1,0,1,1.19,1.602,0,3.355,2,"rød","13_15",-1,1,0,0,"Right_lead","Male","Male","surrender",0.35544035557098,0.192914250493589,0.209979068851115,0.504632124227035,0.185077030105372,0.213682218995597,0.959374590689051,-0.0406254093109489,1.01763580610555,0.017635806105549,2,2,-0.306476579428413,-0.445023402515898,1,0
"196","15_2",2,"13_2",2,"13",15,"Male","Male",23,20,"Stim\r11y13g22b35.jpeg","Stim\r09y07g06b09.jpeg",11,9,13,7,22,6,35,9,1,-3,-1,0,0,1,1,2.324,2.1,1.507,0,2,"rød","13_15",-2,0,1,0,"Left_lead","Male","Male","surrender",0.35544035557098,0.192914250493589,NA,0.504632124227035,0.185077030105372,NA,1.04234572158282,0.0423457215828185,NA,NA,1,3,-1.46427699060242,0.930503477987786,0.333333333333333,-0.666666666666667
"197","15_2",28,"13_2",28,"13",15,"Male","Male",23,20,"Stim\r20y14g02b19.jpeg","Stim\r14y10g15b15.jpeg",20,14,14,10,2,15,19,15,2,-2,-1,0,0,1,1,1.05,1.207,1.782,0,2,"blå","13_15",-4,0,1,0,"Left_lead","Male","Male","surrender",0.35544035557098,0.192914250493589,0.169075187534877,0.504632124227035,0.185077030105372,0.184515564275798,1.04234572158282,0.0423457215828185,0.916319380419085,-0.0836806195809154,2,2,-0.306476579428413,-0.445023402515898,1,0
"198","15_2",30,"13_2",30,"13",15,"Male","Male",23,20,"Stim\r17y11g38b07.jpeg","Stim\r10y02g36b05.jpeg",17,10,11,2,38,36,7,5,-3,2,0,-1,1,0,1,1.836,2.132,0,1.224,2,"blå","13_15",-2,1,0,0,"Right_lead","Male","Male","surrender",0.35544035557098,0.192914250493589,0.192713997932492,0.504632124227035,0.185077030105372,0.19680072250845,0.959374590689051,-0.0406254093109489,1.02120616364043,0.0212061636404304,3,2,0.851323831745592,-0.445023402515898,0.666666666666667,-0.333333333333333
"199","15_2",32,"13_2",32,"13",15,"Male","Male",23,20,"Stim\r10y03g03b07.jpeg","Stim\r03y03g02b05.jpeg",10,3,3,3,3,2,7,5,2,-2,-1,0,0,1,1,1.808,3.471,4.164,0,2,"blå","13_15",-2,0,1,0,"Left_lead","Male","Male","surrender",0.35544035557098,0.192914250493589,0.195876418302011,0.504632124227035,0.185077030105372,0.209246200543712,1.04234572158282,0.0423457215828185,0.936105017883428,-0.0638949821165715,2,2,-0.306476579428413,-0.445023402515898,1,0
"200","15_2",36,"13_2",36,"13",15,"Male","Male",23,20,"Stim\r22y02g34b05.jpeg","Stim\r10y27g22b14.jpeg",22,10,2,27,34,22,5,14,2,-2,0,1,1,0,1,1.42,2.496,0,1.27,2,"blå","13_15",9,0,1,1,"Right_lead","Male","Male","surrender",0.35544035557098,0.192914250493589,0.175095815572003,0.504632124227035,0.185077030105372,0.14534606897533,0.959374590689051,-0.0406254093109489,0.830094474276918,-0.169905525723082,2,2,-0.306476579428413,-0.445023402515898,1,0
"201","15_2",39,"13_2",39,"13",15,"Male","Male",23,20,"Stim\r21y01g04b27.jpeg","Stim\r17y07g07b24.jpeg",21,17,1,7,4,7,27,24,-4,2,-1,0,1,0,1,1.68,1.776,1.655,0,2,"blå","13_15",-3,1,0,0,"Left_lead","Male","Male","stick",0.35544035557098,0.192914250493589,0.157122709333165,0.504632124227035,0.185077030105372,0.143676796239431,1.04234572158282,0.0423457215828185,1.09358444401368,0.0935844440136804,4,2,2.0091242429196,-0.445023402515898,2,1
"202","15_2",40,"13_2",40,"13",15,"Male","Male",23,20,"Stim\r02y10g14b11.jpeg","Stim\r20y14g02b19.jpeg",2,20,10,14,14,2,11,19,-4,3,0,1,0,1,1,2.308,1.278,0,1.516,2,"blå","13_15",8,1,0,1,"Right_lead","Male","Male","stick",0.35544035557098,0.192914250493589,0.149615322604821,0.504632124227035,0.185077030105372,0.147931413566341,0.959374590689051,-0.0406254093109489,0.988745076311952,-0.0112549236880483,4,3,2.0091242429196,0.930503477987786,0.75,-0.25
"203","15_2",42,"13_2",42,"13",15,"Male","Male",23,20,"Stim\r01y27g01b01.jpeg","Stim\r09y02g05b02.jpeg",1,9,27,2,1,5,1,2,4,-2,0,1,1,0,1,2.187,1.55,0,0.929,2,"blå","13_15",1,0,1,1,"Right_lead","Male","Male","surrender",0.35544035557098,0.192914250493589,0.147402824308029,0.504632124227035,0.185077030105372,0.143578083854186,0.959374590689051,-0.0406254093109489,0.974052461533231,-0.0259475384667692,4,2,2.0091242429196,-0.445023402515898,0.5,-0.5
"204","15_2",43,"13_2",43,"13",15,"Male","Male",23,20,"Stim\r22y23g20b06.jpeg","Stim\r08y12g20b03.jpeg",22,8,23,12,20,20,6,3,1,-1,0,-1,0,1,1,1.314,0.884,0,1.693,2,"blå","13_15",-3,0,1,0,"Right_lead","Male","Male","stick",0.35544035557098,0.192914250493589,0.143015275778797,0.504632124227035,0.185077030105372,0.141909497509354,0.959374590689051,-0.0406254093109489,0.992268110777528,-0.00773188922247237,1,1,-1.46427699060242,-1.82055028301958,1,0
"205","15_2",45,"13_2",45,"13",15,"Male","Male",23,20,"Stim\r12y07g07b17.jpeg","Stim\r13y33g08b23.jpeg",12,13,7,33,7,8,17,23,2,-3,-1,0,1,0,0,1.853,1.368,1.425,0,2,"blå","13_15",6,0,1,0,"Left_lead","Male","Male","surrender",0.35544035557098,0.192914250493589,0.166477173327174,0.504632124227035,0.185077030105372,0.160894287492533,1.04234572158282,0.0423457215828185,1.03469909293641,0.0346990929364106,2,3,-0.306476579428413,0.930503477987786,0.666666666666667,-0.333333333333333
"206","15_2",46,"13_2",46,"13",15,"Male","Male",23,20,"Stim\r16y09g06b10.jpeg","Stim\r06y36g16b14.jpeg",16,6,9,36,6,16,10,14,4,-3,1,0,1,0,1,1.529,2.109,1.574,0,2,"blå","13_15",4,0,1,1,"Left_lead","Male","Male","stick",0.35544035557098,0.192914250493589,0.175183213133113,0.504632124227035,0.185077030105372,0.172480123430024,1.04234572158282,0.0423457215828185,1.01567189105234,0.015671891052337,4,3,2.0091242429196,0.930503477987786,1.33333333333333,0.333333333333333
"207","15_2",49,"13_2",49,"13",15,"Male","Male",23,20,"Stim\r12y09g30b18.jpeg","Stim\r12y07g07b17.jpeg",12,12,9,7,30,7,18,17,-1,2,1,0,1,0,0,2.475,1.07,1.122,0,2,"gul","13_15",-2,1,0,1,"Left_lead","Male","Male","surrender",0.35544035557098,0.192914250493589,0.167710938216654,0.504632124227035,0.185077030105372,0.166245628367298,1.04234572158282,0.0423457215828185,1.00881412560286,0.00881412560286154,1,2,-1.46427699060242,-0.445023402515898,0.5,-0.5
"208","15_2",55,"13_2",55,"13",15,"Male","Male",23,20,"Stim\r15y05g12b10.jpeg","Stim\r09y06g26b32.jpeg",15,9,5,6,12,26,10,32,-2,2,0,-1,0,1,0,1.68,3.125,0,1.136,2,"gul","13_15",1,1,0,0,"Right_lead","Male","Male","surrender",0.35544035557098,0.192914250493589,0.227608190783566,0.504632124227035,0.185077030105372,0.192754282676064,0.959374590689051,-0.0406254093109489,0.846868831971672,-0.153131168028328,2,2,-0.306476579428413,-0.445023402515898,1,0
"209","15_2",6,"13_2",6,"13",15,"Male","Male",23,20,"Stim\r15y16g12b03.jpeg","Stim\r18y19g14b27.jpeg",15,18,16,19,12,14,3,27,-3,3,1,0,0,1,1,1.414,1.327,1.397,0,2,"rød","13_15",3,1,0,1,"Left_lead","Male","Male","surrender",0.35544035557098,0.192914250493589,NA,0.504632124227035,0.185077030105372,NA,1.04234572158282,0.0423457215828185,NA,NA,3,3,0.851323831745592,0.930503477987786,1,0
"210","15_2",65,"13_2",65,"13",15,"Male","Male",23,20,"Stim\r06y14g31b25.jpeg","Stim\r19y10g06b15.jpeg",6,19,14,10,31,6,25,15,-2,3,0,1,1,0,0,1.336,1.415,0,1.558,2,"gul","13_15",-4,1,0,1,"Right_lead","Male","Male","stick",0.35544035557098,0.192914250493589,0.207122973055264,0.504632124227035,0.185077030105372,0.199929667699515,0.959374590689051,-0.0406254093109489,0.965270364510316,-0.0347296354896842,2,3,-0.306476579428413,0.930503477987786,1.5,0.5
"211","15_2",66,"13_2",66,"13",15,"Male","Male",23,20,"Stim\r18y19g14b27.jpeg","Stim\r15y16g12b03.jpeg",18,15,19,16,14,12,27,3,-3,2,0,1,1,0,0,2.294,1.321,0,3.185,2,"gul","13_15",-3,1,0,1,"Right_lead","Male","Male","stick",0.35544035557098,0.192914250493589,0.215389218971833,0.504632124227035,0.185077030105372,0.20228481675798,0.959374590689051,-0.0406254093109489,0.939159432972517,-0.060840567027483,3,2,0.851323831745592,-0.445023402515898,0.666666666666667,-0.333333333333333
"212","15_2",67,"13_2",67,"13",15,"Male","Male",23,20,"Stim\r07y02g03b06.jpeg","Stim\r21y01g04b27.jpeg",7,21,2,1,3,4,6,27,2,-1,-1,0,0,1,1,3.598,2.388,1.773,0,2,"gul","13_15",-1,0,1,0,"Left_lead","Male","Male","surrender",0.35544035557098,0.192914250493589,0.241036907498341,0.504632124227035,0.185077030105372,0.231658455387389,1.04234572158282,0.0423457215828185,1.0404839620262,0.0404839620262034,2,1,-0.306476579428413,-1.82055028301958,2,1
"213","15_2",72,"13_2",72,"13",15,"Male","Male",23,20,"Stim\r22y35g09b11.jpeg","Stim\r04y39g24b15.jpeg",22,4,35,39,9,24,11,15,-3,2,-1,0,0,1,0,1.343,1.255,1.297,0,2,"gul","13_15",4,1,0,0,"Left_lead","Male","Male","stick",0.35544035557098,0.192914250493589,0.236764196022852,0.504632124227035,0.185077030105372,0.230914683583451,1.04234572158282,0.0423457215828185,1.0253319206411,0.0253319206411013,3,2,0.851323831745592,-0.445023402515898,1.5,0.5
"214","15_2",73,"13_2",73,"13",15,"Male","Male",23,20,"Stim\r14y12g04b29.jpeg","Stim\r01y27g01b01.jpeg",14,1,12,27,4,1,29,1,1,-3,-1,0,0,1,1,1.815,1.342,1.08,0,2,"grøn","13_15",-3,0,1,0,"Left_lead","Male","Male","surrender",0.35544035557098,0.192914250493589,0.234393559987709,0.504632124227035,0.185077030105372,0.235944405768383,1.04234572158282,0.0423457215828185,0.993427071196609,-0.00657292880339111,1,3,-1.46427699060242,0.930503477987786,0.333333333333333,-0.666666666666667
"215","15_2",75,"13_2",75,"13",15,"Male","Male",23,20,"Stim\r11y13g22b35.jpeg","Stim\r08y12g20b03.jpeg",11,8,13,12,22,20,35,3,-2,3,0,1,1,0,0,1.156,1.585,0,1.336,2,"grøn","13_15",-2,1,0,1,"Right_lead","Male","Male","stick",0.35544035557098,0.192914250493589,0.237383915835658,0.504632124227035,0.185077030105372,0.24419623463504,0.959374590689051,-0.0406254093109489,1.0286974741966,0.0286974741966015,2,3,-0.306476579428413,0.930503477987786,1.5,0.5
"216","15_2",76,"13_2",76,"13",15,"Male","Male",23,20,"Stim\r12y07g16b25.jpeg","Stim\r21y03g15b37.jpeg",12,21,7,3,16,15,25,37,-3,1,0,-1,1,0,1,1.233,1.129,0,1.02,2,"grøn","13_15",-1,1,0,0,"Right_lead","Male","Male","surrender",0.35544035557098,0.192914250493589,0.23094249229945,0.504632124227035,0.185077030105372,0.24042275157848,0.959374590689051,-0.0406254093109489,1.04105030297645,0.0410503029764548,3,1,0.851323831745592,-1.82055028301958,0.333333333333333,-0.666666666666667
"217","15_2",77,"13_2",77,"13",15,"Male","Male",23,20,"Stim\r04y28g27b06.jpeg","Stim\r09y15g18b07.jpeg",4,9,28,15,27,18,6,7,3,-3,-1,0,0,1,1,2.501,1.229,4.585,0,2,"grøn","13_15",-9,0,1,0,"Left_lead","Male","Male","surrender",0.35544035557098,0.192914250493589,0.199850553236589,0.504632124227035,0.185077030105372,0.215474638785826,1.04234572158282,0.0423457215828185,0.927489909544451,-0.072510090455549,3,3,0.851323831745592,0.930503477987786,1,0
"218","15_2",78,"13_2",78,"13",15,"Male","Male",23,20,"Stim\r06y14g31b25.jpeg","Stim\r02y19g24b04.jpeg",6,2,14,19,31,24,25,4,-2,2,1,0,1,0,0,1.118,1.196,2.081,0,2,"grøn","13_15",-7,1,0,1,"Left_lead","Male","Male","surrender",0.35544035557098,0.192914250493589,0.19768187038237,0.504632124227035,0.185077030105372,0.206658510616948,1.04234572158282,0.0423457215828185,0.956562929792828,-0.0434370702071721,2,2,-0.306476579428413,-0.445023402515898,1,0
"219","15_2",79,"13_2",79,"13",15,"Male","Male",23,20,"Stim\r17y07g07b24.jpeg","Stim\r03y11g01b26.jpeg",17,3,7,11,7,1,24,26,-2,1,-1,0,1,0,1,1.126,2.044,2.503,0,2,"grøn","13_15",-6,1,0,0,"Left_lead","Male","Male","stick",0.35544035557098,0.192914250493589,0.19487938527803,0.504632124227035,0.185077030105372,0.197977122986884,1.04234572158282,0.0423457215828185,0.984353052200586,-0.0156469477994142,2,1,-0.306476579428413,-1.82055028301958,2,1
"220","15_2",8,"13_2",8,"13",15,"Male","Male",23,20,"Stim\r20y04g39b23.jpeg","Stim\r13y24g05b28.jpeg",20,13,4,24,39,5,23,28,-2,3,1,0,1,0,0,2.194,1.223,1.033,0,2,"rød","13_15",-7,1,0,1,"Left_lead","Male","Male","surrender",0.35544035557098,0.192914250493589,NA,0.504632124227035,0.185077030105372,NA,1.04234572158282,0.0423457215828185,NA,NA,2,3,-0.306476579428413,0.930503477987786,0.666666666666667,-0.333333333333333
"221","15_2",83,"13_2",83,"13",15,"Male","Male",23,20,"Stim\r22y35g09b11.jpeg","Stim\r08y23g10b29.jpeg",22,8,35,23,9,10,11,29,2,-3,-1,0,1,0,0,2.074,2.818,1.283,0,2,"grøn","13_15",1,0,1,0,"Left_lead","Male","Male","surrender",0.35544035557098,0.192914250493589,0.192886141739855,0.504632124227035,0.185077030105372,0.183328027282003,1.04234572158282,0.0423457215828185,1.05213667871498,0.0521366787149751,2,3,-0.306476579428413,0.930503477987786,0.666666666666667,-0.333333333333333
