thearol/gender_bias_in_decision_making/Gender_bias_study_2/disagree_sensitivity_GBDM_long_format.csv
"","SubjectID_unique","Trial","SubjectID","Gender","Age","Image_1","Image_2","Prop_red_image_1","Prop_red_image_2","Prop_yellow_image_1","Prop_yellow_image_2","Prop_green_image_1","Prop_green_image_2","Prop_blue_image_1","Prop_blue_image_2","Response","Joint","Correct","Correct_joint","RT","RT_joint","Round","Block","group_id","diff","response_dummy","response_joint_dummy","chosen_leader","Leader_gender","Follower_gender","leader_behavior","Intercept","Slope","Sensitivity_roll","skill_dif","skill_dif_c","skill_dif_roll","skill_dif_roll_c","Response_abs","z_Response_abs","conf_dif","conf_dif_c","Side"
"3","3_1",13,"3","Male",24,"Stim\r07y02g03b06.jpeg","Stim\r14y12g04b29.jpeg",7,14,2,12,3,4,6,29,-2,1,0,1,1.989,4.514,1,"rød","3_1",7,0,1,"Left_lead","Male","Male",1,0.324012494989064,0.201752410100406,0.191898788392715,1.02351086314367,0.0235108631436749,1.04834612313323,0.0483461231332276,2,-0.267273026697222,1,0,"left"
"4","3_1",15,"3","Male",24,"Stim\r13y33g08b23.jpeg","Stim\r11y13g22b35.jpeg",13,11,33,13,8,22,23,35,2,1,0,0,1.078,1.666,1,"rød","3_1",-2,1,1,"Left_lead","Male","Male",0,0.324012494989064,0.201752410100406,0.209457086021144,1.02351086314367,0.0235108631436749,1.01186630211136,0.0118663021113583,2,-0.267273026697222,2,1,"left"
"6","3_1",17,"3","Male",24,"Stim\r08y09g09b11.jpeg","Stim\r09y06g26b32.jpeg",8,9,9,6,9,26,11,32,2,-1,1,0,1.457,1.951,1,"rød","3_1",1,1,0,"Left_lead","Male","Male",1,0.324012494989064,0.201752410100406,0.201432627637386,1.02351086314367,0.0235108631436749,1.03843039460302,0.038430394603018,2,-0.267273026697222,1,0,"left"
"7","3_1",19,"3","Male",24,"Stim\r14y12g04b29.jpeg","Stim\r13y33g08b23.jpeg",14,13,12,33,4,8,29,23,2,-1,0,1,1.322,3.525,1,"rød","3_1",-1,1,0,"Left_lead","Male","Male",1,0.324012494989064,0.201752410100406,0.205353826706986,1.02351086314367,0.0235108631436749,0.946661003658535,-0.0533389963414651,2,-0.267273026697222,1,0,"left"
"10","3_1",22,"3","Male",24,"Stim\r21y03g15b37.jpeg","Stim\r18y13g28b06.jpeg",21,18,3,13,15,28,37,6,3,1,0,0,1.607,1.824,1,"rød","3_1",-3,1,1,"Left_lead","Male","Male",0,0.324012494989064,0.201752410100406,0.217106197114048,1.02351086314367,0.0235108631436749,0.93656150524639,-0.0634384947536099,3,0.75727357564213,1.5,0.5,"left"
"11","3_1",23,"3","Male",24,"Stim\r18y19g14b27.jpeg","Stim\r19y10g06b15.jpeg",18,19,19,10,14,6,27,15,1,-1,1,0,1.577,1.044,1,"rød","3_1",1,1,0,"Left_lead","Male","Male",1,0.324012494989064,0.201752410100406,0.232117549291868,1.02351086314367,0.0235108631436749,0.982826145267904,-0.0171738547320963,1,-1.29181962903657,0.5,-0.5,"left"
"12","3_1",24,"3","Male",24,"Stim\r14y08g21b39.jpeg","Stim\r12y12g14b26.jpeg",14,12,8,12,21,14,39,26,2,-1,0,1,2.765,1.33,1,"rød","3_1",-2,1,0,"Left_lead","Male","Male",1,0.324012494989064,0.201752410100406,0.23097591131886,1.02351086314367,0.0235108631436749,0.973040188066729,-0.0269598119332708,2,-0.267273026697222,1,0,"left"
"13","3_1",25,"3","Male",24,"Stim\r03y03g02b05.jpeg","Stim\r04y28g27b06.jpeg",3,4,3,28,2,27,5,6,4,1,1,1,1.327,1.14,1,"rød","3_1",1,1,1,"Left_lead","Male","Male",0,0.324012494989064,0.201752410100406,0.227886165623891,1.02351086314367,0.0235108631436749,0.940955917903218,-0.0590440820967824,4,1.78182017798148,2,1,"left"
"15","3_1",29,"3","Male",24,"Stim\r12y07g07b17.jpeg","Stim\r09y17g32b21.jpeg",12,9,7,17,7,32,17,21,-2,1,0,1,2.47,1.474,1,"blå","3_1",4,0,1,"Left_lead","Male","Male",1,0.324012494989064,0.201752410100406,0.200545078378128,1.02351086314367,0.0235108631436749,0.910650186611602,-0.0893498133883976,2,-0.267273026697222,0.666666666666667,-0.333333333333333,"left"
"16","3_1",33,"3","Male",24,"Stim\r21y31g06b08.jpeg","Stim\r22y35g09b11.jpeg",21,22,31,35,6,9,8,11,4,1,1,1,1.193,1.563,1,"blå","3_1",3,1,1,"Left_lead","Male","Male",0,0.324012494989064,0.201752410100406,0.200936989093206,1.02351086314367,0.0235108631436749,0.974996404643668,-0.0250035953563323,4,1.78182017798148,2,1,"left"
"17","3_1",34,"3","Male",24,"Stim\r13y33g08b23.jpeg","Stim\r17y22g16b15.jpeg",13,17,33,22,8,16,23,15,-1,1,1,0,2.316,1.064,1,"blå","3_1",-8,0,1,"Left_lead","Male","Male",1,0.324012494989064,0.201752410100406,0.208201869710929,1.02351086314367,0.0235108631436749,1.18960039845268,0.189600398452679,1,-1.29181962903657,0.5,-0.5,"left"
"18","3_1",35,"3","Male",24,"Stim\r11y10g06b19.jpeg","Stim\r09y17g32b21.jpeg",11,9,10,17,6,32,19,21,4,1,1,1,1.103,1.025,1,"blå","3_1",2,1,1,"Left_lead","Male","Male",0,0.324012494989064,0.201752410100406,0.20943505589255,1.02351086314367,0.0235108631436749,1.5529412981719,0.552941298171898,4,1.78182017798148,2,1,"left"
"19","3_1",36,"3","Male",24,"Stim\r10y02g36b05.jpeg","Stim\r21y31g06b08.jpeg",10,21,2,31,36,6,5,8,2,-1,1,0,1.329,3.581,1,"blå","3_1",3,1,0,"Left_lead","Male","Male",1,0.324012494989064,0.201752410100406,0.202782297792303,1.02351086314367,0.0235108631436749,1.49148200615381,0.491482006153807,2,-0.267273026697222,1,0,"left"
"20","3_1",37,"3","Male",24,"Stim\r09y06g26b32.jpeg","Stim\r03y11g01b26.jpeg",9,3,6,11,26,1,32,26,3,1,0,0,1.549,1.316,1,"blå","3_1",-6,1,1,"Left_lead","Male","Male",0,0.324012494989064,0.201752410100406,0.174391357530928,1.02351086314367,0.0235108631436749,1.13032909926275,0.13032909926275,3,0.75727357564213,1.5,0.5,"left"
"21","3_1",41,"3","Male",24,"Stim\r09y17g32b21.jpeg","Stim\r20y14g02b19.jpeg",9,20,17,14,32,2,21,19,-3,-1,1,1,1.293,1.035,1,"blå","3_1",-2,0,0,"Left_lead","Male","Male",0,0.324012494989064,0.201752410100406,0.162266679160133,1.02351086314367,0.0235108631436749,1.10056249763162,0.10056249763162,3,0.75727357564213,3,2,"left"
"27","3_1",49,"3","Male",24,"Stim\r16y09g06b10.jpeg","Stim\r21y31g06b08.jpeg",16,21,9,31,6,6,10,8,1,-1,0,1,0.987,1.848,1,"blå","3_1",-2,1,0,"Left_lead","Male","Male",1,0.324012494989064,0.201752410100406,0.17328572698084,1.02351086314367,0.0235108631436749,0.876459363565488,-0.123540636434512,1,-1.29181962903657,0.5,-0.5,"left"
"29","3_1",52,"3","Male",24,"Stim\r06y14g31b25.jpeg","Stim\r09y15g18b07.jpeg",6,9,14,15,31,18,25,7,3,1,1,1,1.654,1,1,"gul","3_1",1,1,1,"Left_lead","Male","Male",0,0.324012494989064,0.201752410100406,0.159364993410729,1.02351086314367,0.0235108631436749,0.751556147454842,-0.248443852545158,3,0.75727357564213,3,2,"left"
"30","3_1",54,"3","Male",24,"Stim\r06y19g29b08.jpeg","Stim\r22y23g20b06.jpeg",6,22,19,23,29,20,8,6,2,-1,1,0,1.066,1.032,1,"gul","3_1",4,1,0,"Left_lead","Male","Male",1,0.324012494989064,0.201752410100406,0.173298942433396,1.02351086314367,0.0235108631436749,0.890672235346198,-0.109327764653802,2,-0.267273026697222,0.666666666666667,-0.333333333333333,"left"
"34","3_1",68,"3","Male",24,"Stim\r04y39g24b15.jpeg","Stim\r13y33g08b23.jpeg",4,13,39,33,24,8,15,23,-4,-1,1,1,1.042,4.111,1,"gul","3_1",-6,0,0,"Left_lead","Male","Male",0,0.324012494989064,0.201752410100406,0.231389397193145,1.02351086314367,0.0235108631436749,1.03737121731459,0.0373712173145886,4,1.78182017798148,1.33333333333333,0.333333333333333,"left"
"36","3_1",71,"3","Male",24,"Stim\r09y02g05b02.jpeg","Stim\r03y06g12b09.jpeg",9,3,2,6,5,12,2,9,-1,1,0,1,1.305,1.346,1,"gul","3_1",4,0,1,"Left_lead","Male","Male",1,0.324012494989064,0.201752410100406,0.240578127780516,1.02351086314367,0.0235108631436749,1.24257561596762,0.242575615967625,1,-1.29181962903657,1,0,"left"
"37","3_1",74,"3","Male",24,"Stim\r11y10g06b19.jpeg","Stim\r05y09g02b34.jpeg",11,5,10,9,6,2,19,34,-2,-1,1,1,1.349,1.659,1,"grøn","3_1",-4,0,0,"Left_lead","Male","Male",0,0.324012494989064,0.201752410100406,0.244538361489844,1.02351086314367,0.0235108631436749,1.0720702990209,0.0720702990208966,2,-0.267273026697222,2,1,"left"
"41","3_1",87,"3","Male",24,"Stim\r15y05g12b10.jpeg","Stim\r08y23g10b29.jpeg",15,8,5,23,12,10,10,29,-3,-1,1,1,1.011,1.38,1,"grøn","3_1",-2,0,0,"Left_lead","Male","Male",0,0.324012494989064,0.201752410100406,0.233337287762734,1.02351086314367,0.0235108631436749,1.06358122524772,0.0635812252477181,3,0.75727357564213,1.5,0.5,"left"
"45","3_1",95,"3","Male",24,"Stim\r07y06g08b05.jpeg","Stim\r16y09g06b10.jpeg",7,16,6,9,8,6,5,10,-4,-1,1,1,1.435,0.868,1,"grøn","3_1",-2,0,0,"Left_lead","Male","Male",0,0.324012494989064,0.201752410100406,0.230279033956748,1.02351086314367,0.0235108631436749,0.985174844193515,-0.0148251558064852,4,1.78182017798148,4,3,"left"
"47","4_2",13,"4","Female",23,"Stim\r05y40g33b16.jpeg","Stim\r04y16g13b13.jpeg",5,4,40,16,33,13,16,13,2,1,0,0,1.47,3.892,2,"rød","4_1",-1,1,1,"Left_lead","Female","Male",0,0.289278129951893,0.218157873900937,0.198035482299366,1.0843326567057,0.0843326567057019,1.04672341370941,0.0467234137094126,2,-0.0770991079443883,2,1,"left"
"48","4_2",15,"4","Female",23,"Stim\r11y14g08b23.jpeg","Stim\r09y15g18b07.jpeg",11,9,14,15,8,18,23,7,-2,-1,1,1,1.539,3.311,2,"rød","4_1",-2,0,0,"Left_lead","Female","Male",0,0.289278129951893,0.218157873900937,0.21877245345443,1.0843326567057,0.0843326567057019,1.01749394694462,0.0174939469446174,2,-0.0770991079443883,1,0,"left"
"50","4_2",28,"4","Female",23,"Stim\r10y07g11b10.jpeg","Stim\r10y03g03b07.jpeg",10,10,7,3,11,3,10,7,-2,1,1,0,1.933,3.532,2,"blå","4_1",-3,0,1,"Left_lead","Female","Male",1,0.289278129951893,0.218157873900937,0.222400986418272,1.0843326567057,0.0843326567057019,1.24317124056824,0.243171240568244,2,-0.0770991079443883,0.666666666666667,-0.333333333333333,"left"
"52","4_2",36,"4","Female",23,"Stim\r21y01g04b27.jpeg","Stim\r15y17g24b30.jpeg",21,15,1,17,4,24,27,30,1,-1,1,0,1.821,5.512,2,"blå","4_1",3,1,0,"Left_lead","Female","Male",1,0.289278129951893,0.218157873900937,0.178947826610293,1.0843326567057,0.0843326567057019,1.18686800825188,0.186868008251876,1,-1.04083795724924,0.333333333333333,-0.666666666666667,"left"
"55","4_2",43,"4","Female",23,"Stim\r12y09g30b18.jpeg","Stim\r11y10g06b19.jpeg",12,11,9,10,30,6,18,19,4,1,1,1,1.703,1.51,2,"blå","4_1",1,1,1,"Left_lead","Female","Male",0,0.289278129951893,0.218157873900937,0.154936504486421,1.0843326567057,0.0843326567057019,1.05196841690964,0.0519684169096417,4,1.85037859066532,1.33333333333333,0.333333333333333,"left"
"57","4_2",49,"4","Female",23,"Stim\r22y35g09b11.jpeg","Stim\r13y33g08b23.jpeg",22,13,35,33,9,8,11,23,-1,1,1,0,2.159,4.01,2,"gul","4_1",-2,0,1,"Left_lead","Female","Male",1,0.289278129951893,0.218157873900937,0.196339316516725,1.0843326567057,0.0843326567057019,1.07022151817377,0.0702215181737715,1,-1.04083795724924,0.5,-0.5,"left"
"59","4_2",57,"4","Female",23,"Stim\r09y15g18b07.jpeg","Stim\r17y12g19b18.jpeg",9,17,15,12,18,19,7,18,-2,-1,1,1,1.804,4.565,2,"gul","4_1",-3,0,0,"Left_lead","Female","Male",0,0.289278129951893,0.218157873900937,0.19557883020966,1.0843326567057,0.0843326567057019,1.01897585219016,0.0189758521901571,2,-0.0770991079443883,1,0,"left"
"60","4_2",58,"4","Female",23,"Stim\r10y03g03b07.jpeg","Stim\r03y06g12b09.jpeg",10,3,3,6,3,12,7,9,2,-1,1,0,2.34,2.205,2,"gul","4_1",3,1,0,"Left_lead","Female","Male",1,0.289278129951893,0.218157873900937,0.195750012278223,1.0843326567057,0.0843326567057019,1.14945680459195,0.149456804591948,2,-0.0770991079443883,1,0,"left"
"64","4_2",72,"4","Female",23,"Stim\r03y11g01b26.jpeg","Stim\r08y12g20b03.jpeg",3,8,11,12,1,20,26,3,1,1,1,1,1.976,1.407,2,"gul","4_1",1,1,1,"Left_lead","Female","Male",0,0.289278129951893,0.218157873900937,0.232486895219411,1.0843326567057,0.0843326567057019,0.968033965911135,-0.0319660340888654,1,-1.04083795724924,0.5,-0.5,"left"
"65","4_2",76,"4","Female",23,"Stim\r17y07g07b24.jpeg","Stim\r10y03g03b07.jpeg",17,10,7,3,7,3,24,7,-4,-1,1,1,1.57,1.267,2,"grøn","4_1",-4,0,0,"Left_lead","Female","Male",0,0.289278129951893,0.218157873900937,0.23588056553614,1.0843326567057,0.0843326567057019,1.01209552692599,0.0120955269259935,4,1.85037859066532,2,1,"left"
"66","4_2",78,"4","Female",23,"Stim\r14y08g21b39.jpeg","Stim\r08y12g20b03.jpeg",14,8,8,12,21,20,39,3,1,1,0,0,1.022,1.394,2,"grøn","4_1",-1,1,1,"Left_lead","Female","Male",0,0.289278129951893,0.218157873900937,0.211560191469842,1.0843326567057,0.0843326567057019,1.0057278657071,0.00572786570709605,1,-1.04083795724924,0.5,-0.5,"left"
"68","4_2",84,"4","Female",23,"Stim\r07y02g03b06.jpeg","Stim\r10y37g07b02.jpeg",7,10,2,37,3,7,6,2,-2,-1,0,0,1.665,2.355,2,"grøn","4_1",4,0,0,"Left_lead","Female","Male",0,0.289278129951893,0.218157873900937,0.207386927529689,1.0843326567057,0.0843326567057019,1.01284268288206,0.0128426828820591,2,-0.0770991079443883,0.666666666666667,-0.333333333333333,"left"
"69","4_2",90,"4","Female",23,"Stim\r10y07g11b10.jpeg","Stim\r18y19g14b27.jpeg",10,18,7,19,11,14,10,27,-2,1,0,1,1.827,2.359,2,"grøn","4_1",3,0,1,"Left_lead","Female","Male",1,0.289278129951893,0.218157873900937,0.245440620576189,1.0843326567057,0.0843326567057019,0.9567979039299,-0.0432020960701002,2,-0.0770991079443883,0.666666666666667,-0.333333333333333,"left"
"71","4_2",95,"4","Female",23,"Stim\r07y14g27b22.jpeg","Stim\r12y09g30b18.jpeg",7,12,14,9,27,30,22,18,-1,1,0,1,1.625,2.853,2,"grøn","4_1",3,0,1,"Left_lead","Female","Male",1,0.289278129951893,0.218157873900937,0.236046905387401,1.0843326567057,0.0843326567057019,1.01228435698871,0.0122843569887148,1,-1.04083795724924,0.333333333333333,-0.666666666666667,"left"
"73","9_1",16,"9","Male",23,"Stim\r14y10g15b15.jpeg","Stim\r15y05g12b10.jpeg",14,15,10,5,15,12,15,10,4,1,1,1,1.404,2.386,1,"rød","9_11",1,1,1,"Left_lead","Male","Male",0,0.195060614609337,0.224368305517434,0.211016334207425,1.07766277615414,0.0776627761541422,1.04658305701898,0.0465830570189776,4,0.812167812143628,1,0,"left"
"76","9_1",22,"9","Male",23,"Stim\r05y40g33b16.jpeg","Stim\r08y23g10b29.jpeg",5,8,40,23,33,10,16,29,4,1,1,1,3.141,3.796,1,"rød","9_11",3,1,1,"Left_lead","Male","Male",0,0.195060614609337,0.224368305517434,0.232523099890748,1.07766277615414,0.0776627761541422,1.04255836151437,0.0425583615143683,4,0.812167812143628,2,1,"left"
"78","9_1",25,"9","Male",23,"Stim\r06y14g31b25.jpeg","Stim\r09y06g26b32.jpeg",6,9,14,6,31,26,25,32,4,1,1,1,1.843,1.916,1,"rød","9_11",3,1,1,"Left_lead","Male","Male",0,0.195060614609337,0.224368305517434,0.243382136210498,1.07766277615414,0.0776627761541422,1.01378245992538,0.0137824599253817,4,0.812167812143628,1.33333333333333,0.333333333333333,"left"
"79","9_1",29,"9","Male",23,"Stim\r12y09g30b18.jpeg","Stim\r10y27g22b14.jpeg",12,10,9,27,30,22,18,14,4,-1,0,1,1.819,2.679,1,"blå","9_11",-4,1,0,"Left_lead","Male","Male",1,0.195060614609337,0.224368305517434,0.231807197406181,1.07766277615414,0.0776627761541422,0.998268501308616,-0.001731498691384,4,0.812167812143628,1.33333333333333,0.333333333333333,"left"
"83","9_1",34,"9","Male",23,"Stim\r17y20g40b07.jpeg","Stim\r09y07g06b09.jpeg",17,9,20,7,40,6,7,9,4,1,1,1,1.297,1.113,1,"blå","9_11",2,1,1,"Left_lead","Male","Male",0,0.195060614609337,0.224368305517434,0.222019524785158,1.07766277615414,0.0776627761541422,1.18185236519417,0.181852365194171,4,0.812167812143628,2,1,"left"
"88","9_1",49,"9","Male",23,"Stim\r08y09g09b11.jpeg","Stim\r03y06g12b09.jpeg",8,3,9,6,9,12,11,9,3,1,0,0,0.99,1.346,1,"blå","9_11",-2,1,1,"Left_lead","Male","Male",0,0.195060614609337,0.224368305517434,0.16959214435705,1.07766277615414,0.0776627761541422,0.989273400219185,-0.0107265997808149,3,-0.66884408058887,1.5,0.5,"left"
"89","9_1",54,"9","Male",23,"Stim\r15y16g12b03.jpeg","Stim\r02y19g24b04.jpeg",15,2,16,19,12,24,3,4,-3,-1,0,0,1.417,1.41,1,"gul","9_11",3,0,0,"Left_lead","Male","Male",0,0.195060614609337,0.224368305517434,0.166471940471019,1.07766277615414,0.0776627761541422,0.988526085640552,-0.0114739143594476,3,-0.66884408058887,0.75,-0.25,"left"
"91","9_1",58,"9","Male",23,"Stim\r11y26g25b38.jpeg","Stim\r05y28g23b30.jpeg",11,5,26,28,25,23,38,30,-3,1,0,1,1.851,2.295,1,"gul","9_11",2,0,1,"Left_lead","Male","Male",1,0.195060614609337,0.224368305517434,0.201039035711761,1.07766277615414,0.0776627761541422,0.805500484535094,-0.194499515464906,3,-0.66884408058887,0.75,-0.25,"left"
"92","9_1",59,"9","Male",23,"Stim\r09y15g18b07.jpeg","Stim\r08y12g20b03.jpeg",9,8,15,12,18,20,7,3,-4,-1,1,1,1.379,1.562,1,"gul","9_11",-3,0,0,"Left_lead","Male","Male",0,0.195060614609337,0.224368305517434,0.199548214649241,1.07766277615414,0.0776627761541422,0.987959174271321,-0.0120408257286786,4,0.812167812143628,2,1,"left"
"94","9_1",62,"9","Male",23,"Stim\r21y31g06b08.jpeg","Stim\r01y27g01b01.jpeg",21,1,31,27,6,1,8,1,-4,-1,1,1,2.077,2.793,1,"gul","9_11",-4,0,0,"Left_lead","Male","Male",0,0.195060614609337,0.224368305517434,0.231602357187178,1.07766277615414,0.0776627761541422,1.16597937799458,0.165979377994576,4,0.812167812143628,1,0,"left"
"95","9_1",63,"9","Male",23,"Stim\r22y23g20b06.jpeg","Stim\r21y24g16b04.jpeg",22,21,23,24,20,16,6,4,-3,-1,0,0,1.632,1.272,1,"gul","9_11",1,0,0,"Left_lead","Male","Male",0,0.195060614609337,0.224368305517434,0.235217565682949,1.07766277615414,0.0776627761541422,1.21650121047392,0.216501210473918,3,-0.66884408058887,1.5,0.5,"left"
"103","12_2",11,"12","Female",24,"Stim\r21y01g04b27.jpeg","Stim\r18y13g28b06.jpeg",21,18,1,13,4,28,27,6,1,-1,0,1,1.925,1.975,2,"rød","12_11",-3,1,0,"Left_lead","Female","Male",1,0.406059892585172,0.213013104756036,0.193378971618642,0.972012238794224,-0.0279877612057761,1.04569329444381,0.0456932944438111,1,-0.640961115694596,0.25,-0.75,"left"
"105","12_2",18,"12","Female",24,"Stim\r14y12g04b29.jpeg","Stim\r17y20g40b07.jpeg",14,17,12,20,4,40,29,7,1,-1,1,0,1.894,1.566,2,"rød","12_11",3,1,0,"Left_lead","Female","Male",1,0.406059892585172,0.213013104756036,0.217774717059083,0.972012238794224,-0.0279877612057761,0.936824927092219,-0.0631750729077806,1,-0.640961115694596,0.25,-0.75,"left"
"107","12_2",21,"12","Female",24,"Stim\r17y22g16b15.jpeg","Stim\r13y21g23b09.jpeg",17,13,22,21,16,23,15,9,1,-1,0,1,1.435,1.53,2,"rød","12_11",-4,1,0,"Left_lead","Female","Male",1,0.406059892585172,0.213013104756036,0.225985707268372,0.972012238794224,-0.0279877612057761,0.966484805614871,-0.0335151943851294,1,-0.640961115694596,0.25,-0.75,"left"
"111","12_2",29,"12","Female",24,"Stim\r07y06g08b05.jpeg","Stim\r18y13g28b06.jpeg",7,18,6,13,8,28,5,6,1,-1,1,0,1.567,1.963,2,"blå","12_11",1,1,0,"Left_lead","Female","Male",1,0.406059892585172,0.213013104756036,0.197282596961304,0.972012238794224,-0.0279877612057761,0.735009769967805,-0.264990230032195,1,-0.640961115694596,0.25,-0.75,"left"
"114","12_2",35,"12","Female",24,"Stim\r11y13g22b35.jpeg","Stim\r21y03g15b37.jpeg",11,21,13,3,22,15,35,37,-1,1,0,1,1.622,1.614,2,"blå","12_11",2,0,1,"Left_lead","Female","Male",1,0.406059892585172,0.213013104756036,0.17270952665356,0.972012238794224,-0.0279877612057761,0.690663674754451,-0.309336325245549,1,-0.640961115694596,0.25,-0.75,"left"
"123","12_2",58,"12","Female",24,"Stim\r04y28g27b06.jpeg","Stim\r10y27g22b14.jpeg",4,10,28,27,27,22,6,14,-3,1,1,0,1.434,2.728,2,"gul","12_11",-1,0,1,"Left_lead","Female","Male",1,0.406059892585172,0.213013104756036,0.191912433062469,0.972012238794224,-0.0279877612057761,1.34173825050038,0.341738250500384,3,1.63801174010841,0.75,-0.25,"left"
"124","12_2",72,"12","Female",24,"Stim\r13y24g05b28.jpeg","Stim\r10y27g22b14.jpeg",13,10,24,27,5,22,28,14,-1,1,0,1,0.957,2.431,2,"gul","12_11",3,0,1,"Left_lead","Female","Male",1,0.406059892585172,0.213013104756036,0.230376918348221,0.972012238794224,-0.0279877612057761,0.953468487964776,-0.0465315120352238,1,-0.640961115694596,0.25,-0.75,"left"
"127","12_2",76,"12","Female",24,"Stim\r20y04g39b23.jpeg","Stim\r17y20g40b07.jpeg",20,17,4,20,39,40,23,7,-2,1,0,1,0.88,2.295,2,"grøn","12_11",1,0,1,"Left_lead","Female","Male",1,0.406059892585172,0.213013104756036,0.239290957990862,0.972012238794224,-0.0279877612057761,1.02691354327105,0.0269135432710514,2,0.498525312206908,0.5,-0.5,"left"
"128","12_2",78,"12","Female",24,"Stim\r04y28g27b06.jpeg","Stim\r09y06g26b32.jpeg",4,9,28,6,27,26,6,32,-2,1,1,0,1.783,1.71,2,"grøn","12_11",-1,0,1,"Left_lead","Female","Male",1,0.406059892585172,0.213013104756036,0.206012601865046,0.972012238794224,-0.0279877612057761,0.991350182640058,-0.00864981735994197,2,0.498525312206908,0.5,-0.5,"left"
"132","12_2",87,"12","Female",24,"Stim\r18y19g14b27.jpeg","Stim\r04y16g13b13.jpeg",18,4,19,16,14,13,27,13,2,1,0,0,1.37,4.438,2,"grøn","12_11",-1,1,1,"Left_lead","Female","Male",0,0.406059892585172,0.213013104756036,0.234363597803792,0.972012238794224,-0.0279877612057761,1.09186494457432,0.0918649445743214,2,0.498525312206908,0.666666666666667,-0.333333333333333,"left"
"136","10_1",10,"10","Female",26,"Stim\r09y17g32b21.jpeg","Stim\r10y37g07b02.jpeg",9,10,17,37,32,7,21,2,2,-1,1,0,4.776,13.944,1,"rød","10_12",1,1,0,"Left_lead","Female","Female",1,0.350292350953413,0.21602345253645,0.182767678432287,0.944365866706783,-0.055634133293217,0.86101550285271,-0.13898449714729,2,-0.169106025888688,0.666666666666667,-0.333333333333333,"left"
"137","10_1",14,"10","Female",26,"Stim\r12y07g07b17.jpeg","Stim\r08y23g10b29.jpeg",12,8,7,23,7,10,17,29,2,1,0,0,1.295,3.564,1,"rød","10_12",-4,1,1,"Left_lead","Female","Female",0,0.350292350953413,0.21602345253645,0.19080903278088,0.944365866706783,-0.055634133293217,0.919169718507168,-0.0808302814928322,2,-0.169106025888688,1,0,"left"
"138","10_1",15,"10","Female",26,"Stim\r22y35g09b11.jpeg","Stim\r21y03g15b37.jpeg",22,21,35,3,9,15,11,37,2,-1,0,1,1.439,2.497,1,"rød","10_12",-1,1,0,"Left_lead","Female","Female",1,0.350292350953413,0.21602345253645,0.205961693961006,0.944365866706783,-0.055634133293217,0.925023194582456,-0.0749768054175445,2,-0.169106025888688,0.5,-0.5,"left"
"142","10_1",31,"10","Female",26,"Stim\r17y20g40b07.jpeg","Stim\r21y24g16b04.jpeg",17,21,20,24,40,16,7,4,1,-1,0,1,2.064,3.281,1,"blå","10_12",-3,1,0,"Left_lead","Female","Female",1,0.350292350953413,0.21602345253645,0.220535677073619,0.944365866706783,-0.055634133293217,0.901843117558396,-0.0981568824416036,1,-1.11609977086534,0.5,-0.5,"left"
"143","10_1",33,"10","Female",26,"Stim\r04y16g13b13.jpeg","Stim\r14y10g15b15.jpeg",4,14,16,10,13,15,13,15,4,1,1,1,1.515,1.391,1,"blå","10_12",2,1,1,"Left_lead","Female","Female",0,0.350292350953413,0.21602345253645,0.210264553727766,0.944365866706783,-0.055634133293217,0.947787191861422,-0.0522128081385778,4,1.72488146406462,2,1,"left"
"144","10_1",36,"10","Female",26,"Stim\r21y24g16b04.jpeg","Stim\r09y02g05b02.jpeg",21,9,24,2,16,5,4,2,4,1,0,0,1.376,1.298,1,"blå","10_12",-2,1,1,"Left_lead","Female","Female",0,0.350292350953413,0.21602345253645,0.190567055182273,0.944365866706783,-0.055634133293217,0.897740371462711,-0.102259628537289,4,1.72488146406462,4,3,"left"
"145","10_1",40,"10","Female",26,"Stim\r19y15g35b05.jpeg","Stim\r08y12g20b03.jpeg",19,8,15,12,35,20,5,3,1,-1,0,1,5.523,1.709,1,"blå","10_12",-2,1,0,"Left_lead","Female","Female",1,0.350292350953413,0.21602345253645,0.155150759271796,0.944365866706783,-0.055634133293217,1.00359249452791,0.003592494527906,1,-1.11609977086534,1,0,"left"
"146","10_1",42,"10","Female",26,"Stim\r04y28g27b06.jpeg","Stim\r10y03g03b07.jpeg",4,10,28,3,27,3,6,7,4,1,1,1,1.446,3.406,1,"blå","10_12",1,1,1,"Left_lead","Female","Female",0,0.350292350953413,0.21602345253645,0.157782445880202,0.944365866706783,-0.055634133293217,1.01071176241593,0.0107117624159314,4,1.72488146406462,4,3,"left"
"147","10_1",45,"10","Female",26,"Stim\r08y23g10b29.jpeg","Stim\r07y14g27b22.jpeg",8,7,23,14,10,27,29,22,3,-1,0,1,1.161,2.392,1,"blå","10_12",-7,1,0,"Left_lead","Female","Female",1,0.350292350953413,0.21602345253645,0.166661517377846,0.944365866706783,-0.055634133293217,0.956807268973816,-0.0431927310261844,3,0.777887719087967,1.5,0.5,"left"
"152","10_1",64,"10","Female",26,"Stim\r03y06g12b09.jpeg","Stim\r10y03g03b07.jpeg",3,10,6,3,12,3,9,7,2,-1,0,1,0.854,1.471,1,"gul","10_12",-3,1,0,"Left_lead","Female","Female",1,0.350292350953413,0.21602345253645,0.216070187060885,0.944365866706783,-0.055634133293217,0.980521059421582,-0.0194789405784183,2,-0.169106025888688,1,0,"left"
"153","10_1",67,"10","Female",26,"Stim\r06y19g29b08.jpeg","Stim\r14y20g16b10.jpeg",6,14,19,20,29,16,8,10,-1,1,0,1,1.934,2.474,1,"gul","10_12",1,0,1,"Left_lead","Female","Female",1,0.350292350953413,0.21602345253645,0.231445999560893,0.944365866706783,-0.055634133293217,0.956592135227002,-0.0434078647729977,1,-1.11609977086534,0.5,-0.5,"left"
"155","10_1",73,"10","Female",26,"Stim\r22y02g34b05.jpeg","Stim\r10y03g03b07.jpeg",22,10,2,3,34,3,5,7,3,1,1,1,1.066,0.983,1,"gul","10_12",1,1,1,"Left_lead","Female","Female",0,0.350292350953413,0.21602345253645,0.230508805251679,0.944365866706783,-0.055634133293217,0.955319195597127,-0.0446808044028731,3,0.777887719087967,3,2,"left"
"156","10_1",80,"10","Female",26,"Stim\r11y26g25b38.jpeg","Stim\r11y13g22b35.jpeg",11,11,26,13,25,22,38,35,-2,1,1,0,0.873,2.12,1,"grøn","10_12",-3,0,1,"Left_lead","Female","Female",1,0.350292350953413,0.21602345253645,0.209697026650933,0.944365866706783,-0.055634133293217,1.02906381069835,0.029063810698351,2,-0.169106025888688,1,0,"left"
"158","10_1",85,"10","Female",26,"Stim\r21y24g16b04.jpeg","Stim\r15y16g12b03.jpeg",21,15,24,16,16,12,4,3,-1,1,1,0,0.991,1.275,1,"grøn","10_12",-4,0,1,"Left_lead","Female","Female",1,0.350292350953413,0.21602345253645,0.198632297811275,0.944365866706783,-0.055634133293217,1.0477314070934,0.0477314070934021,1,-1.11609977086534,1,0,"left"
"160","10_1",93,"10","Female",26,"Stim\r14y08g21b39.jpeg","Stim\r03y06g12b09.jpeg",14,3,8,6,21,12,39,9,-1,1,1,0,0.926,5.309,1,"grøn","10_12",-9,0,1,"Left_lead","Female","Female",1,0.350292350953413,0.21602345253645,0.244507009657091,0.944365866706783,-0.055634133293217,1.04597675746677,0.0459767574667749,1,-1.11609977086534,1,0,"left"
"162","10_1",95,"10","Female",26,"Stim\r10y13g07b36.jpeg","Stim\r16y21g04b04.jpeg",10,16,13,21,7,4,36,4,-1,1,1,0,1.031,1.856,1,"grøn","10_12",-3,0,1,"Left_lead","Female","Female",1,0.350292350953413,0.21602345253645,0.244574066451445,0.944365866706783,-0.055634133293217,1.0827147002516,0.0827147002516024,1,-1.11609977086534,1,0,"left"
"163","13_1",18,"13","Male",23,"Stim\r18y13g28b06.jpeg","Stim\r12y07g16b25.jpeg",18,12,13,7,28,16,6,25,2,1,0,0,2.298,2.879,1,"rød","13_14",-6,1,1,"Left_lead","Male","Female",0,-0.0147393558200618,0.214348980677473,0.196618626143643,1.08299825797306,0.0829982579730619,0.930733513190681,-0.0692664868093186,2,0.174728902734291,1,0,"left"
"164","13_1",19,"13","Male",23,"Stim\r10y07g11b10.jpeg","Stim\r09y15g18b07.jpeg",10,9,7,15,11,18,10,7,-1,1,1,0,2.529,8.43,1,"rød","13_14",-1,0,1,"Left_lead","Male","Female",1,-0.0147393558200618,0.214348980677473,0.20037639306088,1.08299825797306,0.0829982579730619,0.931739173371058,-0.068260826628942,1,-1.09205564208932,1,0,"left"
"168","13_1",26,"13","Male",23,"Stim\r04y28g27b06.jpeg","Stim\r10y27g22b14.jpeg",4,10,28,27,27,22,6,14,2,-1,1,0,1.258,4.536,1,"blå","13_14",8,1,0,"Left_lead","Male","Female",1,-0.0147393558200618,0.214348980677473,0.239732508597787,1.08299825797306,0.0829982579730619,0.974362138613027,-0.0256378613869733,2,0.174728902734291,0.666666666666667,-0.333333333333333,"left"
"170","13_1",33,"13","Male",23,"Stim\r18y19g14b27.jpeg","Stim\r05y28g23b30.jpeg",18,5,19,28,14,23,27,30,2,-1,1,0,3.325,3.016,1,"blå","13_14",3,1,0,"Left_lead","Male","Female",1,-0.0147393558200618,0.214348980677473,0.203696465862492,1.08299825797306,0.0829982579730619,1.03582435767107,0.0358243576710739,2,0.174728902734291,2,1,"left"
"171","13_1",37,"13","Male",23,"Stim\r09y07g06b09.jpeg","Stim\r22y35g09b11.jpeg",9,22,7,35,6,9,9,11,-2,-1,0,0,1.871,2.843,1,"blå","13_14",2,0,0,"Left_lead","Male","Female",0,-0.0147393558200618,0.214348980677473,0.174488975559347,1.08299825797306,0.0829982579730619,0.943191078759368,-0.0568089212406323,2,0.174728902734291,1,0,"left"
"172","13_1",39,"13","Male",23,"Stim\r12y09g30b18.jpeg","Stim\r09y17g32b21.jpeg",12,9,9,17,30,32,18,21,2,1,1,1,1.171,3.171,1,"blå","13_14",3,1,1,"Left_lead","Male","Female",0,-0.0147393558200618,0.214348980677473,0.154089091150282,1.08299825797306,0.0829982579730619,1.00527291036364,0.00527291036364153,2,0.174728902734291,1,0,"left"
"177","13_1",48,"13","Male",23,"Stim\r11y14g08b23.jpeg","Stim\r12y12g14b26.jpeg",11,12,14,12,8,14,23,26,3,1,1,1,5.236,4.186,1,"blå","13_14",3,1,1,"Left_lead","Male","Female",0,-0.0147393558200618,0.214348980677473,0.192030178624285,1.08299825797306,0.0829982579730619,1.10200991612749,0.102009916127494,3,1.4415134475579,1.5,0.5,"left"
"180","13_1",53,"13","Male",23,"Stim\r18y19g14b27.jpeg","Stim\r08y23g10b29.jpeg",18,8,19,23,14,10,27,29,-1,1,0,1,1.731,1.489,1,"gul","13_14",4,0,1,"Left_lead","Male","Female",1,-0.0147393558200618,0.214348980677473,0.212936134440548,1.08299825797306,0.0829982579730619,1.05460712611887,0.0546071261188674,1,-1.09205564208932,0.5,-0.5,"left"
"182","13_1",63,"13","Male",23,"Stim\r13y21g23b09.jpeg","Stim\r18y19g14b27.jpeg",13,18,21,19,23,14,9,27,-4,-1,1,1,1.667,1.729,1,"gul","13_14",-2,0,0,"Left_lead","Male","Female",0,-0.0147393558200618,0.214348980677473,0.213736535148987,1.08299825797306,0.0829982579730619,1.08367555785444,0.0836755578544426,4,2.7082979923815,4,3,"left"
"183","13_1",66,"13","Male",23,"Stim\r09y07g06b09.jpeg","Stim\r07y14g27b22.jpeg",9,7,7,14,6,27,9,22,2,-1,1,0,2.58,2.195,1,"gul","13_14",7,1,0,"Left_lead","Male","Female",1,-0.0147393558200618,0.214348980677473,0.220732775465927,1.08299825797306,0.0829982579730619,1.07445771926756,0.0744577192675628,2,0.174728902734291,1,0,"left"
"184","13_1",67,"13","Male",23,"Stim\r07y14g27b22.jpeg","Stim\r11y13g22b35.jpeg",7,11,14,13,27,22,22,35,-1,-1,1,1,1.127,1.243,1,"gul","13_14",-1,0,0,"Left_lead","Male","Female",0,-0.0147393558200618,0.214348980677473,0.239596455565852,1.08299825797306,0.0829982579730619,1.07145208754883,0.0714520875488296,1,-1.09205564208932,1,0,"left"
"187","13_1",70,"13","Male",23,"Stim\r21y03g15b37.jpeg","Stim\r03y11g01b26.jpeg",21,3,3,11,15,1,37,26,2,1,1,1,4.022,2.412,1,"gul","13_14",8,1,1,"Left_lead","Male","Female",0,-0.0147393558200618,0.214348980677473,0.265309687046214,1.08299825797306,0.0829982579730619,1.68268983963974,0.682689839639744,2,0.174728902734291,2,1,"left"
"188","13_1",71,"13","Male",23,"Stim\r11y26g25b38.jpeg","Stim\r05y28g23b30.jpeg",11,5,26,28,25,23,38,30,-2,-1,0,0,1.303,1.113,1,"gul","13_14",2,0,0,"Left_lead","Male","Female",0,-0.0147393558200618,0.214348980677473,0.251075959440856,1.08299825797306,0.0829982579730619,1.54462789895605,0.544627898956048,2,0.174728902734291,2,1,"left"
"193","13_2",14,"13","Male",23,"Stim\r18y19g14b27.jpeg","Stim\r10y03g03b07.jpeg",18,10,19,3,14,3,27,7,2,1,0,0,2.281,5.082,2,"rød","13_15",-8,1,1,"Left_lead","Male","Male",0,0.35544035557098,0.192914250493589,0.193985833787304,1.04234572158282,0.0423457215828185,0.967612325420638,-0.0323876745793616,2,-0.306476579428413,1,0,"left"
"194","13_2",18,"13","Male",23,"Stim\r12y12g14b26.jpeg","Stim\r08y12g20b03.jpeg",12,8,12,12,14,20,26,3,-2,1,1,0,2.349,1.034,2,"rød","13_15",-4,0,1,"Left_lead","Male","Male",1,0.35544035557098,0.192914250493589,0.204317176757961,1.04234572158282,0.0423457215828185,0.914684355137937,-0.0853156448620634,2,-0.306476579428413,0.666666666666667,-0.333333333333333,"left"
"197","13_2",28,"13","Male",23,"Stim\r20y14g02b19.jpeg","Stim\r14y10g15b15.jpeg",20,14,14,10,2,15,19,15,2,-1,0,1,1.05,1.782,2,"blå","13_15",-4,1,0,"Left_lead","Male","Male",1,0.35544035557098,0.192914250493589,0.169075187534877,1.04234572158282,0.0423457215828185,0.916319380419085,-0.0836806195809154,2,-0.306476579428413,1,0,"left"
"199","13_2",32,"13","Male",23,"Stim\r10y03g03b07.jpeg","Stim\r03y03g02b05.jpeg",10,3,3,3,3,2,7,5,2,-1,0,1,1.808,4.164,2,"blå","13_15",-2,1,0,"Left_lead","Male","Male",1,0.35544035557098,0.192914250493589,0.195876418302011,1.04234572158282,0.0423457215828185,0.936105017883428,-0.0638949821165715,2,-0.306476579428413,1,0,"left"
"201","13_2",39,"13","Male",23,"Stim\r21y01g04b27.jpeg","Stim\r17y07g07b24.jpeg",21,17,1,7,4,7,27,24,-4,-1,1,1,1.68,1.655,2,"blå","13_15",-3,0,0,"Left_lead","Male","Male",0,0.35544035557098,0.192914250493589,0.157122709333165,1.04234572158282,0.0423457215828185,1.09358444401368,0.0935844440136804,4,2.0091242429196,2,1,"left"
"205","13_2",45,"13","Male",23,"Stim\r12y07g07b17.jpeg","Stim\r13y33g08b23.jpeg",12,13,7,33,7,8,17,23,2,-1,1,0,1.853,1.425,2,"blå","13_15",6,1,0,"Left_lead","Male","Male",1,0.35544035557098,0.192914250493589,0.166477173327174,1.04234572158282,0.0423457215828185,1.03469909293641,0.0346990929364106,2,-0.306476579428413,0.666666666666667,-0.333333333333333,"left"
"206","13_2",46,"13","Male",23,"Stim\r16y09g06b10.jpeg","Stim\r06y36g16b14.jpeg",16,6,9,36,6,16,10,14,4,1,1,1,1.529,1.574,2,"blå","13_15",4,1,1,"Left_lead","Male","Male",0,0.35544035557098,0.192914250493589,0.175183213133113,1.04234572158282,0.0423457215828185,1.01567189105234,0.015671891052337,4,2.0091242429196,1.33333333333333,0.333333333333333,"left"
"207","13_2",49,"13","Male",23,"Stim\r12y09g30b18.jpeg","Stim\r12y07g07b17.jpeg",12,12,9,7,30,7,18,17,-1,1,1,0,2.475,1.122,2,"gul","13_15",-2,0,1,"Left_lead","Male","Male",1,0.35544035557098,0.192914250493589,0.167710938216654,1.04234572158282,0.0423457215828185,1.00881412560286,0.00881412560286154,1,-1.46427699060242,0.5,-0.5,"left"
"212","13_2",67,"13","Male",23,"Stim\r07y02g03b06.jpeg","Stim\r21y01g04b27.jpeg",7,21,2,1,3,4,6,27,2,-1,0,1,3.598,1.773,2,"gul","13_15",-1,1,0,"Left_lead","Male","Male",1,0.35544035557098,0.192914250493589,0.241036907498341,1.04234572158282,0.0423457215828185,1.0404839620262,0.0404839620262034,2,-0.306476579428413,2,1,"left"
"213","13_2",72,"13","Male",23,"Stim\r22y35g09b11.jpeg","Stim\r04y39g24b15.jpeg",22,4,35,39,9,24,11,15,-3,-1,0,0,1.343,1.297,2,"gul","13_15",4,0,0,"Left_lead","Male","Male",0,0.35544035557098,0.192914250493589,0.236764196022852,1.04234572158282,0.0423457215828185,1.0253319206411,0.0253319206411013,3,0.851323831745592,1.5,0.5,"left"
"214","13_2",73,"13","Male",23,"Stim\r14y12g04b29.jpeg","Stim\r01y27g01b01.jpeg",14,1,12,27,4,1,29,1,1,-1,0,1,1.815,1.08,2,"grøn","13_15",-3,1,0,"Left_lead","Male","Male",1,0.35544035557098,0.192914250493589,0.234393559987709,1.04234572158282,0.0423457215828185,0.993427071196609,-0.00657292880339111,1,-1.46427699060242,0.333333333333333,-0.666666666666667,"left"
"217","13_2",77,"13","Male",23,"Stim\r04y28g27b06.jpeg","Stim\r09y15g18b07.jpeg",4,9,28,15,27,18,6,7,3,-1,0,1,2.501,4.585,2,"grøn","13_15",-9,1,0,"Left_lead","Male","Male",1,0.35544035557098,0.192914250493589,0.199850553236589,1.04234572158282,0.0423457215828185,0.927489909544451,-0.072510090455549,3,0.851323831745592,1,0,"left"
"218","13_2",78,"13","Male",23,"Stim\r06y14g31b25.jpeg","Stim\r02y19g24b04.jpeg",6,2,14,19,31,24,25,4,-2,1,1,0,1.118,2.081,2,"grøn","13_15",-7,0,1,"Left_lead","Male","Male",1,0.35544035557098,0.192914250493589,0.19768187038237,1.04234572158282,0.0423457215828185,0.956562929792828,-0.0434370702071721,2,-0.306476579428413,1,0,"left"
"219","13_2",79,"13","Male",23,"Stim\r17y07g07b24.jpeg","Stim\r03y11g01b26.jpeg",17,3,7,11,7,1,24,26,-2,-1,1,1,1.126,2.503,2,"grøn","13_15",-6,0,0,"Left_lead","Male","Male",0,0.35544035557098,0.192914250493589,0.19487938527803,1.04234572158282,0.0423457215828185,0.984353052200586,-0.0156469477994142,2,-0.306476579428413,2,1,"left"
"221","13_2",83,"13","Male",23,"Stim\r22y35g09b11.jpeg","Stim\r08y23g10b29.jpeg",22,8,35,23,9,10,11,29,2,-1,1,0,2.074,1.283,2,"grøn","13_15",1,1,0,"Left_lead","Male","Male",1,0.35544035557098,0.192914250493589,0.192886141739855,1.04234572158282,0.0423457215828185,1.05213667871498,0.0521366787149751,2,-0.306476579428413,0.666666666666667,-0.333333333333333,"left"
"223","13_2",92,"13","Male",23,"Stim\r04y39g24b15.jpeg","Stim\r10y27g22b14.jpeg",4,10,39,27,24,22,15,14,-2,1,1,0,2.124,1.206,2,"grøn","13_15",-2,0,1,"Left_lead","Male","Male",1,0.35544035557098,0.192914250493589,0.253941720329568,1.04234572158282,0.0423457215828185,1.02825935876937,0.0282593587693714,2,-0.306476579428413,0.666666666666667,-0.333333333333333,"left"
"226","15_1",12,"15","Male",20,"Stim\r15y05g12b10.jpeg","Stim\r13y33g08b23.jpeg",15,13,5,33,12,8,10,23,3,1,0,0,2.038,3.075,1,"rød","15_16",-2,1,1,"Left_lead","Male","Female",0,-0.115424833105787,0.219657355391063,0.201989029874951,0.96610275484321,-0.0338972451567899,0.968561212486054,-0.0314387875139465,3,0.695968773397057,1,0,"left"
"230","15_1",17,"15","Male",20,"Stim\r17y20g40b07.jpeg","Stim\r14y20g16b10.jpeg",17,14,20,20,40,16,7,10,-2,1,1,0,2.774,1.804,1,"rød","15_16",-3,0,1,"Left_lead","Male","Female",1,-0.115424833105787,0.219657355391063,0.220387175947438,0.96610275484321,-0.0338972451567899,1.07280427605735,0.0728042760573493,2,-0.586078967071206,0.5,-0.5,"left"
"231","15_1",18,"15","Male",20,"Stim\r08y23g10b29.jpeg","Stim\r11y26g25b38.jpeg",8,11,23,26,10,25,29,38,-2,-1,0,0,3.816,1.897,1,"rød","15_16",3,0,0,"Left_lead","Male","Female",0,-0.115424833105787,0.219657355391063,0.230336772746613,0.96610275484321,-0.0338972451567899,1.0174654715495,0.0174654715495006,2,-0.586078967071206,1,0,"left"
"233","15_1",23,"15","Male",20,"Stim\r05y28g23b30.jpeg","Stim\r04y39g24b15.jpeg",5,4,28,39,23,24,30,15,-2,-1,1,1,2.831,6.564,1,"rød","15_16",-1,0,0,"Left_lead","Male","Female",0,-0.115424833105787,0.219657355391063,0.240015248615553,0.96610275484321,-0.0338972451567899,1.03867415396396,0.0386741539639566,2,-0.586078967071206,1,0,"left"
"236","15_1",30,"15","Male",20,"Stim\r06y14g31b25.jpeg","Stim\r20y04g39b23.jpeg",6,20,14,4,31,39,25,23,3,1,0,0,1.437,1.698,1,"blå","15_16",-2,1,1,"Left_lead","Male","Female",0,-0.115424833105787,0.219657355391063,0.227129439076668,0.96610275484321,-0.0338972451567899,1.00927835596953,0.00927835596953419,3,0.695968773397057,0.75,-0.25,"left"
"237","15_1",32,"15","Male",20,"Stim\r17y07g07b24.jpeg","Stim\r03y11g01b26.jpeg",17,3,7,11,7,1,24,26,-3,1,0,1,2.084,3.35,1,"blå","15_16",2,0,1,"Left_lead","Male","Female",1,-0.115424833105787,0.219657355391063,0.219674801164527,0.96610275484321,-0.0338972451567899,0.987707723471884,-0.0122922765281164,3,0.695968773397057,0.75,-0.25,"left"
"238","15_1",35,"15","Male",20,"Stim\r06y36g16b14.jpeg","Stim\r05y40g33b16.jpeg",6,5,36,40,16,33,14,16,4,1,1,1,1.858,2.275,1,"blå","15_16",2,1,1,"Left_lead","Male","Female",0,-0.115424833105787,0.219657355391063,0.219130400570615,0.96610275484321,-0.0338972451567899,0.970919140119985,-0.0290808598800147,4,1.97801651386532,1,0,"left"
"241","15_1",39,"15","Male",20,"Stim\r06y19g29b08.jpeg","Stim\r10y02g36b05.jpeg",6,10,19,2,29,36,8,5,-1,1,1,0,2.299,2.182,1,"blå","15_16",-3,0,1,"Left_lead","Male","Female",1,-0.115424833105787,0.219657355391063,0.157426078206156,0.96610275484321,-0.0338972451567899,0.99852209319275,-0.00147790680724991,1,-1.86812670753947,0.25,-0.75,"left"
"243","15_1",48,"15","Male",20,"Stim\r17y20g40b07.jpeg","Stim\r05y40g33b16.jpeg",17,5,20,40,40,33,7,16,2,1,1,1,2.028,2.831,1,"blå","15_16",9,1,1,"Left_lead","Male","Female",0,-0.115424833105787,0.219657355391063,0.189339847830588,0.96610275484321,-0.0338972451567899,1.06475399631727,0.064753996317267,2,-0.586078967071206,1,0,"left"
"244","15_1",49,"15","Male",20,"Stim\r10y13g07b36.jpeg","Stim\r21y03g15b37.jpeg",10,21,13,3,7,15,36,37,-3,1,0,1,1.781,1.639,1,"blå","15_16",1,0,1,"Left_lead","Male","Female",1,-0.115424833105787,0.219657355391063,0.199600948736801,0.96610275484321,-0.0338972451567899,1.05733029546504,0.0573302954650414,3,0.695968773397057,0.75,-0.25,"left"
"248","15_1",63,"15","Male",20,"Stim\r11y10g06b19.jpeg","Stim\r12y07g07b17.jpeg",11,12,10,7,6,7,19,17,2,-1,0,1,2.581,3.593,1,"gul","15_16",-3,1,0,"Left_lead","Male","Female",1,-0.115424833105787,0.219657355391063,0.216098600930375,0.96610275484321,-0.0338972451567899,0.946547823896874,-0.0534521761031256,2,-0.586078967071206,0.5,-0.5,"left"
"256","15_1",80,"15","Male",20,"Stim\r04y39g24b15.jpeg","Stim\r21y03g15b37.jpeg",4,21,39,3,24,15,15,37,2,-1,0,1,1.604,1.796,1,"grøn","15_16",-9,1,0,"Left_lead","Male","Female",1,-0.115424833105787,0.219657355391063,0.185098143906333,0.96610275484321,-0.0338972451567899,0.878926166626232,-0.121073833373768,2,-0.586078967071206,0.5,-0.5,"left"
"258","15_1",85,"15","Male",20,"Stim\r08y23g10b29.jpeg","Stim\r10y13g07b36.jpeg",8,10,23,13,10,7,29,36,-1,1,1,0,1.666,1.311,1,"grøn","15_16",-3,0,1,"Left_lead","Male","Female",1,-0.115424833105787,0.219657355391063,0.185342942232726,0.96610275484321,-0.0338972451567899,0.983404301635388,-0.0165956983646117,1,-1.86812670753947,0.333333333333333,-0.666666666666667,"left"
"261","14_2",10,"14","Female",25,"Stim\r12y07g16b25.jpeg","Stim\r14y20g16b10.jpeg",12,14,7,20,16,16,25,10,2,1,1,1,1.182,1.708,2,"rød","14_16",2,1,1,"Left_lead","Female","Female",0,0.271990915369212,0.218684841346312,0.19637535720219,1.01420832099085,0.0142083209908499,0.944824181591515,-0.0551758184084854,2,0,1,0,"left"
"263","14_2",18,"14","Female",25,"Stim\r14y10g15b15.jpeg","Stim\r15y05g12b10.jpeg",14,15,10,5,15,12,15,10,-2,1,0,1,1.13,1.264,2,"rød","14_16",1,0,1,"Left_lead","Female","Female",1,0.271990915369212,0.218684841346312,0.214096799829423,1.01420832099085,0.0142083209908499,0.943134008929151,-0.0568659910708494,2,0,0.5,-0.5,"left"
"266","14_2",24,"14","Female",25,"Stim\r22y02g34b05.jpeg","Stim\r19y10g06b15.jpeg",22,19,2,10,34,6,5,15,-1,1,1,0,3.105,1.556,2,"rød","14_16",-3,0,1,"Left_lead","Female","Female",1,0.271990915369212,0.218684841346312,0.233341000799385,1.01420832099085,0.0142083209908499,1.0079889187249,0.00798891872489849,1,-1.33333333333333,0.25,-0.75,"left"
"269","14_2",31,"14","Female",25,"Stim\r06y19g29b08.jpeg","Stim\r18y13g28b06.jpeg",6,18,19,13,29,28,8,6,-1,1,1,0,3.342,2.048,2,"blå","14_16",-2,0,1,"Left_lead","Female","Female",1,0.271990915369212,0.218684841346312,0.243729377461255,1.01420832099085,0.0142083209908499,1.10070821332672,0.100708213326722,1,-1.33333333333333,1,0,"left"
"271","14_2",33,"14","Female",25,"Stim\r04y39g24b15.jpeg","Stim\r12y07g07b17.jpeg",4,12,39,7,24,7,15,17,-2,-1,0,0,1.144,1.944,2,"blå","14_16",2,0,0,"Left_lead","Female","Female",0,0.271990915369212,0.218684841346312,0.214561528099405,1.01420832099085,0.0142083209908499,1.01111965711674,0.0111196571167396,2,0,2,1,"left"
"272","14_2",34,"14","Female",25,"Stim\r16y09g06b10.jpeg","Stim\r02y10g14b11.jpeg",16,2,9,10,6,14,10,11,2,-1,1,0,1.045,1.397,2,"blå","14_16",1,1,0,"Left_lead","Female","Female",1,0.271990915369212,0.218684841346312,0.214586253535772,1.01420832099085,0.0142083209908499,0.992150195904293,-0.0078498040957069,2,0,0.5,-0.5,"left"
"274","14_2",43,"14","Female",25,"Stim\r17y20g40b07.jpeg","Stim\r21y24g16b04.jpeg",17,21,20,24,40,16,7,4,-1,1,1,0,2.155,1.55,2,"blå","14_16",-3,0,1,"Left_lead","Female","Female",1,0.271990915369212,0.218684841346312,0.166421687512967,1.01420832099085,0.0142083209908499,1.0216069509208,0.0216069509207986,1,-1.33333333333333,0.25,-0.75,"left"
"276","14_2",45,"14","Female",25,"Stim\r09y07g06b09.jpeg","Stim\r04y28g27b06.jpeg",9,4,7,28,6,27,9,6,2,-1,0,1,0.974,1.291,2,"blå","14_16",-3,1,0,"Left_lead","Female","Female",1,0.271990915369212,0.218684841346312,0.175740941681625,1.01420832099085,0.0142083209908499,0.982035341826871,-0.0179646581731294,2,0,0.5,-0.5,"left"
"277","14_2",46,"14","Female",25,"Stim\r11y13g22b35.jpeg","Stim\r14y08g21b39.jpeg",11,14,13,8,22,21,35,39,2,-1,1,0,1.673,1.057,2,"blå","14_16",4,1,0,"Left_lead","Female","Female",1,0.271990915369212,0.218684841346312,0.190434696124268,1.01420832099085,0.0142083209908499,1.00458371414485,0.00458371414485392,2,0,0.5,-0.5,"left"
"279","14_2",52,"14","Female",25,"Stim\r15y05g12b10.jpeg","Stim\r12y07g07b17.jpeg",15,12,5,7,12,7,10,17,-2,1,0,1,1.453,1.231,2,"gul","14_16",2,0,1,"Left_lead","Female","Female",1,0.271990915369212,0.218684841346312,0.154337465217566,1.01420832099085,0.0142083209908499,1.07361787677721,0.0736178767772093,2,0,0.5,-0.5,"left"
"280","14_2",53,"14","Female",25,"Stim\r14y10g15b15.jpeg","Stim\r08y09g09b11.jpeg",14,8,10,9,15,9,15,11,-2,-1,1,1,1.584,1.76,2,"gul","14_16",-1,0,0,"Left_lead","Female","Female",0,0.271990915369212,0.218684841346312,0.139836628754909,1.01420832099085,0.0142083209908499,1.01604171910154,0.0160417191015425,2,0,1,0,"left"
"281","14_2",57,"14","Female",25,"Stim\r20y14g02b19.jpeg","Stim\r02y10g14b11.jpeg",20,2,14,10,2,14,19,11,-1,1,1,0,1.582,2.166,2,"gul","14_16",-4,0,1,"Left_lead","Female","Female",1,0.271990915369212,0.218684841346312,0.13798689597975,1.01420832099085,0.0142083209908499,1.4555111003598,0.4555111003598,1,-1.33333333333333,0.5,-0.5,"left"
"285","14_2",69,"14","Female",25,"Stim\r10y27g22b14.jpeg","Stim\r11y26g25b38.jpeg",10,11,27,26,22,25,14,38,-3,1,1,0,1.011,1.715,2,"gul","14_16",-1,0,1,"Left_lead","Female","Female",1,0.271990915369212,0.218684841346312,0.25353340227302,1.01420832099085,0.0142083209908499,1.06157053982378,0.0615705398237805,3,1.33333333333333,0.75,-0.25,"left"
"286","14_2",74,"14","Female",25,"Stim\r10y13g07b36.jpeg","Stim\r08y23g10b29.jpeg",10,8,13,23,7,10,36,29,2,-1,1,0,2.951,1.3,2,"grøn","14_16",3,1,0,"Left_lead","Female","Female",1,0.271990915369212,0.218684841346312,0.254267695933986,1.01420832099085,0.0142083209908499,1.07659619515879,0.0765961951587903,2,0,2,1,"left"
"289","14_2",83,"14","Female",25,"Stim\r12y07g16b25.jpeg","Stim\r02y10g14b11.jpeg",12,2,7,10,16,14,25,11,-4,-1,1,1,1.805,1.516,2,"grøn","14_16",-2,0,0,"Left_lead","Female","Female",0,0.271990915369212,0.218684841346312,0.215644464630152,1.01420832099085,0.0142083209908499,1.0882796142198,0.0882796142197986,4,2.66666666666667,4,3,"left"
"293","14_2",95,"14","Female",25,"Stim\r09y07g06b09.jpeg","Stim\r08y23g10b29.jpeg",9,8,7,23,6,10,9,29,-1,1,0,1,2.323,2.012,2,"grøn","14_16",4,0,1,"Left_lead","Female","Female",1,0.271990915369212,0.218684841346312,0.24280428470431,1.01420832099085,0.0142083209908499,0.983546130343623,-0.0164538696563765,1,-1.33333333333333,1,0,"left"
"297","19_1",19,"19","Male",20,"Stim\r03y06g12b09.jpeg","Stim\r06y19g29b08.jpeg",3,6,6,19,12,29,9,8,1,1,1,1,1.771,3.078,1,"rød","19_17",3,1,1,"Left_lead","Male","Male",0,0.521528579594859,0.20840251654405,0.218542328539789,0.935717159295259,-0.0642828407047413,1.03395402593931,0.0339540259393052,1,-1.0965785298143,1,0,"left"
"299","19_1",21,"19","Male",20,"Stim\r11y13g22b35.jpeg","Stim\r15y16g12b03.jpeg",11,15,13,16,22,12,35,3,3,-1,1,0,2.315,1.849,1,"rød","19_17",4,1,0,"Left_lead","Male","Male",1,0.521528579594859,0.20840251654405,0.225661529053867,0.935717159295259,-0.0642828407047413,1.03464112925159,0.0346411292515933,3,0.647978222162995,0.75,-0.25,"left"
"303","19_1",26,"19","Male",20,"Stim\r12y07g16b25.jpeg","Stim\r12y12g14b26.jpeg",12,12,7,12,16,14,25,26,4,1,1,1,1.537,1.662,1,"blå","19_17",1,1,1,"Left_lead","Male","Male",0,0.521528579594859,0.20840251654405,0.232197524815045,0.935717159295259,-0.0642828407047413,1.01472720851409,0.0147272085140855,4,1.52025659815164,2,1,"left"
"307","19_1",34,"19","Male",20,"Stim\r21y24g16b04.jpeg","Stim\r04y28g27b06.jpeg",21,4,24,28,16,27,4,6,1,-1,1,0,3.169,1.658,1,"blå","19_17",2,1,0,"Left_lead","Male","Male",1,0.521528579594859,0.20840251654405,0.214288493285878,0.935717159295259,-0.0642828407047413,0.968650334338045,-0.0313496656619554,1,-1.0965785298143,0.5,-0.5,"left"
"309","19_1",38,"19","Male",20,"Stim\r17y11g38b07.jpeg","Stim\r02y10g14b11.jpeg",17,2,11,10,38,14,7,11,4,1,1,1,2.294,1.303,1,"blå","19_17",4,1,1,"Left_lead","Male","Male",0,0.521528579594859,0.20840251654405,0.172066443209806,0.935717159295259,-0.0642828407047413,1.07324129433604,0.0732412943360365,4,1.52025659815164,2,1,"left"
"311","19_1",40,"19","Male",20,"Stim\r12y07g07b17.jpeg","Stim\r11y10g06b19.jpeg",12,11,7,10,7,6,17,19,2,-1,1,0,1.963,2.284,1,"blå","19_17",2,1,0,"Left_lead","Male","Male",1,0.521528579594859,0.20840251654405,0.156705620424155,0.935717159295259,-0.0642828407047413,1.04116779320916,0.0411677932091579,2,-0.224300153825652,1,0,"left"
"312","19_1",52,"19","Male",20,"Stim\r13y33g08b23.jpeg","Stim\r22y35g09b11.jpeg",13,22,33,35,8,9,23,11,2,1,1,1,1.249,4.45,1,"gul","19_17",2,1,1,"Left_lead","Male","Male",0,0.521528579594859,0.20840251654405,0.186517613137376,0.935717159295259,-0.0642828407047413,1.01046308886363,0.0104630888636279,2,-0.224300153825652,1,0,"left"
"313","19_1",53,"19","Male",20,"Stim\r04y28g27b06.jpeg","Stim\r11y26g25b38.jpeg",4,11,28,26,27,25,6,38,2,1,0,0,1.621,1.449,1,"gul","19_17",-2,1,1,"Left_lead","Male","Male",0,0.521528579594859,0.20840251654405,0.188307870482851,0.935717159295259,-0.0642828407047413,0.969050421062158,-0.0309495789378424,2,-0.224300153825652,1,0,"left"
"315","19_1",58,"19","Male",20,"Stim\r05y28g23b30.jpeg","Stim\r16y21g04b04.jpeg",5,16,28,21,23,4,30,4,1,-1,0,1,1.718,1.552,1,"gul","19_17",-7,1,0,"Left_lead","Male","Male",1,0.521528579594859,0.20840251654405,0.097067148291004,0.935717159295259,-0.0642828407047413,0.581360852189764,-0.418639147810236,1,-1.0965785298143,0.25,-0.75,"left"
"316","19_1",59,"19","Male",20,"Stim\r17y20g40b07.jpeg","Stim\r09y17g32b21.jpeg",17,9,20,17,40,32,7,21,1,-1,0,1,1.237,1.751,1,"gul","19_17",-3,1,0,"Left_lead","Male","Male",1,0.521528579594859,0.20840251654405,0.143014445573007,0.935717159295259,-0.0642828407047413,0.789733539134837,-0.210266460865163,1,-1.0965785298143,0.25,-0.75,"left"
"319","19_1",64,"19","Male",20,"Stim\r12y12g14b26.jpeg","Stim\r18y13g28b06.jpeg",12,18,12,13,14,28,26,6,1,-1,1,0,1.912,2.16,1,"gul","19_17",1,1,0,"Left_lead","Male","Male",1,0.521528579594859,0.20840251654405,0.19679642501815,0.935717159295259,-0.0642828407047413,0.881272862553069,-0.118727137446931,1,-1.0965785298143,0.333333333333333,-0.666666666666667,"left"
"326","19_1",81,"19","Male",20,"Stim\r06y36g16b14.jpeg","Stim\r22y23g20b06.jpeg",6,22,36,23,16,20,14,6,-2,-1,0,0,1.264,3.866,1,"grøn","19_17",4,0,0,"Left_lead","Male","Male",0,0.521528579594859,0.20840251654405,0.202258647427265,0.935717159295259,-0.0642828407047413,0.945426525193137,-0.0545734748068627,2,-0.224300153825652,1,0,"left"
"331","20_2",16,"20","Female",21,"Stim\r15y17g24b30.jpeg","Stim\r17y12g19b18.jpeg",15,17,17,12,24,19,30,18,-2,1,0,1,2.05,2.472,2,"rød","20_17",2,0,1,"Left_lead","Female","Male",1,0.0552577757024404,0.206559797270903,0.198153444149271,0.891289729687285,-0.108710270312715,0.904196490673313,-0.0958035093266872,2,-0.0570372970367047,1,0,"left"
"332","20_2",17,"20","Female",21,"Stim\r22y02g34b05.jpeg","Stim\r21y24g16b04.jpeg",22,21,2,24,34,16,5,4,2,-1,0,1,1.262,2.073,2,"rød","20_17",-1,1,0,"Left_lead","Female","Male",1,0.0552577757024404,0.206559797270903,0.197880034652971,0.891289729687285,-0.108710270312715,0.890069202460521,-0.109930797539479,2,-0.0570372970367047,0.5,-0.5,"left"
"333","20_2",21,"20","Female",21,"Stim\r21y03g15b37.jpeg","Stim\r22y02g34b05.jpeg",21,22,3,2,15,34,37,5,-2,1,0,1,1.406,1.357,2,"rød","20_17",1,0,1,"Left_lead","Female","Male",1,0.0552577757024404,0.206559797270903,0.223050937322192,0.891289729687285,-0.108710270312715,0.924894718087384,-0.0751052819126162,2,-0.0570372970367047,0.5,-0.5,"left"
"334","20_2",29,"20","Female",21,"Stim\r04y39g24b15.jpeg","Stim\r12y09g30b18.jpeg",4,12,39,9,24,30,15,18,2,-1,1,0,1.568,0.945,2,"blå","20_17",3,1,0,"Left_lead","Female","Male",1,0.0552577757024404,0.206559797270903,0.254659732539074,0.891289729687285,-0.108710270312715,1.04034895841802,0.040348958418023,2,-0.0570372970367047,0.666666666666667,-0.333333333333333,"left"
"338","20_2",39,"20","Female",21,"Stim\r21y01g04b27.jpeg","Stim\r14y12g04b29.jpeg",21,14,1,12,4,4,27,29,3,-1,1,0,2.018,1.862,2,"blå","20_17",2,1,0,"Left_lead","Female","Male",1,0.0552577757024404,0.206559797270903,0.153429954295955,0.891289729687285,-0.108710270312715,1.03496266951108,0.0349626695110785,3,1.48296972295432,0.75,-0.25,"left"
"340","20_2",45,"20","Female",21,"Stim\r02y10g14b11.jpeg","Stim\r21y31g06b08.jpeg",2,21,10,31,14,6,11,8,-2,1,1,0,1.27,1.361,2,"blå","20_17",-3,0,1,"Left_lead","Female","Male",1,0.0552577757024404,0.206559797270903,0.176313324504171,0.891289729687285,-0.108710270312715,1.00875441937898,0.00875441937898236,2,-0.0570372970367047,1,0,"left"
"341","20_2",46,"20","Female",21,"Stim\r05y28g23b30.jpeg","Stim\r14y12g04b29.jpeg",5,14,28,12,23,4,30,29,3,1,0,0,1.269,1.846,2,"blå","20_17",-1,1,1,"Left_lead","Female","Male",0,0.0552577757024404,0.206559797270903,0.191485310027108,0.891289729687285,-0.108710270312715,1.01898745892508,0.0189874589250805,3,1.48296972295432,1.5,0.5,"left"
"345","20_2",52,"20","Female",21,"Stim\r10y13g07b36.jpeg","Stim\r17y22g16b15.jpeg",10,17,13,22,7,16,36,15,-2,1,0,1,1.168,2.447,2,"gul","20_17",9,0,1,"Left_lead","Female","Male",1,0.0552577757024404,0.206559797270903,0.151430813573676,0.891289729687285,-0.108710270312715,0.771213740466034,-0.228786259533966,2,-0.0570372970367047,1,0,"left"
"346","20_2",54,"20","Female",21,"Stim\r14y10g15b15.jpeg","Stim\r11y14g08b23.jpeg",14,11,10,14,15,8,15,23,-2,1,0,1,1.48,1.459,2,"gul","20_17",4,0,1,"Left_lead","Female","Male",1,0.0552577757024404,0.206559797270903,0.12183413750735,0.891289729687285,-0.108710270312715,0.527005936396888,-0.472994063603112,2,-0.0570372970367047,0.5,-0.5,"left"
"347","20_2",59,"20","Female",21,"Stim\r09y15g18b07.jpeg","Stim\r12y12g14b26.jpeg",9,12,15,12,18,14,7,26,3,-1,0,1,1.711,2.298,2,"gul","20_17",-3,1,0,"Left_lead","Female","Male",1,0.0552577757024404,0.206559797270903,0.166466706592626,0.891289729687285,-0.108710270312715,0.759086396177289,-0.240913603822711,3,1.48296972295432,0.75,-0.25,"left"
"349","20_2",69,"20","Female",21,"Stim\r09y06g26b32.jpeg","Stim\r12y09g30b18.jpeg",9,12,6,9,26,30,32,18,-1,1,0,1,2.205,1.143,2,"gul","20_17",3,0,1,"Left_lead","Female","Male",1,0.0552577757024404,0.206559797270903,0.231740929292631,0.891289729687285,-0.108710270312715,0.938405892590922,-0.0615941074090781,1,-1.59704431702772,0.25,-0.75,"left"
"351","20_2",72,"20","Female",21,"Stim\r06y36g16b14.jpeg","Stim\r04y39g24b15.jpeg",6,4,36,39,16,24,14,15,-2,1,0,1,1.309,1.33,2,"gul","20_17",3,0,1,"Left_lead","Female","Male",1,0.0552577757024404,0.206559797270903,0.220275025124316,0.891289729687285,-0.108710270312715,0.932443511189716,-0.067556488810284,2,-0.0570372970367047,0.5,-0.5,"left"
"352","20_2",74,"20","Female",21,"Stim\r18y19g14b27.jpeg","Stim\r14y10g15b15.jpeg",18,14,19,10,14,15,27,15,-2,1,0,1,2.614,1.2,2,"grøn","20_17",1,0,1,"Left_lead","Female","Male",1,0.0552577757024404,0.206559797270903,0.22885232875294,0.891289729687285,-0.108710270312715,0.958606260003301,-0.0413937399966994,2,-0.0570372970367047,0.5,-0.5,"left"
"356","20_1",10,"20","Female",21,"Stim\r12y07g16b25.jpeg","Stim\r11y13g22b35.jpeg",12,11,7,13,16,22,25,35,-2,-1,1,1,2.504,5.399,1,"rød","20_18",-1,0,0,"Left_lead","Female","Female",0,-0.0350937807097447,0.226498270093292,0.213625739032088,1.06213239222319,0.0621323922231851,1.04255875671404,0.0425587567140351,2,0,1,0,"left"
"357","20_1",13,"20","Female",21,"Stim\r12y12g14b26.jpeg","Stim\r03y06g12b09.jpeg",12,3,12,6,14,12,26,9,-1,1,1,0,2.565,3.64,1,"rød","20_18",-9,0,1,"Left_lead","Female","Female",1,-0.0350937807097447,0.226498270093292,0.20426390840423,1.06213239222319,0.0621323922231851,1.05355363967908,0.0535536396790803,1,-1.41421356237309,1,0,"left"
"358","20_1",16,"20","Female",21,"Stim\r10y03g03b07.jpeg","Stim\r11y26g25b38.jpeg",10,11,3,26,3,25,7,38,-2,-1,0,0,2.002,3.982,1,"rød","20_18",1,0,0,"Left_lead","Female","Female",0,-0.0350937807097447,0.226498270093292,0.210461408547353,1.06213239222319,0.0621323922231851,1.05023318290256,0.0502331829025573,2,0,1,0,"left"
"359","20_1",18,"20","Female",21,"Stim\r04y28g27b06.jpeg","Stim\r03y06g12b09.jpeg",4,3,28,6,27,12,6,9,-1,1,1,0,2.86,2.363,1,"rød","20_18",-1,0,1,"Left_lead","Female","Female",1,-0.0350937807097447,0.226498270093292,0.233697852253781,1.06213239222319,0.0621323922231851,1.20387268113923,0.203872681139235,1,-1.41421356237309,0.5,-0.5,"left"
"362","20_1",23,"20","Female",21,"Stim\r10y13g07b36.jpeg","Stim\r14y10g15b15.jpeg",10,14,13,10,7,15,36,15,2,1,1,1,1.535,3.823,1,"rød","20_18",4,1,1,"Left_lead","Female","Female",0,-0.0350937807097447,0.226498270093292,0.226532666465465,1.06213239222319,0.0621323922231851,0.984333359654576,-0.0156666403454244,2,0,1,0,"left"
"363","20_1",24,"20","Female",21,"Stim\r03y11g01b26.jpeg","Stim\r05y40g33b16.jpeg",3,5,11,40,1,33,26,16,-1,1,0,1,1.844,1.694,1,"rød","20_18",2,0,1,"Left_lead","Female","Female",1,-0.0350937807097447,0.226498270093292,0.228284616558847,1.06213239222319,0.0621323922231851,0.973368651720507,-0.0266313482794933,1,-1.41421356237309,0.5,-0.5,"left"
"364","20_1",25,"20","Female",21,"Stim\r05y28g23b30.jpeg","Stim\r04y28g27b06.jpeg",5,4,28,28,23,27,30,6,-1,1,1,0,1.34,1.485,1,"rød","20_18",-1,0,1,"Left_lead","Female","Female",1,-0.0350937807097447,0.226498270093292,0.232801993076885,1.06213239222319,0.0621323922231851,1.00088564036061,0.000885640360609008,1,-1.41421356237309,0.333333333333333,-0.666666666666667,"left"
"372","20_1",51,"20","Female",21,"Stim\r10y13g07b36.jpeg","Stim\r14y12g04b29.jpeg",10,14,13,12,7,4,36,29,-3,-1,1,1,1.413,2.185,1,"gul","20_18",-1,0,0,"Left_lead","Female","Female",0,-0.0350937807097447,0.226498270093292,0.232370679942215,1.06213239222319,0.0621323922231851,1.14540087202611,0.145400872026113,3,1.41421356237309,1.5,0.5,"left"
"378","20_1",72,"20","Female",21,"Stim\r14y12g04b29.jpeg","Stim\r03y11g01b26.jpeg",14,3,12,11,4,1,29,26,3,1,0,0,1.214,3.688,1,"gul","20_18",-1,1,1,"Left_lead","Female","Female",0,-0.0350937807097447,0.226498270093292,0.23631812120261,1.06213239222319,0.0621323922231851,0.998018199375522,-0.00198180062447817,3,1.41421356237309,1.5,0.5,"left"
"379","20_1",78,"20","Female",21,"Stim\r09y15g18b07.jpeg","Stim\r21y03g15b37.jpeg",9,21,15,3,18,15,7,37,2,1,0,0,1.415,2.541,1,"grøn","20_18",-3,1,1,"Left_lead","Female","Female",0,-0.0350937807097447,0.226498270093292,0.198385393344429,1.06213239222319,0.0621323922231851,0.973330599988806,-0.0266694000111942,2,0,1,0,"left"
"380","20_1",79,"20","Female",21,"Stim\r17y11g38b07.jpeg","Stim\r20y04g39b23.jpeg",17,20,11,4,38,39,7,23,-2,1,0,1,2.6,2.02,1,"grøn","20_18",1,0,1,"Left_lead","Female","Female",1,-0.0350937807097447,0.226498270093292,0.193793166636319,1.06213239222319,0.0621323922231851,0.961713270315248,-0.0382867296847523,2,0,0.666666666666667,-0.333333333333333,"left"
"382","20_1",87,"20","Female",21,"Stim\r21y03g15b37.jpeg","Stim\r14y20g16b10.jpeg",21,14,3,20,15,16,37,10,3,1,1,1,1.458,3.551,1,"grøn","20_18",1,1,1,"Left_lead","Female","Female",0,-0.0350937807097447,0.226498270093292,0.236050832843193,1.06213239222319,0.0621323922231851,0.976388552775758,-0.0236114472242424,3,1.41421356237309,1.5,0.5,"left"
"383","20_1",92,"20","Female",21,"Stim\r13y24g05b28.jpeg","Stim\r15y05g12b10.jpeg",13,15,24,5,5,12,28,10,-2,1,0,1,1.867,1.31,1,"grøn","20_18",7,0,1,"Left_lead","Female","Female",1,-0.0350937807097447,0.226498270093292,0.248953348597091,1.06213239222319,0.0621323922231851,0.957397273721624,-0.0426027262783759,2,0,0.5,-0.5,"left"
"386","19_2",10,"19","Male",20,"Stim\r08y09g09b11.jpeg","Stim\r09y15g18b07.jpeg",8,9,9,15,9,18,11,7,2,1,1,1,1.175,1.527,2,"rød","19_18",1,1,1,"Left_lead","Male","Female",0,0.387710481096805,0.214997302949251,0.215709515581938,0.987039485690007,-0.0129605143099929,1.0630863364373,0.0630863364373031,2,-0.556825934121593,1,0,"left"
"387","19_2",11,"19","Male",20,"Stim\r07y02g03b06.jpeg","Stim\r05y40g33b16.jpeg",7,5,2,40,3,33,6,16,-2,1,1,0,1.527,2.144,2,"rød","19_18",-2,0,1,"Left_lead","Male","Female",1,0.387710481096805,0.214997302949251,0.197695283178739,0.987039485690007,-0.0129605143099929,1.06136225688602,0.0613622568860237,2,-0.556825934121593,1,0,"left"
"391","19_2",23,"19","Male",20,"Stim\r09y02g05b02.jpeg","Stim\r07y02g03b06.jpeg",9,7,2,2,5,3,2,6,3,-1,0,1,1.299,2.16,2,"rød","19_18",-2,1,0,"Left_lead","Male","Female",1,0.387710481096805,0.214997302949251,0.230770466094994,0.987039485690007,-0.0129605143099929,0.975800606331879,-0.0241993936681211,3,0.631069392004472,0.75,-0.25,"left"
"392","19_2",27,"19","Male",20,"Stim\r21y24g16b04.jpeg","Stim\r06y19g29b08.jpeg",21,6,24,19,16,29,4,8,-2,1,0,1,1.732,2.32,2,"blå","19_18",4,0,1,"Left_lead","Male","Female",1,0.387710481096805,0.214997302949251,0.227831007090978,0.987039485690007,-0.0129605143099929,0.920226412938506,-0.0797735870614941,2,-0.556825934121593,1,0,"left"
"393","19_2",28,"19","Male",20,"Stim\r21y01g04b27.jpeg","Stim\r17y07g07b24.jpeg",21,17,1,7,4,7,27,24,4,-1,0,1,1.324,2.738,2,"blå","19_18",-3,1,0,"Left_lead","Male","Female",1,0.387710481096805,0.214997302949251,0.214933682658205,0.987039485690007,-0.0129605143099929,0.828656898225015,-0.171343101774985,4,1.81896471813054,1,0,"left"
"395","19_2",37,"19","Male",20,"Stim\r10y07g11b10.jpeg","Stim\r05y40g33b16.jpeg",10,5,7,40,11,33,10,16,3,-1,1,0,0.999,2.095,2,"blå","19_18",6,1,0,"Left_lead","Male","Female",1,0.387710481096805,0.214997302949251,0.17310855965288,0.987039485690007,-0.0129605143099929,1.12691483598745,0.126914835987452,3,0.631069392004472,1,0,"left"
"398","19_2",40,"19","Male",20,"Stim\r11y10g06b19.jpeg","Stim\r17y22g16b15.jpeg",11,17,10,22,6,16,19,15,2,-1,0,1,0.878,1.451,2,"blå","19_18",-4,1,0,"Left_lead","Male","Female",1,0.387710481096805,0.214997302949251,0.15780582406453,0.987039485690007,-0.0129605143099929,1.07396120739101,0.0739612073910079,2,-0.556825934121593,0.5,-0.5,"left"
"399","19_2",41,"19","Male",20,"Stim\r10y13g07b36.jpeg","Stim\r05y09g02b34.jpeg",10,5,13,9,7,2,36,34,4,-1,0,1,2.057,1.646,2,"blå","19_18",-2,1,0,"Left_lead","Male","Female",1,0.387710481096805,0.214997302949251,0.160185962671265,0.987039485690007,-0.0129605143099929,1.04957680986788,0.049576809867883,4,1.81896471813054,1,0,"left"
"400","19_2",47,"19","Male",20,"Stim\r12y12g14b26.jpeg","Stim\r13y24g05b28.jpeg",12,13,12,24,14,5,26,28,2,-1,1,0,1.842,1.07,2,"blå","19_18",2,1,0,"Left_lead","Male","Female",1,0.387710481096805,0.214997302949251,0.184524071135626,0.987039485690007,-0.0129605143099929,0.996412247409709,-0.00358775259029054,2,-0.556825934121593,0.5,-0.5,"left"
"402","19_2",53,"19","Male",20,"Stim\r04y28g27b06.jpeg","Stim\r10y27g22b14.jpeg",4,10,28,27,27,22,6,14,2,-1,0,1,1.179,1.066,2,"gul","19_18",-1,1,0,"Left_lead","Male","Female",1,0.387710481096805,0.214997302949251,0.233629295100766,0.987039485690007,-0.0129605143099929,0.993719954379156,-0.00628004562084383,2,-0.556825934121593,0.666666666666667,-0.333333333333333,"left"
"409","19_2",78,"19","Male",20,"Stim\r16y09g06b10.jpeg","Stim\r10y03g03b07.jpeg",16,10,9,3,6,3,10,7,2,-1,0,1,0.847,2.744,2,"grøn","19_18",-3,1,0,"Left_lead","Male","Female",1,0.387710481096805,0.214997302949251,0.200727326053655,0.987039485690007,-0.0129605143099929,0.962117547039026,-0.0378824529609745,2,-0.556825934121593,0.666666666666667,-0.333333333333333,"left"
"415","19_2",90,"19","Male",20,"Stim\r06y19g29b08.jpeg","Stim\r11y13g22b35.jpeg",6,11,19,13,29,22,8,35,-2,1,1,0,1.005,3.199,2,"grøn","19_18",-7,0,1,"Left_lead","Male","Female",1,0.387710481096805,0.214997302949251,0.246212711274299,0.987039485690007,-0.0129605143099929,1.00000259054322,2.59054322193641e-06,2,-0.556825934121593,0.5,-0.5,"left"
"418","4_1",15,"4","Female",23,"Stim\r10y02g36b05.jpeg","Stim\r13y24g05b28.jpeg",10,13,2,24,36,5,5,28,3,1,1,1,2.405,5.932,1,"rød","4_2",3,1,1,"Left_lead","Female","Female",0,0.0476828312871007,0.215420661920156,0.210749906493137,1.0226317890807,0.0226317890807026,1.00350193086391,0.00350193086391126,3,0.883699140327812,3,2,"left"
"419","4_1",17,"4","Female",23,"Stim\r16y09g06b10.jpeg","Stim\r17y22g16b15.jpeg",16,17,9,22,6,16,10,15,2,1,1,1,1.513,2.603,1,"rød","4_2",1,1,1,"Left_lead","Female","Female",0,0.0476828312871007,0.215420661920156,0.191018649897082,1.0226317890807,0.0226317890807026,1.01946573651965,0.0194657365196471,2,-0.475837998638053,1,0,"left"
"423","4_1",27,"4","Female",23,"Stim\r14y10g15b15.jpeg","Stim\r04y16g13b13.jpeg",14,4,10,16,15,13,15,13,-4,-1,1,1,1.782,6.432,1,"blå","4_2",-2,0,0,"Left_lead","Female","Female",0,0.0476828312871007,0.215420661920156,0.239512838261612,1.0226317890807,0.0226317890807026,1.01094474868144,0.0109447486814351,4,2.24323627929368,1,0,"left"
"424","4_1",29,"4","Female",23,"Stim\r16y21g04b04.jpeg","Stim\r15y16g12b03.jpeg",16,15,21,16,4,12,4,3,3,-1,0,1,2.974,4.035,1,"blå","4_2",-1,1,0,"Left_lead","Female","Female",1,0.0476828312871007,0.215420661920156,0.234773821373603,1.0226317890807,0.0226317890807026,0.964712272042401,-0.0352877279575993,3,0.883699140327812,3,2,"left"
"425","4_1",31,"4","Female",23,"Stim\r13y21g23b09.jpeg","Stim\r15y05g12b10.jpeg",13,15,21,5,23,12,9,10,2,1,1,1,1.768,3.14,1,"blå","4_2",1,1,1,"Left_lead","Female","Female",0,0.0476828312871007,0.215420661920156,0.229171298389843,1.0226317890807,0.0226317890807026,1.03810560410311,0.0381056041031078,2,-0.475837998638053,0.666666666666667,-0.333333333333333,"left"
"426","4_1",34,"4","Female",23,"Stim\r12y07g07b17.jpeg","Stim\r14y10g15b15.jpeg",12,14,7,10,7,15,17,15,4,1,0,0,2.106,1.958,1,"blå","4_2",-2,1,1,"Left_lead","Female","Female",0,0.0476828312871007,0.215420661920156,0.219974768928392,1.0226317890807,0.0226317890807026,0.99678550915727,-0.00321449084272951,4,2.24323627929368,4,3,"left"
"428","4_1",36,"4","Female",23,"Stim\r22y35g09b11.jpeg","Stim\r06y19g29b08.jpeg",22,6,35,19,9,29,11,8,2,-1,0,1,1.522,3.331,1,"blå","4_2",-3,1,0,"Left_lead","Female","Female",1,0.0476828312871007,0.215420661920156,0.180060022390076,1.0226317890807,0.0226317890807026,0.901231683581376,-0.0987683164186243,2,-0.475837998638053,2,1,"left"
"430","4_1",42,"4","Female",23,"Stim\r03y11g01b26.jpeg","Stim\r18y19g14b27.jpeg",3,18,11,19,1,14,26,27,-2,1,0,1,1.413,1.918,1,"blå","4_2",1,0,1,"Left_lead","Female","Female",1,0.0476828312871007,0.215420661920156,0.151721148470564,1.0226317890807,0.0226317890807026,0.955638124484821,-0.0443618755151789,2,-0.475837998638053,0.5,-0.5,"left"
"432","4_1",45,"4","Female",23,"Stim\r19y15g35b05.jpeg","Stim\r17y11g38b07.jpeg",19,17,15,11,35,38,5,7,3,1,1,1,2.588,1.776,1,"blå","4_2",2,1,1,"Left_lead","Female","Female",0,0.0476828312871007,0.215420661920156,0.172858572023727,1.0226317890807,0.0226317890807026,0.993783021370945,-0.00621697862905524,3,0.883699140327812,1.5,0.5,"left"
"433","4_1",46,"4","Female",23,"Stim\r22y02g34b05.jpeg","Stim\r10y27g22b14.jpeg",22,10,2,27,34,22,5,14,-3,-1,0,0,1.714,2.338,1,"blå","4_2",9,0,0,"Left_lead","Female","Female",0,0.0476828312871007,0.215420661920156,0.176143261370879,1.0226317890807,0.0226317890807026,0.960044359561597,-0.0399556404384029,3,0.883699140327812,3,2,"left"
"434","4_1",47,"4","Female",23,"Stim\r09y06g26b32.jpeg","Stim\r10y13g07b36.jpeg",9,10,6,13,26,7,32,36,-2,1,0,1,2.655,2.286,1,"blå","4_2",4,0,1,"Left_lead","Female","Female",1,0.0476828312871007,0.215420661920156,0.175076438035415,1.0226317890807,0.0226317890807026,0.935425174444451,-0.0645748255555488,2,-0.475837998638053,1,0,"left"
"436","4_1",49,"4","Female",23,"Stim\r17y22g16b15.jpeg","Stim\r11y10g06b19.jpeg",17,11,22,10,16,6,15,19,-3,-1,0,0,2.046,1.835,1,"blå","4_2",4,0,0,"Left_lead","Female","Female",0,0.0476828312871007,0.215420661920156,0.175174121784136,1.0226317890807,0.0226317890807026,0.914865132415579,-0.0851348675844208,3,0.883699140327812,3,2,"left"
"438","4_1",54,"4","Female",23,"Stim\r20y04g39b23.jpeg","Stim\r09y06g26b32.jpeg",20,9,4,6,39,26,23,32,-2,-1,0,0,1.652,1.931,1,"gul","4_2",2,0,0,"Left_lead","Female","Female",0,0.0476828312871007,0.215420661920156,0.137507979439448,1.0226317890807,0.0226317890807026,0.667367614164161,-0.332632385835839,2,-0.475837998638053,2,1,"left"
"441","4_1",60,"4","Female",23,"Stim\r14y12g04b29.jpeg","Stim\r16y09g06b10.jpeg",14,16,12,9,4,6,29,10,2,1,0,0,1.758,2.346,1,"gul","4_2",-3,1,1,"Left_lead","Female","Female",0,0.0476828312871007,0.215420661920156,0.215382018406898,1.0226317890807,0.0226317890807026,1.06344909036433,0.0634490903643257,2,-0.475837998638053,1,0,"left"
"443","4_1",67,"4","Female",23,"Stim\r04y39g24b15.jpeg","Stim\r10y37g07b02.jpeg",4,10,39,37,24,7,15,2,-2,1,1,0,2.133,1.637,1,"gul","4_2",-2,0,1,"Left_lead","Female","Female",1,0.0476828312871007,0.215420661920156,0.233085426859842,1.0226317890807,0.0226317890807026,1.02663657344956,0.0266365734495631,2,-0.475837998638053,1,0,"left"
"445","4_1",72,"4","Female",23,"Stim\r22y35g09b11.jpeg","Stim\r06y36g16b14.jpeg",22,6,35,36,9,16,11,14,-2,-1,0,0,1.461,2.787,1,"gul","4_2",1,0,0,"Left_lead","Female","Female",0,0.0476828312871007,0.215420661920156,0.237207575954876,1.0226317890807,0.0226317890807026,1.08289463645559,0.082894636455588,2,-0.475837998638053,1,0,"left"
"446","4_1",73,"4","Female",23,"Stim\r02y19g24b04.jpeg","Stim\r19y15g35b05.jpeg",2,19,19,15,24,35,4,5,-2,1,1,0,1.86,2.306,1,"gul","4_2",-4,0,1,"Left_lead","Female","Female",1,0.0476828312871007,0.215420661920156,0.237053154015815,1.0226317890807,0.0226317890807026,1.0971112154525,0.0971112154525022,2,-0.475837998638053,0.666666666666667,-0.333333333333333,"left"
"448","4_1",76,"4","Female",23,"Stim\r19y10g06b15.jpeg","Stim\r12y07g07b17.jpeg",19,12,10,7,6,7,15,17,-1,-1,0,0,2.68,4.87,1,"grøn","4_2",1,0,0,"Left_lead","Female","Female",0,0.0476828312871007,0.215420661920156,0.246211002146329,1.0226317890807,0.0226317890807026,1.1229401582505,0.122940158250497,1,-1.83537513760392,1,0,"left"
"449","4_1",77,"4","Female",23,"Stim\r11y13g22b35.jpeg","Stim\r22y23g20b06.jpeg",11,22,13,23,22,20,35,6,3,-1,0,1,2.136,2.999,1,"grøn","4_2",-2,1,0,"Left_lead","Female","Female",1,0.0476828312871007,0.215420661920156,0.213102524875597,1.0226317890807,0.0226317890807026,1.03019358787596,0.0301935878759643,3,0.883699140327812,1.5,0.5,"left"
"450","4_1",78,"4","Female",23,"Stim\r09y15g18b07.jpeg","Stim\r17y22g16b15.jpeg",9,17,15,22,18,16,7,15,4,1,0,0,1.983,4.368,1,"grøn","4_2",-2,1,1,"Left_lead","Female","Female",0,0.0476828312871007,0.215420661920156,0.208236711932822,1.0226317890807,0.0226317890807026,1.02599031246812,0.0259903124681213,4,2.24323627929368,2,1,"left"
"451","4_1",82,"4","Female",23,"Stim\r07y14g27b22.jpeg","Stim\r05y28g23b30.jpeg",7,5,14,28,27,23,22,30,-3,1,1,0,1.641,2.325,1,"grøn","4_2",-4,0,1,"Left_lead","Female","Female",1,0.0476828312871007,0.215420661920156,0.214733877866862,1.0226317890807,0.0226317890807026,1.03521121290984,0.0352112129098363,3,0.883699140327812,1,0,"left"
"453","4_1",89,"4","Female",23,"Stim\r09y17g32b21.jpeg","Stim\r22y02g34b05.jpeg",9,22,17,2,32,34,21,5,2,1,1,1,2.484,2.135,1,"grøn","4_2",2,1,1,"Left_lead","Female","Female",0,0.0476828312871007,0.215420661920156,0.263879554415235,1.0226317890807,0.0226317890807026,1.07829584692134,0.0782958469213397,2,-0.475837998638053,2,1,"left"
"455","4_1",95,"4","Female",23,"Stim\r10y07g11b10.jpeg","Stim\r08y09g09b11.jpeg",10,8,7,9,11,9,10,11,2,1,0,0,1.101,1.52,1,"grøn","4_2",-2,1,1,"Left_lead","Female","Female",0,0.0476828312871007,0.215420661920156,0.24267259585388,1.0226317890807,0.0226317890807026,1.01930691071383,0.0193069107138322,2,-0.475837998638053,2,1,"left"
"459","3_2",14,"3","Male",24,"Stim\r17y11g38b07.jpeg","Stim\r15y05g12b10.jpeg",17,15,11,5,38,12,7,10,-2,-1,1,1,2.296,1.349,2,"rød","3_2",-2,0,0,"Left_lead","Male","Female",0,0.000737853596709692,0.217900608771084,0.20712901926237,0.988832630873079,-0.011167369126921,1.00676528236025,0.00676528236024798,2,0.199862211488984,2,1,"left"
"465","3_2",27,"3","Male",24,"Stim\r09y15g18b07.jpeg","Stim\r22y23g20b06.jpeg",9,22,15,23,18,20,7,6,-1,1,1,0,1.031,1.162,2,"blå","3_2",-1,0,1,"Left_lead","Male","Female",1,0.000737853596709692,0.217900608771084,0.233455247413397,0.988832630873079,-0.011167369126921,1.05548630652163,0.0554863065216316,1,-0.999311057444918,0.5,-0.5,"left"
"467","3_2",36,"3","Male",24,"Stim\r15y05g12b10.jpeg","Stim\r17y20g40b07.jpeg",15,17,5,20,12,40,10,7,-1,1,1,0,1.786,1.195,2,"blå","3_2",-3,0,1,"Left_lead","Male","Female",1,0.000737853596709692,0.217900608771084,0.217453449840644,0.988832630873079,-0.011167369126921,1.08111700142193,0.0811170014219322,1,-0.999311057444918,0.5,-0.5,"left"
"468","3_2",37,"3","Male",24,"Stim\r13y21g23b09.jpeg","Stim\r07y02g03b06.jpeg",13,7,21,2,23,3,9,6,-1,1,1,0,1.21,2.417,2,"blå","3_2",-3,0,1,"Left_lead","Male","Female",1,0.000737853596709692,0.217900608771084,0.197062130590997,0.988832630873079,-0.011167369126921,1.06516907458173,0.065169074581727,1,-0.999311057444918,1,0,"left"
"469","3_2",38,"3","Male",24,"Stim\r17y12g19b18.jpeg","Stim\r17y22g16b15.jpeg",17,17,12,22,19,16,18,15,-2,-1,1,1,1.16,3.758,2,"blå","3_2",-3,0,0,"Left_lead","Male","Female",0,0.000737853596709692,0.217900608771084,0.174243150590546,0.988832630873079,-0.011167369126921,1.04608382619661,0.0460838261966066,2,0.199862211488984,1,0,"left"
"470","3_2",47,"3","Male",24,"Stim\r05y40g33b16.jpeg","Stim\r04y16g13b13.jpeg",5,4,40,16,33,13,16,13,-1,1,1,0,0.891,1.621,2,"blå","3_2",-3,0,1,"Left_lead","Male","Female",1,0.000737853596709692,0.217900608771084,0.18831380359778,0.988832630873079,-0.011167369126921,1.04418316234421,0.0441831623442097,1,-0.999311057444918,0.25,-0.75,"left"
"472","3_2",50,"3","Male",24,"Stim\r14y08g21b39.jpeg","Stim\r22y02g34b05.jpeg",14,22,8,2,21,34,39,5,1,-1,0,1,3.065,1.076,2,"gul","3_2",-6,1,0,"Left_lead","Male","Female",1,0.000737853596709692,0.217900608771084,0.191762097593969,0.988832630873079,-0.011167369126921,0.932774985908095,-0.0672250140919053,1,-0.999311057444918,1,0,"left"
"473","3_2",51,"3","Male",24,"Stim\r11y13g22b35.jpeg","Stim\r19y10g06b15.jpeg",11,19,13,10,22,6,35,15,-3,-1,1,1,1.787,1.339,2,"gul","3_2",-3,0,0,"Left_lead","Male","Female",0,0.000737853596709692,0.217900608771084,0.200426014690619,0.988832630873079,-0.011167369126921,0.952188314380585,-0.0478116856194147,3,1.39903548042289,1.5,0.5,"left"
"474","3_2",56,"3","Male",24,"Stim\r12y09g30b18.jpeg","Stim\r17y12g19b18.jpeg",12,17,9,12,30,19,18,18,2,1,1,1,1.032,1.106,2,"gul","3_2",3,1,1,"Left_lead","Male","Female",0,0.000737853596709692,0.217900608771084,0.186985678483146,0.988832630873079,-0.011167369126921,1.00725436755168,0.00725436755168007,2,0.199862211488984,2,1,"left"
"475","3_2",59,"3","Male",24,"Stim\r02y10g14b11.jpeg","Stim\r08y09g09b11.jpeg",2,8,10,9,14,9,11,11,-2,1,1,0,1.155,1.028,2,"gul","3_2",-1,0,1,"Left_lead","Male","Female",1,0.000737853596709692,0.217900608771084,0.196827496490332,0.988832630873079,-0.011167369126921,1.01759177614356,0.0175917761435644,2,0.199862211488984,1,0,"left"
"479","3_2",76,"3","Male",24,"Stim\r14y08g21b39.jpeg","Stim\r10y27g22b14.jpeg",14,10,8,27,21,22,39,14,-2,-1,0,0,1.009,1.471,2,"grøn","3_2",1,0,0,"Left_lead","Male","Female",0,0.000737853596709692,0.217900608771084,0.234771717637983,0.988832630873079,-0.011167369126921,1.00497367923419,0.00497367923418679,2,0.199862211488984,1,0,"left"
"480","3_2",77,"3","Male",24,"Stim\r03y03g02b05.jpeg","Stim\r13y33g08b23.jpeg",3,13,3,33,2,8,5,23,-1,1,0,1,0.956,0.845,2,"grøn","3_2",6,0,1,"Left_lead","Male","Female",1,0.000737853596709692,0.217900608771084,0.204024281362767,0.988832630873079,-0.011167369126921,0.968392296848098,-0.0316077031519019,1,-0.999311057444918,0.5,-0.5,"left"
"481","3_2",79,"3","Male",24,"Stim\r10y37g07b02.jpeg","Stim\r14y12g04b29.jpeg",10,14,37,12,7,4,2,29,1,-1,0,1,1.508,3.854,2,"grøn","3_2",-3,1,0,"Left_lead","Male","Female",1,0.000737853596709692,0.217900608771084,0.193947252304981,0.988832630873079,-0.011167369126921,0.925704265579666,-0.0742957344203337,1,-0.999311057444918,1,0,"left"
"483","3_2",81,"3","Male",24,"Stim\r05y09g02b34.jpeg","Stim\r07y02g03b06.jpeg",5,7,9,2,2,3,34,6,2,1,1,1,3.478,1.413,2,"grøn","3_2",1,1,1,"Left_lead","Male","Female",0,0.000737853596709692,0.217900608771084,0.201915427230114,0.988832630873079,-0.011167369126921,0.916393513855442,-0.0836064861445576,2,0.199862211488984,1,0,"left"
"484","3_2",82,"3","Male",24,"Stim\r13y21g23b09.jpeg","Stim\r08y12g20b03.jpeg",13,8,21,12,23,20,9,3,2,-1,0,1,1.463,1.146,2,"grøn","3_2",-3,1,0,"Left_lead","Male","Female",1,0.000737853596709692,0.217900608771084,0.198118981156668,0.988832630873079,-0.011167369126921,0.893763253920029,-0.106236746079971,2,0.199862211488984,0.666666666666667,-0.333333333333333,"left"
"485","3_2",94,"3","Male",24,"Stim\r09y17g32b21.jpeg","Stim\r06y14g31b25.jpeg",9,6,17,14,32,31,21,25,-4,-1,1,1,1.208,1.067,2,"grøn","3_2",-1,0,0,"Left_lead","Male","Female",0,0.000737853596709692,0.217900608771084,0.24494037371919,0.988832630873079,-0.011167369126921,1.01052033792133,0.0105203379213321,4,2.59820874935679,2,1,"left"
"486","3_2",95,"3","Male",24,"Stim\r17y22g16b15.jpeg","Stim\r22y23g20b06.jpeg",17,22,22,23,16,20,15,6,-2,-1,0,0,1.838,3.19,2,"grøn","3_2",4,0,0,"Left_lead","Male","Female",0,0.000737853596709692,0.217900608771084,0.239815305820055,0.988832630873079,-0.011167369126921,0.993491365080403,-0.00650863491959686,2,0.199862211488984,2,1,"left"
"490","23_1",15,"23","Male",23,"Stim\r04y28g27b06.jpeg","Stim\r07y06g08b05.jpeg",4,7,28,6,27,8,6,5,2,1,1,1,1.317,1.344,1,"rød","23_22",3,1,1,"Left_lead","Male","Female",0,0.341710953079348,0.203507545758422,0.216262707085075,0.975457558275348,-0.0245424417246521,1.0218627356676,0.0218627356675951,2,0.740191901388164,2,1,"left"
"492","23_1",23,"23","Male",23,"Stim\r17y12g19b18.jpeg","Stim\r15y05g12b10.jpeg",17,15,12,5,19,12,18,10,2,-1,0,1,2.122,2.074,1,"rød","23_22",-2,1,0,"Left_lead","Male","Female",1,0.341710953079348,0.203507545758422,0.237793734016175,0.975457558275348,-0.0245424417246521,1.03166904994197,0.0316690499419658,2,0.740191901388164,1,0,"left"
"494","23_1",26,"23","Male",23,"Stim\r09y15g18b07.jpeg","Stim\r09y07g06b09.jpeg",9,9,15,7,18,6,7,9,-1,1,0,1,2.335,1.582,1,"blå","23_22",2,0,1,"Left_lead","Male","Female",1,0.341710953079348,0.203507545758422,0.232144159800843,0.975457558275348,-0.0245424417246521,0.92676387457912,-0.07323612542088,1,-0.653110501224851,1,0,"left"
"495","23_1",28,"23","Male",23,"Stim\r08y23g10b29.jpeg","Stim\r09y06g26b32.jpeg",8,9,23,6,10,26,29,32,1,-1,1,0,2.348,1.45,1,"blå","23_22",3,1,0,"Left_lead","Male","Female",1,0.341710953079348,0.203507545758422,0.196983626672284,0.975457558275348,-0.0245424417246521,0.884223950787856,-0.115776049212144,1,-0.653110501224851,1,0,"left"
"499","23_1",45,"23","Male",23,"Stim\r14y08g21b39.jpeg","Stim\r11y13g22b35.jpeg",14,11,8,13,21,22,39,35,1,-1,0,1,3.548,1.565,1,"blå","23_22",-4,1,0,"Left_lead","Male","Female",1,0.341710953079348,0.203507545758422,0.175394605007769,0.975457558275348,-0.0245424417246521,1.01482787250729,0.014827872507289,1,-0.653110501224851,0.5,-0.5,"left"
"503","23_1",67,"23","Male",23,"Stim\r08y09g09b11.jpeg","Stim\r07y06g08b05.jpeg",8,7,9,6,9,8,11,5,2,-1,0,1,1.177,3.843,1,"gul","23_22",-3,1,0,"Left_lead","Male","Female",1,0.341710953079348,0.203507545758422,0.21426343803055,0.975457558275348,-0.0245424417246521,0.959964580059771,-0.0400354199402292,2,0.740191901388164,1,0,"left"
"505","23_1",70,"23","Male",23,"Stim\r22y02g34b05.jpeg","Stim\r21y03g15b37.jpeg",22,21,2,3,34,15,5,37,1,-1,1,0,1.844,2.38,1,"gul","23_22",1,1,0,"Left_lead","Male","Female",1,0.341710953079348,0.203507545758422,0.211526930457681,0.975457558275348,-0.0245424417246521,0.876819050425811,-0.123180949574189,1,-0.653110501224851,1,0,"left"
"506","23_1",72,"23","Male",23,"Stim\r09y07g06b09.jpeg","Stim\r07y14g27b22.jpeg",9,7,7,14,6,27,9,22,2,1,1,1,1.2,1.765,1,"gul","23_22",7,1,1,"Left_lead","Male","Female",0,0.341710953079348,0.203507545758422,0.23366054404502,0.975457558275348,-0.0245424417246521,1.02890306223218,0.0289030622321791,2,0.740191901388164,2,1,"left"
"508","23_1",76,"23","Male",23,"Stim\r10y03g03b07.jpeg","Stim\r03y03g02b05.jpeg",10,3,3,3,3,2,7,5,1,-1,0,1,0.989,1.654,1,"grøn","23_22",-1,1,0,"Left_lead","Male","Female",1,0.341710953079348,0.203507545758422,0.218096629016638,0.975457558275348,-0.0245424417246521,0.957223567781556,-0.0427764322184443,1,-0.653110501224851,1,0,"left"
"509","23_1",80,"23","Male",23,"Stim\r12y07g16b25.jpeg","Stim\r03y06g12b09.jpeg",12,3,7,6,16,12,25,9,-1,1,1,0,1.841,1.82,1,"grøn","23_22",-4,0,1,"Left_lead","Male","Female",1,0.341710953079348,0.203507545758422,0.212476543899425,0.975457558275348,-0.0245424417246521,1.06884454450332,0.068844544503323,1,-0.653110501224851,1,0,"left"
"516","23_1",92,"23","Male",23,"Stim\r20y04g39b23.jpeg","Stim\r10y02g36b05.jpeg",20,10,4,2,39,36,23,5,3,1,0,0,2.536,1.693,1,"grøn","23_22",-3,1,1,"Left_lead","Male","Female",0,0.341710953079348,0.203507545758422,0.24182344421006,0.975457558275348,-0.0245424417246521,1.06577315484792,0.0657731548479241,3,2.13349430400118,3,2,"left"
"519","24_2",10,"24","Female",25,"Stim\r02y10g14b11.jpeg","Stim\r04y39g24b15.jpeg",2,4,10,39,14,24,11,15,1,-1,1,0,2.407,1.396,2,"rød","24_22",2,1,0,"Left_lead","Female","Female",1,-0.295132145389442,0.204416924056392,0.224198601986228,0.948403175014029,-0.0515968249859714,1.0834281461543,0.0834281461542952,1,-0.83452296039628,1,0,"left"
"520","24_2",11,"24","Female",25,"Stim\r11y26g25b38.jpeg","Stim\r18y19g14b27.jpeg",11,18,26,19,25,14,38,27,-2,-1,0,0,1.337,2.203,2,"rød","24_22",7,0,0,"Left_lead","Female","Female",0,-0.295132145389442,0.204416924056392,0.190701091993826,0.948403175014029,-0.0515968249859714,0.988134576513768,-0.0118654234862319,2,0.83452296039628,2,1,"left"
"521","24_2",14,"24","Female",25,"Stim\r04y39g24b15.jpeg","Stim\r10y07g11b10.jpeg",4,10,39,7,24,11,15,10,-1,1,0,1,3.031,1.703,2,"rød","24_22",6,0,1,"Left_lead","Female","Female",1,-0.295132145389442,0.204416924056392,0.200178835204689,0.948403175014029,-0.0515968249859714,0.974126108950501,-0.0258738910494994,1,-0.83452296039628,0.5,-0.5,"left"
"526","24_2",28,"24","Female",25,"Stim\r17y11g38b07.jpeg","Stim\r02y10g14b11.jpeg",17,2,11,10,38,14,7,11,1,-1,1,0,1.948,2.613,2,"blå","24_22",4,1,0,"Left_lead","Female","Female",1,-0.295132145389442,0.204416924056392,0.226831454004528,0.948403175014029,-0.0515968249859714,0.977835541709327,-0.0221644582906735,1,-0.83452296039628,1,0,"left"
"527","24_2",32,"24","Female",25,"Stim\r04y28g27b06.jpeg","Stim\r17y11g38b07.jpeg",4,17,28,11,27,38,6,7,-1,1,0,1,1.815,1.574,2,"blå","24_22",1,0,1,"Left_lead","Female","Female",1,-0.295132145389442,0.204416924056392,0.216071257851802,0.948403175014029,-0.0515968249859714,1.0377818906592,0.0377818906592038,1,-0.83452296039628,1,0,"left"
"528","24_2",33,"24","Female",25,"Stim\r13y24g05b28.jpeg","Stim\r21y03g15b37.jpeg",13,21,24,3,5,15,28,37,-3,-1,0,0,2.044,1.955,2,"blå","24_22",9,0,0,"Left_lead","Female","Female",0,-0.295132145389442,0.204416924056392,0.194259462119458,0.948403175014029,-0.0515968249859714,0.939232138583675,-0.0607678614163245,3,2.50356888118884,3,2,"left"
"529","24_2",35,"24","Female",25,"Stim\r16y09g06b10.jpeg","Stim\r17y20g40b07.jpeg",16,17,9,20,6,40,10,7,2,1,0,0,1.518,6.417,2,"blå","24_22",-3,1,1,"Left_lead","Female","Female",0,-0.295132145389442,0.204416924056392,0.132951372323232,0.948403175014029,-0.0515968249859714,0.70878926774697,-0.29121073225303,2,0.83452296039628,2,1,"left"
"530","24_2",36,"24","Female",25,"Stim\r14y12g04b29.jpeg","Stim\r18y19g14b27.jpeg",14,18,12,19,4,14,29,27,-1,1,1,0,2.907,2.908,2,"blå","24_22",-2,0,1,"Left_lead","Female","Female",1,-0.295132145389442,0.204416924056392,0.143714718524113,0.948403175014029,-0.0515968249859714,0.817971279597295,-0.182028720402705,1,-0.83452296039628,0.5,-0.5,"left"
"532","24_2",39,"24","Female",25,"Stim\r07y14g27b22.jpeg","Stim\r12y07g16b25.jpeg",7,12,14,7,27,16,22,25,-2,-1,0,0,1.195,5.141,2,"blå","24_22",3,0,0,"Left_lead","Female","Female",0,-0.295132145389442,0.204416924056392,0.144193168767954,0.948403175014029,-0.0515968249859714,0.863686895763478,-0.136313104236522,2,0.83452296039628,1,0,"left"
"533","24_2",45,"24","Female",25,"Stim\r11y10g06b19.jpeg","Stim\r12y07g07b17.jpeg",11,12,10,7,6,7,19,17,1,-1,0,1,2.099,1.629,2,"blå","24_22",-2,1,0,"Left_lead","Female","Female",1,-0.295132145389442,0.204416924056392,0.167405041701471,0.948403175014029,-0.0515968249859714,0.969480128401399,-0.0305198715986008,1,-0.83452296039628,1,0,"left"
"534","24_2",47,"24","Female",25,"Stim\r15y16g12b03.jpeg","Stim\r22y02g34b05.jpeg",15,22,16,2,12,34,3,5,-1,1,0,1,1.937,1.29,2,"blå","24_22",2,0,1,"Left_lead","Female","Female",1,-0.295132145389442,0.204416924056392,0.17217848826007,0.948403175014029,-0.0515968249859714,0.944537042114761,-0.0554629578852388,1,-0.83452296039628,1,0,"left"
"536","24_2",54,"24","Female",25,"Stim\r11y14g08b23.jpeg","Stim\r10y13g07b36.jpeg",11,10,14,13,8,7,23,36,-2,1,1,0,2.226,1.473,2,"gul","24_22",-1,0,1,"Left_lead","Female","Female",1,-0.295132145389442,0.204416924056392,0.1881251617503,0.948403175014029,-0.0515968249859714,0.880418229568603,-0.119581770431397,2,0.83452296039628,1,0,"left"
"540","24_2",60,"24","Female",25,"Stim\r14y12g04b29.jpeg","Stim\r03y11g01b26.jpeg",14,3,12,11,4,1,29,26,1,1,0,0,1.39,1.675,2,"gul","24_22",-1,1,1,"Left_lead","Female","Female",0,-0.295132145389442,0.204416924056392,0.196366679710262,0.948403175014029,-0.0515968249859714,1.04281026988969,0.0428102698896902,1,-0.83452296039628,1,0,"left"
"541","24_2",61,"24","Female",25,"Stim\r10y13g07b36.jpeg","Stim\r12y12g14b26.jpeg",10,12,13,12,7,14,36,26,-1,1,1,0,1.188,2.37,2,"gul","24_22",-1,0,1,"Left_lead","Female","Female",1,-0.295132145389442,0.204416924056392,0.195558316165013,0.948403175014029,-0.0515968249859714,1.06052719227234,0.0605271922723445,1,-0.83452296039628,1,0,"left"
"542","24_2",67,"24","Female",25,"Stim\r02y19g24b04.jpeg","Stim\r14y20g16b10.jpeg",2,14,19,20,24,16,4,10,-2,1,0,1,1.98,1.389,2,"gul","24_22",1,0,1,"Left_lead","Female","Female",1,-0.295132145389442,0.204416924056392,0.242506384241855,0.948403175014029,-0.0515968249859714,1.0383400886703,0.0383400886702958,2,0.83452296039628,1,0,"left"
"544","24_2",71,"24","Female",25,"Stim\r14y20g16b10.jpeg","Stim\r09y17g32b21.jpeg",14,9,20,17,16,32,10,21,1,-1,0,1,1.103,3.819,2,"gul","24_22",-3,1,0,"Left_lead","Female","Female",1,-0.295132145389442,0.204416924056392,0.21331926064129,0.948403175014029,-0.0515968249859714,0.957476833336267,-0.0425231666637331,1,-0.83452296039628,0.5,-0.5,"left"
"546","24_2",73,"24","Female",25,"Stim\r16y09g06b10.jpeg","Stim\r16y21g04b04.jpeg",16,16,9,21,6,4,10,4,1,1,0,0,0.941,1.314,2,"grøn","24_22",-2,1,1,"Left_lead","Female","Female",0,-0.295132145389442,0.204416924056392,0.202588374955501,0.948403175014029,-0.0515968249859714,0.87128261257625,-0.12871738742375,1,-0.83452296039628,1,0,"left"
"547","24_2",74,"24","Female",25,"Stim\r06y14g31b25.jpeg","Stim\r12y09g30b18.jpeg",6,12,14,9,31,30,25,18,-1,-1,1,1,1.292,2.602,2,"grøn","24_22",-1,0,0,"Left_lead","Female","Female",0,-0.295132145389442,0.204416924056392,0.214889530748693,0.948403175014029,-0.0515968249859714,0.905348528851958,-0.0946514711480418,1,-0.83452296039628,1,0,"left"
"548","24_2",75,"24","Female",25,"Stim\r02y10g14b11.jpeg","Stim\r14y10g15b15.jpeg",2,14,10,10,14,15,11,15,-1,1,0,1,2.209,1.676,2,"grøn","24_22",1,0,1,"Left_lead","Female","Female",1,-0.295132145389442,0.204416924056392,0.210540758726013,0.948403175014029,-0.0515968249859714,0.892768555626071,-0.107231444373929,1,-0.83452296039628,1,0,"left"
"549","24_2",76,"24","Female",25,"Stim\r07y14g27b22.jpeg","Stim\r15y17g24b30.jpeg",7,15,14,17,27,24,22,30,-2,-1,1,1,1.26,1.8,2,"grøn","24_22",-3,0,0,"Left_lead","Female","Female",0,-0.295132145389442,0.204416924056392,0.206262308519046,0.948403175014029,-0.0515968249859714,0.926425741654126,-0.0735742583458745,2,0.83452296039628,2,1,"left"
"550","24_2",77,"24","Female",25,"Stim\r17y11g38b07.jpeg","Stim\r17y20g40b07.jpeg",17,17,11,20,38,40,7,7,2,1,1,1,2.711,1.519,2,"grøn","24_22",2,1,1,"Left_lead","Female","Female",0,-0.295132145389442,0.204416924056392,0.195320975601973,0.948403175014029,-0.0515968249859714,0.962656742596182,-0.0373432574038178,2,0.83452296039628,2,1,"left"
"552","24_2",81,"24","Female",25,"Stim\r09y17g32b21.jpeg","Stim\r06y14g31b25.jpeg",9,6,17,14,32,31,21,25,-2,1,1,0,1.194,2.829,2,"grøn","24_22",-1,0,1,"Left_lead","Female","Female",1,-0.295132145389442,0.204416924056392,0.202915981044867,0.948403175014029,-0.0515968249859714,0.983837728627419,-0.0161622713725807,2,0.83452296039628,0.5,-0.5,"left"
"557","24_2",92,"24","Female",25,"Stim\r03y11g01b26.jpeg","Stim\r21y01g04b27.jpeg",3,21,11,1,1,4,26,27,-1,1,0,1,2.912,1.455,2,"grøn","24_22",3,0,1,"Left_lead","Female","Female",1,-0.295132145389442,0.204416924056392,0.234229723851658,0.948403175014029,-0.0515968249859714,0.957484519926422,-0.0425154800735781,1,-0.83452296039628,1,0,"left"
"560","21_2",13,"21","Male",24,"Stim\r12y07g07b17.jpeg","Stim\r13y24g05b28.jpeg",12,13,7,24,7,5,17,28,-2,-1,0,0,2,2.511,2,"rød","21_23",1,0,0,"Left_lead","Male","Male",0,-0.0187089995448491,0.214263691901895,0.209395431976267,0.954095748396311,-0.0459042516036889,1.04299657723437,0.0429965772343723,2,1.22140963310492,1,0,"left"
"564","21_2",29,"21","Male",24,"Stim\r11y26g25b38.jpeg","Stim\r05y09g02b34.jpeg",11,5,26,9,25,2,38,34,1,-1,0,1,1.464,1.759,2,"blå","21_23",-4,1,0,"Left_lead","Male","Male",1,-0.0187089995448491,0.214263691901895,0.211161604127734,0.954095748396311,-0.0459042516036889,0.792252031189883,-0.207747968810117,1,-0.793916261518197,0.5,-0.5,"left"
"569","21_2",43,"21","Male",24,"Stim\r16y09g06b10.jpeg","Stim\r10y03g03b07.jpeg",16,10,9,3,6,3,10,7,-2,1,1,0,1.508,2.031,2,"blå","21_23",-3,0,1,"Left_lead","Male","Male",1,-0.0187089995448491,0.214263691901895,0.154418478837419,0.954095748396311,-0.0459042516036889,1.06649409374986,0.0664940937498562,2,1.22140963310492,1,0,"left"
"571","21_2",49,"21","Male",24,"Stim\r07y02g03b06.jpeg","Stim\r20y04g39b23.jpeg",7,20,2,4,3,39,6,23,-1,1,0,1,3.05,2.227,2,"gul","21_23",2,0,1,"Left_lead","Male","Male",1,-0.0187089995448491,0.214263691901895,0.183726430541016,0.954095748396311,-0.0459042516036889,0.99870182301514,-0.00129817698486012,1,-0.793916261518197,1,0,"left"
"572","21_2",50,"21","Male",24,"Stim\r20y14g02b19.jpeg","Stim\r15y17g24b30.jpeg",20,15,14,17,2,24,19,30,-1,1,0,1,1.53,1.708,2,"gul","21_23",3,0,1,"Left_lead","Male","Male",1,-0.0187089995448491,0.214263691901895,0.180079489276648,0.954095748396311,-0.0459042516036889,0.950831042654427,-0.0491689573455728,1,-0.793916261518197,0.5,-0.5,"left"
"573","21_2",53,"21","Male",24,"Stim\r03y06g12b09.jpeg","Stim\r09y02g05b02.jpeg",3,9,6,2,12,5,9,2,-2,1,1,0,1.27,2.709,2,"gul","21_23",-4,0,1,"Left_lead","Male","Male",1,-0.0187089995448491,0.214263691901895,0.21757771939434,0.954095748396311,-0.0459042516036889,1.08829694458818,0.0882969445881787,2,1.22140963310492,1,0,"left"
"575","21_2",56,"21","Male",24,"Stim\r15y16g12b03.jpeg","Stim\r06y19g29b08.jpeg",15,6,16,19,12,29,3,8,-2,-1,0,0,1.278,1.53,2,"gul","21_23",3,0,0,"Left_lead","Male","Male",0,-0.0187089995448491,0.214263691901895,0.197874356627668,0.954095748396311,-0.0459042516036889,0.815598598019301,-0.184401401980699,2,1.22140963310492,2,1,"left"
"577","21_2",61,"21","Male",24,"Stim\r05y28g23b30.jpeg","Stim\r13y24g05b28.jpeg",5,13,28,24,23,5,30,28,2,-1,0,1,1.587,3.641,2,"gul","21_23",-4,1,0,"Left_lead","Male","Male",1,-0.0187089995448491,0.214263691901895,0.202252307466445,0.954095748396311,-0.0459042516036889,0.950369290122066,-0.0496307098779345,2,1.22140963310492,1,0,"left"
"578","21_2",65,"21","Male",24,"Stim\r05y40g33b16.jpeg","Stim\r06y36g16b14.jpeg",5,6,40,36,33,16,16,14,1,-1,0,1,2.212,1.328,2,"gul","21_23",-4,1,0,"Left_lead","Male","Male",1,-0.0187089995448491,0.214263691901895,0.205081234848496,0.954095748396311,-0.0459042516036889,0.916204393344735,-0.0837956066552651,1,-0.793916261518197,0.5,-0.5,"left"
"579","21_2",66,"21","Male",24,"Stim\r09y07g06b09.jpeg","Stim\r15y05g12b10.jpeg",9,15,7,5,6,12,9,10,-2,-1,1,1,1.842,3.293,2,"gul","21_23",-2,0,0,"Left_lead","Male","Male",0,-0.0187089995448491,0.214263691901895,0.21406293628967,0.954095748396311,-0.0459042516036889,0.955941683813292,-0.0440583161867083,2,1.22140963310492,2,1,"left"
"580","21_2",67,"21","Male",24,"Stim\r22y23g20b06.jpeg","Stim\r10y27g22b14.jpeg",22,10,23,27,20,22,6,14,-1,1,0,1,1.785,2.863,2,"gul","21_23",4,0,1,"Left_lead","Male","Male",1,-0.0187089995448491,0.214263691901895,0.223138185610905,0.954095748396311,-0.0459042516036889,0.927224962003576,-0.0727750379964237,1,-0.793916261518197,1,0,"left"
"581","21_2",68,"21","Male",24,"Stim\r03y11g01b26.jpeg","Stim\r14y10g15b15.jpeg",3,14,11,10,1,15,26,15,1,-1,0,1,1.599,1.812,2,"gul","21_23",-1,1,0,"Left_lead","Male","Male",1,-0.0187089995448491,0.214263691901895,0.227546252065529,0.954095748396311,-0.0459042516036889,0.935261109156498,-0.0647388908435025,1,-0.793916261518197,1,0,"left"
"586","21_2",83,"21","Male",24,"Stim\r11y10g06b19.jpeg","Stim\r11y14g08b23.jpeg",11,11,10,14,6,8,19,23,-1,1,0,1,1.118,1.162,2,"grøn","21_23",2,0,1,"Left_lead","Male","Male",1,-0.0187089995448491,0.214263691901895,0.209199800799363,0.954095748396311,-0.0459042516036889,0.97234700310819,-0.0276529968918098,1,-0.793916261518197,0.5,-0.5,"left"
"587","21_2",87,"21","Male",24,"Stim\r09y15g18b07.jpeg","Stim\r10y27g22b14.jpeg",9,10,15,27,18,22,7,14,-2,-1,0,0,1.957,1.242,2,"grøn","21_23",4,0,0,"Left_lead","Male","Male",0,-0.0187089995448491,0.214263691901895,0.232235579695983,0.954095748396311,-0.0459042516036889,0.953764882721893,-0.0462351172781073,2,1.22140963310492,2,1,"left"
"589","21_2",90,"21","Male",24,"Stim\r08y09g09b11.jpeg","Stim\r17y07g07b24.jpeg",8,17,9,7,9,7,11,24,-2,1,1,0,2.629,1.161,2,"grøn","21_23",-2,0,1,"Left_lead","Male","Male",1,-0.0187089995448491,0.214263691901895,0.240914258281318,0.954095748396311,-0.0459042516036889,0.961902730001082,-0.0380972699989185,2,1.22140963310492,1,0,"left"
"590","21_2",95,"21","Male",24,"Stim\r02y19g24b04.jpeg","Stim\r11y13g22b35.jpeg",2,11,19,13,24,22,4,35,-1,1,1,0,1.121,2.644,2,"grøn","21_23",-2,0,1,"Left_lead","Male","Male",1,-0.0187089995448491,0.214263691901895,0.24388793872873,0.954095748396311,-0.0459042516036889,1.01257275269102,0.0125727526910162,1,-0.793916261518197,1,0,"left"
"591","21_2",96,"21","Male",24,"Stim\r04y39g24b15.jpeg","Stim\r13y21g23b09.jpeg",4,13,39,21,24,23,15,9,-1,1,1,0,1.153,1.688,2,"grøn","21_23",-1,0,1,"Left_lead","Male","Male",1,-0.0187089995448491,0.214263691901895,0.241306977840981,0.954095748396311,-0.0459042516036889,1.02535250936204,0.0253525093620388,1,-0.793916261518197,0.5,-0.5,"left"
"593","21_1",17,"21","Male",24,"Stim\r03y06g12b09.jpeg","Stim\r06y14g31b25.jpeg",3,6,6,14,12,31,9,25,-1,1,0,1,3.989,3.536,1,"rød","21_24",3,0,1,"Left_lead","Male","Female",1,-0.17616384513137,0.21114518114791,0.189737146963976,1.05992147435106,0.0599214743510554,0.915683822540531,-0.0843161774594686,1,-0.87388478319842,0.5,-0.5,"left"
"594","21_1",18,"21","Male",24,"Stim\r14y12g04b29.jpeg","Stim\r17y11g38b07.jpeg",14,17,12,11,4,38,29,7,-1,1,0,1,2.313,2.826,1,"rød","21_24",3,0,1,"Left_lead","Male","Female",1,-0.17616384513137,0.21114518114791,0.185689056000939,1.05992147435106,0.0599214743510554,0.845588652715039,-0.154411347284961,1,-0.87388478319842,0.5,-0.5,"left"
"595","21_1",20,"21","Male",24,"Stim\r16y21g04b04.jpeg","Stim\r13y24g05b28.jpeg",16,13,21,24,4,5,4,28,-2,1,1,0,2.667,3.561,1,"rød","21_24",-3,0,1,"Left_lead","Male","Female",1,-0.17616384513137,0.21114518114791,0.231474761818335,1.05992147435106,0.0599214743510554,0.969854972167996,-0.0301450278320045,2,0.953328854398277,1,0,"left"
"596","21_1",21,"21","Male",24,"Stim\r10y02g36b05.jpeg","Stim\r14y12g04b29.jpeg",10,14,2,12,36,4,5,29,1,1,1,1,2.193,2.849,1,"rød","21_24",4,1,1,"Left_lead","Male","Female",0,-0.17616384513137,0.21114518114791,0.227805388239789,1.05992147435106,0.0599214743510554,0.992981773194484,-0.00701822680551567,1,-0.87388478319842,1,0,"left"
"598","21_1",27,"21","Male",24,"Stim\r17y07g07b24.jpeg","Stim\r21y01g04b27.jpeg",17,21,7,1,7,4,24,27,2,1,1,1,1.703,1.862,1,"blå","21_24",3,1,1,"Left_lead","Male","Female",0,-0.17616384513137,0.21114518114791,0.250172024987007,1.05992147435106,0.0599214743510554,1.10190435664839,0.101904356648389,2,0.953328854398277,1,0,"left"
"599","21_1",31,"21","Male",24,"Stim\r09y07g06b09.jpeg","Stim\r06y19g29b08.jpeg",9,6,7,19,6,29,9,8,-2,-1,1,1,2.079,2.865,1,"blå","21_24",-1,0,0,"Left_lead","Male","Female",0,-0.17616384513137,0.21114518114791,0.239385296907567,1.05992147435106,0.0599214743510554,1.11921196014812,0.119211960148119,2,0.953328854398277,2,1,"left"
"600","21_1",34,"21","Male",24,"Stim\r13y24g05b28.jpeg","Stim\r17y07g07b24.jpeg",13,17,24,7,5,7,28,24,-1,1,1,0,2.48,1.845,1,"blå","21_24",-4,0,1,"Left_lead","Male","Female",1,-0.17616384513137,0.21114518114791,0.239391626874839,1.05992147435106,0.0599214743510554,1.1150728438285,0.115072843828504,1,-0.87388478319842,0.5,-0.5,"left"
"603","21_1",38,"21","Male",24,"Stim\r12y12g14b26.jpeg","Stim\r06y14g31b25.jpeg",12,6,12,14,14,31,26,25,2,1,0,0,2.999,1.91,1,"blå","21_24",-1,1,1,"Left_lead","Male","Female",0,-0.17616384513137,0.21114518114791,0.167521343403752,1.05992147435106,0.0599214743510554,1.07411077944407,0.0741107794440683,2,0.953328854398277,2,1,"left"
"606","21_1",45,"21","Male",24,"Stim\r10y27g22b14.jpeg","Stim\r10y07g11b10.jpeg",10,10,27,7,22,11,14,10,-1,-1,1,1,5.419,1.568,1,"blå","21_24",-4,0,0,"Left_lead","Male","Female",0,-0.17616384513137,0.21114518114791,0.168660374854718,1.05992147435106,0.0599214743510554,1.01336489645573,0.0133648964557294,1,-0.87388478319842,0.5,-0.5,"left"
"607","21_1",47,"21","Male",24,"Stim\r13y33g08b23.jpeg","Stim\r10y27g22b14.jpeg",13,10,33,27,8,22,23,14,-2,-1,1,1,1.771,2.189,1,"blå","21_24",-9,0,0,"Left_lead","Male","Female",0,-0.17616384513137,0.21114518114791,0.180238972665007,1.05992147435106,0.0599214743510554,1.0726842637493,0.0726842637493021,2,0.953328854398277,2,1,"left"
"611","21_1",52,"21","Male",24,"Stim\r21y01g04b27.jpeg","Stim\r03y03g02b05.jpeg",21,3,1,3,4,2,27,5,-2,-1,0,0,4.284,1.746,1,"gul","21_24",2,0,0,"Left_lead","Male","Female",0,-0.17616384513137,0.21114518114791,0.166523961789427,1.05992147435106,0.0599214743510554,0.968391459779292,-0.0316085402207079,2,0.953328854398277,2,1,"left"
"613","21_1",55,"21","Male",24,"Stim\r22y02g34b05.jpeg","Stim\r15y05g12b10.jpeg",22,15,2,5,34,12,5,10,2,1,1,1,1.215,2.004,1,"gul","21_24",3,1,1,"Left_lead","Male","Female",0,-0.17616384513137,0.21114518114791,0.178966961906851,1.05992147435106,0.0599214743510554,0.95768247386795,-0.0423175261320499,2,0.953328854398277,2,1,"left"
"614","21_1",56,"21","Male",24,"Stim\r16y21g04b04.jpeg","Stim\r15y17g24b30.jpeg",16,15,21,17,4,24,4,30,-2,1,1,0,1.888,1.943,1,"gul","21_24",-4,0,1,"Left_lead","Male","Female",1,-0.17616384513137,0.21114518114791,0.18906030529594,1.05992147435106,0.0599214743510554,1.24002684328719,0.240026843287189,2,0.953328854398277,1,0,"left"
"619","21_1",61,"21","Male",24,"Stim\r19y15g35b05.jpeg","Stim\r04y16g13b13.jpeg",19,4,15,16,35,13,5,13,1,-1,1,0,2.329,2.207,1,"gul","21_24",1,1,0,"Left_lead","Male","Female",1,-0.17616384513137,0.21114518114791,0.220133996420429,1.05992147435106,0.0599214743510554,1.39185871343283,0.391858713432828,1,-0.87388478319842,0.5,-0.5,"left"
"620","21_1",62,"21","Male",24,"Stim\r18y13g28b06.jpeg","Stim\r17y12g19b18.jpeg",18,17,13,12,28,19,6,18,-1,1,1,0,4.013,2.415,1,"gul","21_24",-1,0,1,"Left_lead","Male","Female",1,-0.17616384513137,0.21114518114791,0.232768079907257,1.05992147435106,0.0599214743510554,1.43351038700214,0.433510387002145,1,-0.87388478319842,1,0,"left"
"621","21_1",63,"21","Male",24,"Stim\r20y14g02b19.jpeg","Stim\r08y12g20b03.jpeg",20,8,14,12,2,20,19,3,-1,-1,1,1,4.275,2.813,1,"gul","21_24",-2,0,0,"Left_lead","Male","Female",0,-0.17616384513137,0.21114518114791,0.232220811153168,1.05992147435106,0.0599214743510554,1.35380990279983,0.353809902799834,1,-0.87388478319842,1,0,"left"
"622","21_1",64,"21","Male",24,"Stim\r03y11g01b26.jpeg","Stim\r12y07g07b17.jpeg",3,12,11,7,1,7,26,17,2,1,0,0,1.383,1.72,1,"gul","21_24",-4,1,1,"Left_lead","Male","Female",0,-0.17616384513137,0.21114518114791,0.219396237203234,1.05992147435106,0.0599214743510554,1.22685240805708,0.226852408057085,2,0.953328854398277,2,1,"left"
"623","21_1",65,"21","Male",24,"Stim\r09y17g32b21.jpeg","Stim\r14y10g15b15.jpeg",9,14,17,10,32,15,21,15,1,-1,0,1,5.318,1.499,1,"gul","21_24",-7,1,0,"Left_lead","Male","Female",1,-0.17616384513137,0.21114518114791,0.208313793196602,1.05992147435106,0.0599214743510554,1.11122211307801,0.111222113078011,1,-0.87388478319842,0.5,-0.5,"left"
"624","21_1",70,"21","Male",24,"Stim\r13y21g23b09.jpeg","Stim\r09y17g32b21.jpeg",13,9,21,17,23,32,9,21,-2,-1,1,1,1.687,2.161,1,"gul","21_24",-4,0,0,"Left_lead","Male","Female",0,-0.17616384513137,0.21114518114791,0.235216188915935,1.05992147435106,0.0599214743510554,0.938044775999408,-0.0619552240005915,2,0.953328854398277,2,1,"left"
"626","21_1",75,"21","Male",24,"Stim\r15y05g12b10.jpeg","Stim\r06y36g16b14.jpeg",15,6,5,36,12,16,10,14,-2,1,0,1,1.447,3.565,1,"grøn","21_24",4,0,1,"Left_lead","Male","Female",1,-0.17616384513137,0.21114518114791,0.248173397976365,1.05992147435106,0.0599214743510554,0.989007363611504,-0.0109926363884959,2,0.953328854398277,1,0,"left"
