thearol/gender_bias_in_decision_making/Gender_bias_study_2/data/disagree_sensitivity_GBDM_long_format.csv
"","SubjectID_unique","Trial","SubjectID","Gender","Age","Image_1","Image_2","Prop_red_image_1","Prop_red_image_2","Prop_yellow_image_1","Prop_yellow_image_2","Prop_green_image_1","Prop_green_image_2","Prop_blue_image_1","Prop_blue_image_2","Response","Joint","Correct","Correct_joint","RT","RT_joint","Round","Block","group_id","diff","response_dummy","response_joint_dummy","chosen_leader","Leader_gender","Follower_gender","leader_behavior","Sensitivity_roll","skill_dif_roll","skill_dif_roll_c","Response_abs","z_Response_abs","conf_dif","conf_dif_c","Side"
"3","3_1",13,"3","Male",24,"Stim\r07y02g03b06.jpeg","Stim\r14y12g04b29.jpeg",7,14,2,12,3,4,6,29,-2,1,0,1,1.989,4.514,1,"rød","3_1",7,0,1,"Left_lead","Male","Male",1,0.208753747126687,1.00295323887333,0.0029532388733251,2,-0.267273026697222,1,0,"left"
"4","3_1",15,"3","Male",24,"Stim\r13y33g08b23.jpeg","Stim\r11y13g22b35.jpeg",13,11,33,13,8,22,23,35,2,1,0,0,1.078,1.666,1,"rød","3_1",-2,1,1,"Left_lead","Male","Male",0,0.231161496453535,0.964920033842101,-0.0350799661578992,2,-0.267273026697222,2,1,"left"
"6","3_1",17,"3","Male",24,"Stim\r08y09g09b11.jpeg","Stim\r09y06g26b32.jpeg",8,9,9,6,9,26,11,32,2,-1,1,0,1.457,1.951,1,"rød","3_1",1,1,0,"Left_lead","Male","Male",1,0.22836403679227,0.942423542036533,-0.0575764579634669,2,-0.267273026697222,1,0,"left"
"7","3_1",19,"3","Male",24,"Stim\r14y12g04b29.jpeg","Stim\r13y33g08b23.jpeg",14,13,12,33,4,8,29,23,2,-1,0,1,1.322,3.525,1,"rød","3_1",-1,1,0,"Left_lead","Male","Male",1,0.239508803189642,0.994655656030892,-0.00534434396910821,2,-0.267273026697222,1,0,"left"
"10","3_1",22,"3","Male",24,"Stim\r21y03g15b37.jpeg","Stim\r18y13g28b06.jpeg",21,18,3,13,15,28,37,6,3,1,0,0,1.607,1.824,1,"rød","3_1",-3,1,1,"Left_lead","Male","Male",0,0.255607633780135,0.987578466360435,-0.0124215336395646,3,0.75727357564213,1.5,0.5,"left"
"11","3_1",23,"3","Male",24,"Stim\r18y19g14b27.jpeg","Stim\r19y10g06b15.jpeg",18,19,19,10,14,6,27,15,1,-1,1,0,1.577,1.044,1,"rød","3_1",1,1,0,"Left_lead","Male","Male",1,0.256294087042204,0.995989930438518,-0.00401006956148153,1,-1.29181962903657,0.5,-0.5,"left"
"12","3_1",24,"3","Male",24,"Stim\r14y08g21b39.jpeg","Stim\r12y12g14b26.jpeg",14,12,8,12,21,14,39,26,2,-1,0,1,2.765,1.33,1,"rød","3_1",-2,1,0,"Left_lead","Male","Male",1,0.26312212312285,0.991917427704315,-0.00808257229568521,2,-0.267273026697222,1,0,"left"
"13","3_1",25,"3","Male",24,"Stim\r03y03g02b05.jpeg","Stim\r04y28g27b06.jpeg",3,4,3,28,2,27,5,6,4,1,1,1,1.327,1.14,1,"rød","3_1",1,1,1,"Left_lead","Male","Male",0,0.270069023973785,0.998478053684491,-0.00152194631550895,4,1.78182017798148,2,1,"left"
"15","3_1",29,"3","Male",24,"Stim\r12y07g07b17.jpeg","Stim\r09y17g32b21.jpeg",12,9,7,17,7,32,17,21,-2,1,0,1,2.47,1.474,1,"blå","3_1",4,0,1,"Left_lead","Male","Male",1,0.237488126509546,0.984319336501791,-0.0156806634982093,2,-0.267273026697222,0.666666666666667,-0.333333333333333,"left"
"16","3_1",33,"3","Male",24,"Stim\r21y31g06b08.jpeg","Stim\r22y35g09b11.jpeg",21,22,31,35,6,9,8,11,4,1,1,1,1.193,1.563,1,"blå","3_1",3,1,1,"Left_lead","Male","Male",0,0.21225756581105,0.961208985919402,-0.0387910140805978,4,1.78182017798148,2,1,"left"
"17","3_1",34,"3","Male",24,"Stim\r13y33g08b23.jpeg","Stim\r17y22g16b15.jpeg",13,17,33,22,8,16,23,15,-1,1,1,0,2.316,1.064,1,"blå","3_1",-8,0,1,"Left_lead","Male","Male",1,0.198466091372605,0.980088705829841,-0.0199112941701586,1,-1.29181962903657,0.5,-0.5,"left"
"18","3_1",35,"3","Male",24,"Stim\r11y10g06b19.jpeg","Stim\r09y17g32b21.jpeg",11,9,10,17,6,32,19,21,4,1,1,1,1.103,1.025,1,"blå","3_1",2,1,1,"Left_lead","Male","Male",0,0.158169228723142,0.881781314171817,-0.118218685828183,4,1.78182017798148,2,1,"left"
"19","3_1",36,"3","Male",24,"Stim\r10y02g36b05.jpeg","Stim\r21y31g06b08.jpeg",10,21,2,31,36,6,5,8,2,-1,1,0,1.329,3.581,1,"blå","3_1",3,1,0,"Left_lead","Male","Male",1,0.150703193753905,0.926743884277448,-0.0732561157225522,2,-0.267273026697222,1,0,"left"
"20","3_1",37,"3","Male",24,"Stim\r09y06g26b32.jpeg","Stim\r03y11g01b26.jpeg",9,3,6,11,26,1,32,26,3,1,0,0,1.549,1.316,1,"blå","3_1",-6,1,1,"Left_lead","Male","Male",0,0.151778576654335,0.926324267805507,-0.0736757321944932,3,0.75727357564213,1.5,0.5,"left"
"21","3_1",41,"3","Male",24,"Stim\r09y17g32b21.jpeg","Stim\r20y14g02b19.jpeg",9,20,17,14,32,2,21,19,-3,-1,1,1,1.293,1.035,1,"blå","3_1",-2,0,0,"Left_lead","Male","Male",0,0.153277330668415,0.934070448242857,-0.0659295517571431,3,0.75727357564213,3,2,"left"
"27","3_1",49,"3","Male",24,"Stim\r16y09g06b10.jpeg","Stim\r21y31g06b08.jpeg",16,21,9,31,6,6,10,8,1,-1,0,1,0.987,1.848,1,"blå","3_1",-2,1,0,"Left_lead","Male","Male",1,0.171413887758902,0.866124371930671,-0.133875628069329,1,-1.29181962903657,0.5,-0.5,"left"
"29","3_1",52,"3","Male",24,"Stim\r06y14g31b25.jpeg","Stim\r09y15g18b07.jpeg",6,9,14,15,31,18,25,7,3,1,1,1,1.654,1,1,"gul","3_1",1,1,1,"Left_lead","Male","Male",0,0.15506090047485,0.754356694789988,-0.245643305210012,3,0.75727357564213,3,2,"left"
"30","3_1",54,"3","Male",24,"Stim\r06y19g29b08.jpeg","Stim\r22y23g20b06.jpeg",6,22,19,23,29,20,8,6,2,-1,1,0,1.066,1.032,1,"gul","3_1",4,1,0,"Left_lead","Male","Male",1,0.16752923447463,0.874703331186192,-0.125296668813808,2,-0.267273026697222,0.666666666666667,-0.333333333333333,"left"
"34","3_1",68,"3","Male",24,"Stim\r04y39g24b15.jpeg","Stim\r13y33g08b23.jpeg",4,13,39,33,24,8,15,23,-4,-1,1,1,1.042,4.111,1,"gul","3_1",-6,0,0,"Left_lead","Male","Male",0,0.268476032389222,1.07016901551007,0.0701690155100712,4,1.78182017798148,1.33333333333333,0.333333333333333,"left"
"36","3_1",71,"3","Male",24,"Stim\r09y02g05b02.jpeg","Stim\r03y06g12b09.jpeg",9,3,2,6,5,12,2,9,-1,1,0,1,1.305,1.346,1,"gul","3_1",4,0,1,"Left_lead","Male","Male",1,0.232623143895682,1.0645973544393,0.064597354439297,1,-1.29181962903657,1,0,"left"
"37","3_1",74,"3","Male",24,"Stim\r11y10g06b19.jpeg","Stim\r05y09g02b34.jpeg",11,5,10,9,6,2,19,34,-2,-1,1,1,1.349,1.659,1,"grøn","3_1",-4,0,0,"Left_lead","Male","Male",0,0.20012934583946,0.993120191498049,-0.00687980850195147,2,-0.267273026697222,2,1,"left"
"41","3_1",87,"3","Male",24,"Stim\r15y05g12b10.jpeg","Stim\r08y23g10b29.jpeg",15,8,5,23,12,10,10,29,-3,-1,1,1,1.011,1.38,1,"grøn","3_1",-2,0,0,"Left_lead","Male","Male",0,0.2262581703599,0.98664162344277,-0.0133583765572298,3,0.75727357564213,1.5,0.5,"left"
"45","3_1",95,"3","Male",24,"Stim\r07y06g08b05.jpeg","Stim\r16y09g06b10.jpeg",7,16,6,9,8,6,5,10,-4,-1,1,1,1.435,0.868,1,"grøn","3_1",-2,0,0,"Left_lead","Male","Male",0,0.2520537903238,0.931817780440723,-0.0681822195592769,4,1.78182017798148,4,3,"left"
"47","4_2",13,"4","Female",23,"Stim\r05y40g33b16.jpeg","Stim\r04y16g13b13.jpeg",5,4,40,16,33,13,16,13,2,1,0,0,1.47,3.892,2,"rød","4_1",-1,1,1,"Left_lead","Female","Male",0,0.22091578126603,1.07454770478155,0.0745477047815541,2,-0.0770991079443883,2,1,"left"
"48","4_2",15,"4","Female",23,"Stim\r11y14g08b23.jpeg","Stim\r09y15g18b07.jpeg",11,9,14,15,8,18,23,7,-2,-1,1,1,1.539,3.311,2,"rød","4_1",-2,0,0,"Left_lead","Female","Male",0,0.26126572799261,1.10996529511814,0.109965295118138,2,-0.0770991079443883,1,0,"left"
"50","4_2",28,"4","Female",23,"Stim\r10y07g11b10.jpeg","Stim\r10y03g03b07.jpeg",10,10,7,3,11,3,10,7,-2,1,1,0,1.933,3.532,2,"blå","4_1",-3,0,1,"Left_lead","Female","Male",1,0.255170066310166,1.03636189530046,0.0363618953004636,2,-0.0770991079443883,0.666666666666667,-0.333333333333333,"left"
"52","4_2",36,"4","Female",23,"Stim\r21y01g04b27.jpeg","Stim\r15y17g24b30.jpeg",21,15,1,17,4,24,27,30,1,-1,1,0,1.821,5.512,2,"blå","4_1",3,1,0,"Left_lead","Female","Male",1,0.17573361724605,1.08126480496628,0.0812648049662759,1,-1.04083795724924,0.333333333333333,-0.666666666666667,"left"
"55","4_2",43,"4","Female",23,"Stim\r12y09g30b18.jpeg","Stim\r11y10g06b19.jpeg",12,11,9,10,30,6,18,19,4,1,1,1,1.703,1.51,2,"blå","4_1",1,1,1,"Left_lead","Female","Male",0,0.17588639517495,1.01122887667527,0.0112288766752724,4,1.85037859066532,1.33333333333333,0.333333333333333,"left"
"57","4_2",49,"4","Female",23,"Stim\r22y35g09b11.jpeg","Stim\r13y33g08b23.jpeg",22,13,35,33,9,8,11,23,-1,1,1,0,2.159,4.01,2,"gul","4_1",-2,0,1,"Left_lead","Female","Male",1,0.207563277093395,1.06311922257849,0.0631192225784949,1,-1.04083795724924,0.5,-0.5,"left"
"59","4_2",57,"4","Female",23,"Stim\r09y15g18b07.jpeg","Stim\r17y12g19b18.jpeg",9,17,15,12,18,19,7,18,-2,-1,1,1,1.804,4.565,2,"gul","4_1",-3,0,0,"Left_lead","Female","Male",0,0.16683740162708,0.964728392957451,-0.0352716070425491,2,-0.0770991079443883,1,0,"left"
"60","4_2",58,"4","Female",23,"Stim\r10y03g03b07.jpeg","Stim\r03y06g12b09.jpeg",10,3,3,6,3,12,7,9,2,-1,1,0,2.34,2.205,2,"gul","4_1",3,1,0,"Left_lead","Female","Male",1,0.17577461611406,0.968716742145545,-0.031283257854455,2,-0.0770991079443883,1,0,"left"
"64","4_2",72,"4","Female",23,"Stim\r03y11g01b26.jpeg","Stim\r08y12g20b03.jpeg",3,8,11,12,1,20,26,3,1,1,1,1,1.976,1.407,2,"gul","4_1",1,1,1,"Left_lead","Female","Male",0,0.210441214720495,0.994453910711153,-0.00554608928884681,1,-1.04083795724924,0.5,-0.5,"left"
"65","4_2",76,"4","Female",23,"Stim\r17y07g07b24.jpeg","Stim\r10y03g03b07.jpeg",17,10,7,3,7,3,24,7,-4,-1,1,1,1.57,1.267,2,"grøn","4_1",-4,0,0,"Left_lead","Female","Male",0,0.213028855158535,1.02695858203308,0.0269585820330756,4,1.85037859066532,2,1,"left"
"66","4_2",78,"4","Female",23,"Stim\r14y08g21b39.jpeg","Stim\r08y12g20b03.jpeg",14,8,8,12,21,20,39,3,1,1,0,0,1.022,1.394,2,"grøn","4_1",-1,1,1,"Left_lead","Female","Male",0,0.195644670896415,1.03210621055042,0.0321062105504157,1,-1.04083795724924,0.5,-0.5,"left"
"68","4_2",84,"4","Female",23,"Stim\r07y02g03b06.jpeg","Stim\r10y37g07b02.jpeg",7,10,2,37,3,7,6,2,-2,-1,0,0,1.665,2.355,2,"grøn","4_1",4,0,0,"Left_lead","Female","Male",0,0.20330577531644,1.04151643335377,0.0415164333537748,2,-0.0770991079443883,0.666666666666667,-0.333333333333333,"left"
"69","4_2",90,"4","Female",23,"Stim\r10y07g11b10.jpeg","Stim\r18y19g14b27.jpeg",10,18,7,19,11,14,10,27,-2,1,0,1,1.827,2.359,2,"grøn","4_1",3,0,1,"Left_lead","Female","Male",1,0.2837402822086,1.10115055294273,0.101150552942728,2,-0.0770991079443883,0.666666666666667,-0.333333333333333,"left"
"71","4_2",95,"4","Female",23,"Stim\r07y14g27b22.jpeg","Stim\r12y09g30b18.jpeg",7,12,14,9,27,30,22,18,-1,1,0,1,1.625,2.853,2,"grøn","4_1",3,0,1,"Left_lead","Female","Male",1,0.268712163861,1.00321879058593,0.00321879058592645,1,-1.04083795724924,0.333333333333333,-0.666666666666667,"left"
"73","9_1",16,"9","Male",23,"Stim\r14y10g15b15.jpeg","Stim\r15y05g12b10.jpeg",14,15,10,5,15,12,15,10,4,1,1,1,1.404,2.386,1,"rød","9_11",1,1,1,"Left_lead","Male","Male",0,0.210714315052655,0.919706204228635,-0.0802937957713651,4,0.812167812143628,1,0,"left"
"76","9_1",22,"9","Male",23,"Stim\r05y40g33b16.jpeg","Stim\r08y23g10b29.jpeg",5,8,40,23,33,10,16,29,4,1,1,1,3.141,3.796,1,"rød","9_11",3,1,1,"Left_lead","Male","Male",0,0.258037815239092,0.99887121417207,-0.00112878582793041,4,0.812167812143628,2,1,"left"
"78","9_1",25,"9","Male",23,"Stim\r06y14g31b25.jpeg","Stim\r09y06g26b32.jpeg",6,9,14,6,31,26,25,32,4,1,1,1,1.843,1.916,1,"rød","9_11",3,1,1,"Left_lead","Male","Male",0,0.268154987838205,0.990029764342505,-0.00997023565749522,4,0.812167812143628,1.33333333333333,0.333333333333333,"left"
"79","9_1",29,"9","Male",23,"Stim\r12y09g30b18.jpeg","Stim\r10y27g22b14.jpeg",12,10,9,27,30,22,18,14,4,-1,0,1,1.819,2.679,1,"blå","9_11",-4,1,0,"Left_lead","Male","Male",1,0.24852795960615,1.02591442977005,0.025914429770046,4,0.812167812143628,1.33333333333333,0.333333333333333,"left"
"83","9_1",34,"9","Male",23,"Stim\r17y20g40b07.jpeg","Stim\r09y07g06b09.jpeg",17,9,20,7,40,6,7,9,4,1,1,1,1.297,1.113,1,"blå","9_11",2,1,1,"Left_lead","Male","Male",0,0.20485173500795,1.0084497985694,0.00844979856939809,4,0.812167812143628,2,1,"left"
"88","9_1",49,"9","Male",23,"Stim\r08y09g09b11.jpeg","Stim\r03y06g12b09.jpeg",8,3,9,6,9,12,11,9,3,1,0,0,0.99,1.346,1,"blå","9_11",-2,1,1,"Left_lead","Male","Male",0,0.152831801581093,0.806950116434716,-0.193049883565284,3,-0.66884408058887,1.5,0.5,"left"
"89","9_1",54,"9","Male",23,"Stim\r15y16g12b03.jpeg","Stim\r02y19g24b04.jpeg",15,2,16,19,12,24,3,4,-3,-1,0,0,1.417,1.41,1,"gul","9_11",3,0,0,"Left_lead","Male","Male",0,0.15881161028159,0.887938856755255,-0.112061143244745,3,-0.66884408058887,0.75,-0.25,"left"
"91","9_1",58,"9","Male",23,"Stim\r11y26g25b38.jpeg","Stim\r05y28g23b30.jpeg",11,5,26,28,25,23,38,30,-3,1,0,1,1.851,2.295,1,"gul","9_11",2,0,1,"Left_lead","Male","Male",1,0.17868351203751,0.988608215577899,-0.0113917844221005,3,-0.66884408058887,0.75,-0.25,"left"
"92","9_1",59,"9","Male",23,"Stim\r09y15g18b07.jpeg","Stim\r08y12g20b03.jpeg",9,8,15,12,18,20,7,3,-4,-1,1,1,1.379,1.562,1,"gul","9_11",-3,0,0,"Left_lead","Male","Male",0,0.18127027383338,0.988145557495821,-0.0118544425041792,4,0.812167812143628,2,1,"left"
"94","9_1",62,"9","Male",23,"Stim\r21y31g06b08.jpeg","Stim\r01y27g01b01.jpeg",21,1,31,27,6,1,8,1,-4,-1,1,1,2.077,2.793,1,"gul","9_11",-4,0,0,"Left_lead","Male","Male",0,0.222270475263997,1.12768392146309,0.127683921463094,4,0.812167812143628,1,0,"left"
"95","9_1",63,"9","Male",23,"Stim\r22y23g20b06.jpeg","Stim\r21y24g16b04.jpeg",22,21,23,24,20,16,6,4,-3,-1,0,0,1.632,1.272,1,"gul","9_11",1,0,0,"Left_lead","Male","Male",0,0.23421888704606,1.04856790697593,0.0485679069759288,3,-0.66884408058887,1.5,0.5,"left"
"103","12_2",11,"12","Female",24,"Stim\r21y01g04b27.jpeg","Stim\r18y13g28b06.jpeg",21,18,1,13,4,28,27,6,1,-1,0,1,1.925,1.975,2,"rød","12_11",-3,1,0,"Left_lead","Female","Male",1,0.200450371577511,1.01424773848072,0.0142477384807209,1,-0.640961115694596,0.25,-0.75,"left"
"105","12_2",18,"12","Female",24,"Stim\r14y12g04b29.jpeg","Stim\r17y20g40b07.jpeg",14,17,12,20,4,40,29,7,1,-1,1,0,1.894,1.566,2,"rød","12_11",3,1,0,"Left_lead","Female","Male",1,0.245623844794345,0.983884177157387,-0.0161158228426126,1,-0.640961115694596,0.25,-0.75,"left"
"107","12_2",21,"12","Female",24,"Stim\r17y22g16b15.jpeg","Stim\r13y21g23b09.jpeg",17,13,22,21,16,23,15,9,1,-1,0,1,1.435,1.53,2,"rød","12_11",-4,1,0,"Left_lead","Female","Male",1,0.24772111062814,1.0096425491931,0.00964254919309848,1,-0.640961115694596,0.25,-0.75,"left"
"111","12_2",29,"12","Female",24,"Stim\r07y06g08b05.jpeg","Stim\r18y13g28b06.jpeg",7,18,6,13,8,28,5,6,1,-1,1,0,1.567,1.963,2,"blå","12_11",1,1,0,"Left_lead","Female","Male",1,0.243574693977589,0.999517394366878,-0.000482605633121636,1,-0.640961115694596,0.25,-0.75,"left"
"114","12_2",35,"12","Female",24,"Stim\r11y13g22b35.jpeg","Stim\r21y03g15b37.jpeg",11,21,13,3,22,15,35,37,-1,1,0,1,1.622,1.614,2,"blå","12_11",2,0,1,"Left_lead","Female","Male",1,0.1943389312339,1.08609505024279,0.0860950502427908,1,-0.640961115694596,0.25,-0.75,"left"
"123","12_2",58,"12","Female",24,"Stim\r04y28g27b06.jpeg","Stim\r10y27g22b14.jpeg",4,10,28,27,27,22,6,14,-3,1,1,0,1.434,2.728,2,"gul","12_11",-1,0,1,"Left_lead","Female","Male",1,0.173449709597795,0.955845742255505,-0.0441542577444946,3,1.63801174010841,0.75,-0.25,"left"
"124","12_2",72,"12","Female",24,"Stim\r13y24g05b28.jpeg","Stim\r10y27g22b14.jpeg",13,10,24,27,5,22,28,14,-1,1,0,1,0.957,2.431,2,"gul","12_11",3,0,1,"Left_lead","Female","Male",1,0.215672510244505,1.01892341382084,0.0189234138208356,1,-0.640961115694596,0.25,-0.75,"left"
"127","12_2",76,"12","Female",24,"Stim\r20y04g39b23.jpeg","Stim\r17y20g40b07.jpeg",20,17,4,20,39,40,23,7,-2,1,0,1,0.88,2.295,2,"grøn","12_11",1,0,1,"Left_lead","Female","Male",1,0.206694794478185,0.99855580716877,-0.00144419283123032,2,0.498525312206908,0.5,-0.5,"left"
"128","12_2",78,"12","Female",24,"Stim\r04y28g27b06.jpeg","Stim\r09y06g26b32.jpeg",4,9,28,6,27,26,6,32,-2,1,1,0,1.783,1.71,2,"grøn","12_11",-1,0,1,"Left_lead","Female","Male",1,0.18859321066821,0.991472884369015,-0.00852711563098518,2,0.498525312206908,0.5,-0.5,"left"
"132","12_2",87,"12","Female",24,"Stim\r18y19g14b27.jpeg","Stim\r04y16g13b13.jpeg",18,4,19,16,14,13,27,13,2,1,0,0,1.37,4.438,2,"grøn","12_11",-1,1,1,"Left_lead","Female","Male",0,0.21290574356227,0.926067448876069,-0.0739325511239306,2,0.498525312206908,0.666666666666667,-0.333333333333333,"left"
"136","10_1",10,"10","Female",26,"Stim\r09y17g32b21.jpeg","Stim\r10y37g07b02.jpeg",9,10,17,37,32,7,21,2,2,-1,1,0,4.776,13.944,1,"rød","10_12",1,1,0,"Left_lead","Female","Female",1,0.22730332161373,0.999831526170943,-0.000168473829057381,2,-0.169106025888688,0.666666666666667,-0.333333333333333,"left"
"137","10_1",14,"10","Female",26,"Stim\r12y07g07b17.jpeg","Stim\r08y23g10b29.jpeg",12,8,7,23,7,10,17,29,2,1,0,0,1.295,3.564,1,"rød","10_12",-4,1,1,"Left_lead","Female","Female",0,0.219665132065155,1.01557082041577,0.015570820415769,2,-0.169106025888688,1,0,"left"
"138","10_1",15,"10","Female",26,"Stim\r22y35g09b11.jpeg","Stim\r21y03g15b37.jpeg",22,21,35,3,9,15,11,37,2,-1,0,1,1.439,2.497,1,"rød","10_12",-1,1,0,"Left_lead","Female","Female",1,0.2358109664365,1.04011110590012,0.0401111059001196,2,-0.169106025888688,0.5,-0.5,"left"
"142","10_1",31,"10","Female",26,"Stim\r17y20g40b07.jpeg","Stim\r21y24g16b04.jpeg",17,21,20,24,40,16,7,4,1,-1,0,1,2.064,3.281,1,"blå","10_12",-3,1,0,"Left_lead","Female","Female",1,0.2402016652078,1.07159751879852,0.0715975187985187,1,-1.11609977086534,0.5,-0.5,"left"
"143","10_1",33,"10","Female",26,"Stim\r04y16g13b13.jpeg","Stim\r14y10g15b15.jpeg",4,14,16,10,13,15,13,15,4,1,1,1,1.515,1.391,1,"blå","10_12",2,1,1,"Left_lead","Female","Female",0,0.223474098220866,1.0082537843697,0.00825378436970148,4,1.72488146406462,2,1,"left"
"144","10_1",36,"10","Female",26,"Stim\r21y24g16b04.jpeg","Stim\r09y02g05b02.jpeg",21,9,24,2,16,5,4,2,4,1,0,0,1.376,1.298,1,"blå","10_12",-2,1,1,"Left_lead","Female","Female",0,0.1647418479042,1.01856300563659,0.0185630056365891,4,1.72488146406462,4,3,"left"
"145","10_1",40,"10","Female",26,"Stim\r19y15g35b05.jpeg","Stim\r08y12g20b03.jpeg",19,8,15,12,35,20,5,3,1,-1,0,1,5.523,1.709,1,"blå","10_12",-2,1,0,"Left_lead","Female","Female",1,0.154944642152378,0.957524186029408,-0.042475813970592,1,-1.11609977086534,1,0,"left"
"146","10_1",42,"10","Female",26,"Stim\r04y28g27b06.jpeg","Stim\r10y03g03b07.jpeg",4,10,28,3,27,3,6,7,4,1,1,1,1.446,3.406,1,"blå","10_12",1,1,1,"Left_lead","Female","Female",0,0.15695988422013,0.904169465568533,-0.0958305344314675,4,1.72488146406462,4,3,"left"
"147","10_1",45,"10","Female",26,"Stim\r08y23g10b29.jpeg","Stim\r07y14g27b22.jpeg",8,7,23,14,10,27,29,22,3,-1,0,1,1.161,2.392,1,"blå","10_12",-7,1,0,"Left_lead","Female","Female",1,0.183591896264085,0.893431661555733,-0.106568338444267,3,0.777887719087967,1.5,0.5,"left"
"152","10_1",64,"10","Female",26,"Stim\r03y06g12b09.jpeg","Stim\r10y03g03b07.jpeg",3,10,6,3,12,3,9,7,2,-1,0,1,0.854,1.471,1,"gul","10_12",-3,1,0,"Left_lead","Female","Female",1,0.21389911035485,0.876817167806336,-0.123182832193664,2,-0.169106025888688,1,0,"left"
"153","10_1",67,"10","Female",26,"Stim\r06y19g29b08.jpeg","Stim\r14y20g16b10.jpeg",6,14,19,20,29,16,8,10,-1,1,0,1,1.934,2.474,1,"gul","10_12",1,0,1,"Left_lead","Female","Female",1,0.229391939963369,0.919599458638522,-0.0804005413614778,1,-1.11609977086534,0.5,-0.5,"left"
"155","10_1",73,"10","Female",26,"Stim\r22y02g34b05.jpeg","Stim\r10y03g03b07.jpeg",22,10,2,3,34,3,5,7,3,1,1,1,1.066,0.983,1,"gul","10_12",1,1,1,"Left_lead","Female","Female",0,0.210036206381183,1.01546215200347,0.0154621520034739,3,0.777887719087967,3,2,"left"
"156","10_1",80,"10","Female",26,"Stim\r11y26g25b38.jpeg","Stim\r11y13g22b35.jpeg",11,11,26,13,25,22,38,35,-2,1,1,0,0.873,2.12,1,"grøn","10_12",-3,0,1,"Left_lead","Female","Female",1,0.195972337031256,1.02127944455448,0.0212794445544771,2,-0.169106025888688,1,0,"left"
"158","10_1",85,"10","Female",26,"Stim\r21y24g16b04.jpeg","Stim\r15y16g12b03.jpeg",21,15,24,16,16,12,4,3,-1,1,1,0,0.991,1.275,1,"grøn","10_12",-4,0,1,"Left_lead","Female","Female",1,0.186046247733005,1.05384843783433,0.0538484378343334,1,-1.11609977086534,1,0,"left"
"160","10_1",93,"10","Female",26,"Stim\r14y08g21b39.jpeg","Stim\r03y06g12b09.jpeg",14,3,8,6,21,12,39,9,-1,1,1,0,0.926,5.309,1,"grøn","10_12",-9,0,1,"Left_lead","Female","Female",1,0.30002074331905,1.21239082750428,0.212390827504283,1,-1.11609977086534,1,0,"left"
"162","10_1",95,"10","Female",26,"Stim\r10y13g07b36.jpeg","Stim\r16y21g04b04.jpeg",10,16,13,21,7,4,36,4,-1,1,1,0,1.031,1.856,1,"grøn","10_12",-3,0,1,"Left_lead","Female","Female",1,0.304534459454791,1.13168593007485,0.131685930074847,1,-1.11609977086534,1,0,"left"
"163","13_1",18,"13","Male",23,"Stim\r18y13g28b06.jpeg","Stim\r12y07g16b25.jpeg",18,12,13,7,28,16,6,25,2,1,0,0,2.298,2.879,1,"rød","13_14",-6,1,1,"Left_lead","Male","Female",0,0.25378152270695,1.01727228237585,0.0172722823758493,2,0.174728902734291,1,0,"left"
"164","13_1",19,"13","Male",23,"Stim\r10y07g11b10.jpeg","Stim\r09y15g18b07.jpeg",10,9,7,15,11,18,10,7,-1,1,1,0,2.529,8.43,1,"rød","13_14",-1,0,1,"Left_lead","Male","Female",1,0.255532202763835,1.04674684656478,0.0467468465647753,1,-1.09205564208932,1,0,"left"
"168","13_1",26,"13","Male",23,"Stim\r04y28g27b06.jpeg","Stim\r10y27g22b14.jpeg",4,10,28,27,27,22,6,14,2,-1,1,0,1.258,4.536,1,"blå","13_14",8,1,0,"Left_lead","Male","Female",1,0.262600601139467,0.988603711018253,-0.0113962889817469,2,0.174728902734291,0.666666666666667,-0.333333333333333,"left"
"170","13_1",33,"13","Male",23,"Stim\r18y19g14b27.jpeg","Stim\r05y28g23b30.jpeg",18,5,19,28,14,23,27,30,2,-1,1,0,3.325,3.016,1,"blå","13_14",3,1,0,"Left_lead","Male","Female",1,0.20043911294902,0.907500505786039,-0.0924994942139614,2,0.174728902734291,2,1,"left"
"171","13_1",37,"13","Male",23,"Stim\r09y07g06b09.jpeg","Stim\r22y35g09b11.jpeg",9,22,7,35,6,9,9,11,-2,-1,0,0,1.871,2.843,1,"blå","13_14",2,0,0,"Left_lead","Male","Female",0,0.153182041517949,0.932531774304915,-0.0674682256950851,2,0.174728902734291,1,0,"left"
"172","13_1",39,"13","Male",23,"Stim\r12y09g30b18.jpeg","Stim\r09y17g32b21.jpeg",12,9,9,17,30,32,18,21,2,1,1,1,1.171,3.171,1,"blå","13_14",3,1,1,"Left_lead","Male","Female",0,0.143158131700781,0.927696464118854,-0.0723035358811464,2,0.174728902734291,1,0,"left"
"177","13_1",48,"13","Male",23,"Stim\r11y14g08b23.jpeg","Stim\r12y12g14b26.jpeg",11,12,14,12,8,14,23,26,3,1,1,1,5.236,4.186,1,"blå","13_14",3,1,1,"Left_lead","Male","Female",0,0.18703928541737,0.876010384205293,-0.123989615794707,3,1.4415134475579,1.5,0.5,"left"
"180","13_1",53,"13","Male",23,"Stim\r18y19g14b27.jpeg","Stim\r08y23g10b29.jpeg",18,8,19,23,14,10,27,29,-1,1,0,1,1.731,1.489,1,"gul","13_14",4,0,1,"Left_lead","Male","Female",1,0.183191743610785,0.955069333011001,-0.0449306669889985,1,-1.09205564208932,0.5,-0.5,"left"
"182","13_1",63,"13","Male",23,"Stim\r13y21g23b09.jpeg","Stim\r18y19g14b27.jpeg",13,18,21,19,23,14,9,27,-4,-1,1,1,1.667,1.729,1,"gul","13_14",-2,0,0,"Left_lead","Male","Female",0,0.243506759142025,1.04875756278394,0.0487575627839392,4,2.7082979923815,4,3,"left"
"183","13_1",66,"13","Male",23,"Stim\r09y07g06b09.jpeg","Stim\r07y14g27b22.jpeg",9,7,7,14,6,27,9,22,2,-1,1,0,2.58,2.195,1,"gul","13_14",7,1,0,"Left_lead","Male","Female",1,0.226842472932735,1.01492428084187,0.0149242808418693,2,0.174728902734291,1,0,"left"
"184","13_1",67,"13","Male",23,"Stim\r07y14g27b22.jpeg","Stim\r11y13g22b35.jpeg",7,11,14,13,27,22,22,35,-1,-1,1,1,1.127,1.243,1,"gul","13_14",-1,0,0,"Left_lead","Male","Female",0,0.248510488803805,0.993232384665761,-0.00676761533423931,1,-1.09205564208932,1,0,"left"
"187","13_1",70,"13","Male",23,"Stim\r21y03g15b37.jpeg","Stim\r03y11g01b26.jpeg",21,3,3,11,15,1,37,26,2,1,1,1,4.022,2.412,1,"gul","13_14",8,1,1,"Left_lead","Male","Female",0,0.212790196525405,0.956865693291513,-0.0431343067084874,2,0.174728902734291,2,1,"left"
"188","13_1",71,"13","Male",23,"Stim\r11y26g25b38.jpeg","Stim\r05y28g23b30.jpeg",11,5,26,28,25,23,38,30,-2,-1,0,0,1.303,1.113,1,"gul","13_14",2,0,0,"Left_lead","Male","Female",0,0.212472051743515,0.964245459733045,-0.0357545402669552,2,0.174728902734291,2,1,"left"
"193","13_2",14,"13","Male",23,"Stim\r18y19g14b27.jpeg","Stim\r10y03g03b07.jpeg",18,10,19,3,14,3,27,7,2,1,0,0,2.281,5.082,2,"rød","13_15",-8,1,1,"Left_lead","Male","Male",0,0.230976498229291,1.03489096317502,0.0348909631750181,2,-0.306476579428413,1,0,"left"
"194","13_2",18,"13","Male",23,"Stim\r12y12g14b26.jpeg","Stim\r08y12g20b03.jpeg",12,8,12,12,14,20,26,3,-2,1,1,0,2.349,1.034,2,"rød","13_15",-4,0,1,"Left_lead","Male","Male",1,0.268105820909757,1.06970065418475,0.0697006541847462,2,-0.306476579428413,0.666666666666667,-0.333333333333333,"left"
"197","13_2",28,"13","Male",23,"Stim\r20y14g02b19.jpeg","Stim\r14y10g15b15.jpeg",20,14,14,10,2,15,19,15,2,-1,0,1,1.05,1.782,2,"blå","13_15",-4,1,0,"Left_lead","Male","Male",1,0.250209770347388,1.01126266732495,0.0112626673249492,2,-0.306476579428413,1,0,"left"
"199","13_2",32,"13","Male",23,"Stim\r10y03g03b07.jpeg","Stim\r03y03g02b05.jpeg",10,3,3,3,3,2,7,5,2,-1,0,1,1.808,4.164,2,"blå","13_15",-2,1,0,"Left_lead","Male","Male",1,0.25567938654825,1.12385955532866,0.123859555328663,2,-0.306476579428413,1,0,"left"
"201","13_2",39,"13","Male",23,"Stim\r21y01g04b27.jpeg","Stim\r17y07g07b24.jpeg",21,17,1,7,4,7,27,24,-4,-1,1,1,1.68,1.655,2,"blå","13_15",-3,0,0,"Left_lead","Male","Male",0,0.149446171101653,0.993900714543894,-0.00609928545610583,4,2.0091242429196,2,1,"left"
"205","13_2",45,"13","Male",23,"Stim\r12y07g07b17.jpeg","Stim\r13y33g08b23.jpeg",12,13,7,33,7,8,17,23,2,-1,1,0,1.853,1.425,2,"blå","13_15",6,1,0,"Left_lead","Male","Male",1,0.162444299910205,0.817635798531675,-0.182364201468325,2,-0.306476579428413,0.666666666666667,-0.333333333333333,"left"
"206","13_2",46,"13","Male",23,"Stim\r16y09g06b10.jpeg","Stim\r06y36g16b14.jpeg",16,6,9,36,6,16,10,14,4,1,1,1,1.529,1.574,2,"blå","13_15",4,1,1,"Left_lead","Male","Male",0,0.1783140077395,0.871314899195056,-0.128685100804944,4,2.0091242429196,1.33333333333333,0.333333333333333,"left"
"207","13_2",49,"13","Male",23,"Stim\r12y09g30b18.jpeg","Stim\r12y07g07b17.jpeg",12,12,9,7,30,7,18,17,-1,1,1,0,2.475,1.122,2,"gul","13_15",-2,0,1,"Left_lead","Male","Male",1,0.1677730674637,0.886670687947556,-0.113329312052444,1,-1.46427699060242,0.5,-0.5,"left"
"212","13_2",67,"13","Male",23,"Stim\r07y02g03b06.jpeg","Stim\r21y01g04b27.jpeg",7,21,2,1,3,4,6,27,2,-1,0,1,3.598,1.773,2,"gul","13_15",-1,1,0,"Left_lead","Male","Male",1,0.26828948586941,1.09085551089779,0.0908555108977938,2,-0.306476579428413,2,1,"left"
"213","13_2",72,"13","Male",23,"Stim\r22y35g09b11.jpeg","Stim\r04y39g24b15.jpeg",22,4,35,39,9,24,11,15,-3,-1,0,0,1.343,1.297,2,"gul","13_15",4,0,0,"Left_lead","Male","Male",0,0.218595810608335,1.03188583214036,0.0318858321403552,3,0.851323831745592,1.5,0.5,"left"
"214","13_2",73,"13","Male",23,"Stim\r14y12g04b29.jpeg","Stim\r01y27g01b01.jpeg",14,1,12,27,4,1,29,1,1,-1,0,1,1.815,1.08,2,"grøn","13_15",-3,1,0,"Left_lead","Male","Male",1,0.21091583271563,1.01694982679834,0.0169498267983437,1,-1.46427699060242,0.333333333333333,-0.666666666666667,"left"
"217","13_2",77,"13","Male",23,"Stim\r04y28g27b06.jpeg","Stim\r09y15g18b07.jpeg",4,9,28,15,27,18,6,7,3,-1,0,1,2.501,4.585,2,"grøn","13_15",-9,1,0,"Left_lead","Male","Male",1,0.193979943010465,1.01946193412906,0.0194619341290583,3,0.851323831745592,1,0,"left"
"218","13_2",78,"13","Male",23,"Stim\r06y14g31b25.jpeg","Stim\r02y19g24b04.jpeg",6,2,14,19,31,24,25,4,-2,1,1,0,1.118,2.081,2,"grøn","13_15",-7,0,1,"Left_lead","Male","Male",1,0.194567589896607,1.0232261020767,0.0232261020767033,2,-0.306476579428413,1,0,"left"
"219","13_2",79,"13","Male",23,"Stim\r17y07g07b24.jpeg","Stim\r03y11g01b26.jpeg",17,3,7,11,7,1,24,26,-2,-1,1,1,1.126,2.503,2,"grøn","13_15",-6,0,0,"Left_lead","Male","Male",0,0.195337212792,1.02413566554061,0.02413566554061,2,-0.306476579428413,2,1,"left"
"221","13_2",83,"13","Male",23,"Stim\r22y35g09b11.jpeg","Stim\r08y23g10b29.jpeg",22,8,35,23,9,10,11,29,2,-1,1,0,2.074,1.283,2,"grøn","13_15",1,1,0,"Left_lead","Male","Male",1,0.184802137161496,1.00492053581267,0.00492053581267227,2,-0.306476579428413,0.666666666666667,-0.333333333333333,"left"
"223","13_2",92,"13","Male",23,"Stim\r04y39g24b15.jpeg","Stim\r10y27g22b14.jpeg",4,10,39,27,24,22,15,14,-2,1,1,0,2.124,1.206,2,"grøn","13_15",-2,0,1,"Left_lead","Male","Male",1,0.25124578367162,1.0172876296894,0.0172876296893958,2,-0.306476579428413,0.666666666666667,-0.333333333333333,"left"
"226","15_1",12,"15","Male",20,"Stim\r15y05g12b10.jpeg","Stim\r13y33g08b23.jpeg",15,13,5,33,12,8,10,23,3,1,0,0,2.038,3.075,1,"rød","15_16",-2,1,1,"Left_lead","Male","Female",0,0.20524012289859,1.00536685357683,0.0053668535768332,3,0.695968773397057,1,0,"left"
"230","15_1",17,"15","Male",20,"Stim\r17y20g40b07.jpeg","Stim\r14y20g16b10.jpeg",17,14,20,20,40,16,7,10,-2,1,1,0,2.774,1.804,1,"rød","15_16",-3,0,1,"Left_lead","Male","Female",1,0.25500096926113,1.04344488700447,0.0434448870044695,2,-0.586078967071206,0.5,-0.5,"left"
"231","15_1",18,"15","Male",20,"Stim\r08y23g10b29.jpeg","Stim\r11y26g25b38.jpeg",8,11,23,26,10,25,29,38,-2,-1,0,0,3.816,1.897,1,"rød","15_16",3,0,0,"Left_lead","Male","Female",0,0.265890172318105,1.06436267302424,0.0643626730242419,2,-0.586078967071206,1,0,"left"
"233","15_1",23,"15","Male",20,"Stim\r05y28g23b30.jpeg","Stim\r04y39g24b15.jpeg",5,4,28,39,23,24,30,15,-2,-1,1,1,2.831,6.564,1,"rød","15_16",-1,0,0,"Left_lead","Male","Female",0,0.263366128061393,1.02782969184108,0.027829691841079,2,-0.586078967071206,1,0,"left"
"236","15_1",30,"15","Male",20,"Stim\r06y14g31b25.jpeg","Stim\r20y04g39b23.jpeg",6,20,14,4,31,39,25,23,3,1,0,0,1.437,1.698,1,"blå","15_16",-2,1,1,"Left_lead","Male","Female",0,0.2604592615045,1.08861872702468,0.0886187270246837,3,0.695968773397057,0.75,-0.25,"left"
"237","15_1",32,"15","Male",20,"Stim\r17y07g07b24.jpeg","Stim\r03y11g01b26.jpeg",17,3,7,11,7,1,24,26,-3,1,0,1,2.084,3.35,1,"blå","15_16",2,0,1,"Left_lead","Male","Female",1,0.27834416389658,1.20432483240522,0.204324832405219,3,0.695968773397057,0.75,-0.25,"left"
"238","15_1",35,"15","Male",20,"Stim\r06y36g16b14.jpeg","Stim\r05y40g33b16.jpeg",6,5,36,40,16,33,14,16,4,1,1,1,1.858,2.275,1,"blå","15_16",2,1,1,"Left_lead","Male","Female",0,0.207837197000715,1.14675011751116,0.146750117511159,4,1.97801651386532,1,0,"left"
"241","15_1",39,"15","Male",20,"Stim\r06y19g29b08.jpeg","Stim\r10y02g36b05.jpeg",6,10,19,2,29,36,8,5,-1,1,1,0,2.299,2.182,1,"blå","15_16",-3,0,1,"Left_lead","Male","Female",1,0.15497990178631,1.01457193578776,0.0145719357877616,1,-1.86812670753947,0.25,-0.75,"left"
"243","15_1",48,"15","Male",20,"Stim\r17y20g40b07.jpeg","Stim\r05y40g33b16.jpeg",17,5,20,40,40,33,7,16,2,1,1,1,2.028,2.831,1,"blå","15_16",9,1,1,"Left_lead","Male","Female",0,0.1961039473321,0.948419191692541,-0.0515808083074589,2,-0.586078967071206,1,0,"left"
"244","15_1",49,"15","Male",20,"Stim\r10y13g07b36.jpeg","Stim\r21y03g15b37.jpeg",10,21,13,3,7,15,36,37,-3,1,0,1,1.781,1.639,1,"blå","15_16",1,0,1,"Left_lead","Male","Female",1,0.1924545599725,0.962499003933416,-0.0375009960665837,3,0.695968773397057,0.75,-0.25,"left"
"248","15_1",63,"15","Male",20,"Stim\r11y10g06b19.jpeg","Stim\r12y07g07b17.jpeg",11,12,10,7,6,7,19,17,2,-1,0,1,2.581,3.593,1,"gul","15_16",-3,1,0,"Left_lead","Male","Female",1,0.253624347574015,1.08202497462162,0.0820249746216151,2,-0.586078967071206,0.5,-0.5,"left"
"256","15_1",80,"15","Male",20,"Stim\r04y39g24b15.jpeg","Stim\r21y03g15b37.jpeg",4,21,39,3,24,15,15,37,2,-1,0,1,1.604,1.796,1,"grøn","15_16",-9,1,0,"Left_lead","Male","Female",1,0.173247445653355,0.901712209368229,-0.0982877906317711,2,-0.586078967071206,0.5,-0.5,"left"
"258","15_1",85,"15","Male",20,"Stim\r08y23g10b29.jpeg","Stim\r10y13g07b36.jpeg",8,10,23,13,10,7,29,36,-1,1,1,0,1.666,1.311,1,"grøn","15_16",-3,0,1,"Left_lead","Male","Female",1,0.16922294901451,0.946153613499553,-0.0538463865004474,1,-1.86812670753947,0.333333333333333,-0.666666666666667,"left"
"261","14_2",10,"14","Female",25,"Stim\r12y07g16b25.jpeg","Stim\r14y20g16b10.jpeg",12,14,7,20,16,16,25,10,2,1,1,1,1.182,1.708,2,"rød","14_16",2,1,1,"Left_lead","Female","Female",0,0.23012345393064,1.01285806779671,0.012858067796707,2,0,1,0,"left"
"263","14_2",18,"14","Female",25,"Stim\r14y10g15b15.jpeg","Stim\r15y05g12b10.jpeg",14,15,10,5,15,12,15,10,-2,1,0,1,1.13,1.264,2,"rød","14_16",1,0,1,"Left_lead","Female","Female",1,0.266871762494315,1.06232695351757,0.0623269535175701,2,0,0.5,-0.5,"left"
"266","14_2",24,"14","Female",25,"Stim\r22y02g34b05.jpeg","Stim\r19y10g06b15.jpeg",22,19,2,10,34,6,5,15,-1,1,1,0,3.105,1.556,2,"rød","14_16",-3,0,1,"Left_lead","Female","Female",1,0.2732642374567,1.0495252730178,0.0495252730177962,1,-1.33333333333333,0.25,-0.75,"left"
"269","14_2",31,"14","Female",25,"Stim\r06y19g29b08.jpeg","Stim\r18y13g28b06.jpeg",6,18,19,13,29,28,8,6,-1,1,1,0,3.342,2.048,2,"blå","14_16",-2,0,1,"Left_lead","Female","Female",1,0.225073642902915,1.0145915202639,0.0145915202638978,1,-1.33333333333333,1,0,"left"
"271","14_2",33,"14","Female",25,"Stim\r04y39g24b15.jpeg","Stim\r12y07g07b17.jpeg",4,12,39,7,24,7,15,17,-2,-1,0,0,1.144,1.944,2,"blå","14_16",2,0,0,"Left_lead","Female","Female",0,0.221919806026043,1.01196558495749,0.0119655849574904,2,0,2,1,"left"
"272","14_2",34,"14","Female",25,"Stim\r16y09g06b10.jpeg","Stim\r02y10g14b11.jpeg",16,2,9,10,6,14,10,11,2,-1,1,0,1.045,1.397,2,"blå","14_16",1,1,0,"Left_lead","Female","Female",1,0.21093585203435,1.03917652136211,0.0391765213621051,2,0,0.5,-0.5,"left"
"274","14_2",43,"14","Female",25,"Stim\r17y20g40b07.jpeg","Stim\r21y24g16b04.jpeg",17,21,20,24,40,16,7,4,-1,1,1,0,2.155,1.55,2,"blå","14_16",-3,0,1,"Left_lead","Female","Female",1,0.19747624272085,1.19772760941291,0.197727609412911,1,-1.33333333333333,0.25,-0.75,"left"
"276","14_2",45,"14","Female",25,"Stim\r09y07g06b09.jpeg","Stim\r04y28g27b06.jpeg",9,4,7,28,6,27,9,6,2,-1,0,1,0.974,1.291,2,"blå","14_16",-3,1,0,"Left_lead","Female","Female",1,0.225763475050025,1.19693399587488,0.196933995874883,2,0,0.5,-0.5,"left"
"277","14_2",46,"14","Female",25,"Stim\r11y13g22b35.jpeg","Stim\r14y08g21b39.jpeg",11,14,13,8,22,21,35,39,2,-1,1,0,1.673,1.057,2,"blå","14_16",4,1,0,"Left_lead","Female","Female",1,0.22791022438535,1.13489674215134,0.134896742151343,2,0,0.5,-0.5,"left"
"279","14_2",52,"14","Female",25,"Stim\r15y05g12b10.jpeg","Stim\r12y07g07b17.jpeg",15,12,5,7,12,7,10,17,-2,1,0,1,1.453,1.231,2,"gul","14_16",2,0,1,"Left_lead","Female","Female",1,0.202050073806955,1.24633997023019,0.24633997023019,2,0,0.5,-0.5,"left"
"280","14_2",53,"14","Female",25,"Stim\r14y10g15b15.jpeg","Stim\r08y09g09b11.jpeg",14,8,10,9,15,9,15,11,-2,-1,1,1,1.584,1.76,2,"gul","14_16",-1,0,0,"Left_lead","Female","Female",0,0.201025822681436,1.18004206339198,0.180042063391976,2,0,1,0,"left"
"281","14_2",57,"14","Female",25,"Stim\r20y14g02b19.jpeg","Stim\r02y10g14b11.jpeg",20,2,14,10,2,14,19,11,-1,1,1,0,1.582,2.166,2,"gul","14_16",-4,0,1,"Left_lead","Female","Female",1,0.191226034987871,1.13224748072684,0.132247480726839,1,-1.33333333333333,0.5,-0.5,"left"
"285","14_2",69,"14","Female",25,"Stim\r10y27g22b14.jpeg","Stim\r11y26g25b38.jpeg",10,11,27,26,22,25,14,38,-3,1,1,0,1.011,1.715,2,"gul","14_16",-1,0,1,"Left_lead","Female","Female",1,0.25471070935375,1.11278348410141,0.112783484101408,3,1.33333333333333,0.75,-0.25,"left"
"286","14_2",74,"14","Female",25,"Stim\r10y13g07b36.jpeg","Stim\r08y23g10b29.jpeg",10,8,13,23,7,10,36,29,2,-1,1,0,2.951,1.3,2,"grøn","14_16",3,1,0,"Left_lead","Female","Female",1,0.204311543975657,1.01277251729629,0.0127725172962858,2,0,2,1,"left"
"289","14_2",83,"14","Female",25,"Stim\r12y07g16b25.jpeg","Stim\r02y10g14b11.jpeg",12,2,7,10,16,14,25,11,-4,-1,1,1,1.805,1.516,2,"grøn","14_16",-2,0,0,"Left_lead","Female","Female",0,0.167654996329655,0.868636206532856,-0.131363793467144,4,2.66666666666667,4,3,"left"
"293","14_2",95,"14","Female",25,"Stim\r09y07g06b09.jpeg","Stim\r08y23g10b29.jpeg",9,8,7,23,6,10,9,29,-1,1,0,1,2.323,2.012,2,"grøn","14_16",4,0,1,"Left_lead","Female","Female",1,0.28612365656135,1.05765216348914,0.0576521634891429,1,-1.33333333333333,1,0,"left"
"297","19_1",19,"19","Male",20,"Stim\r03y06g12b09.jpeg","Stim\r06y19g29b08.jpeg",3,6,6,19,12,29,9,8,1,1,1,1,1.771,3.078,1,"rød","19_17",3,1,1,"Left_lead","Male","Male",0,0.2491274351349,1.03873989122934,0.0387398912293426,1,-1.0965785298143,1,0,"left"
"299","19_1",21,"19","Male",20,"Stim\r11y13g22b35.jpeg","Stim\r15y16g12b03.jpeg",11,15,13,16,22,12,35,3,3,-1,1,0,2.315,1.849,1,"rød","19_17",4,1,0,"Left_lead","Male","Male",1,0.24293186328807,0.997479563852636,-0.00252043614736375,3,0.647978222162995,0.75,-0.25,"left"
"303","19_1",26,"19","Male",20,"Stim\r12y07g16b25.jpeg","Stim\r12y12g14b26.jpeg",12,12,7,12,16,14,25,26,4,1,1,1,1.537,1.662,1,"blå","19_17",1,1,1,"Left_lead","Male","Male",0,0.253769805837985,0.958404930521742,-0.0415950694782576,4,1.52025659815164,2,1,"left"
"307","19_1",34,"19","Male",20,"Stim\r21y24g16b04.jpeg","Stim\r04y28g27b06.jpeg",21,4,24,28,16,27,4,6,1,-1,1,0,3.169,1.658,1,"blå","19_17",2,1,0,"Left_lead","Male","Male",1,0.210747973102655,1.04111671884358,0.0411167188435808,1,-1.0965785298143,0.5,-0.5,"left"
"309","19_1",38,"19","Male",20,"Stim\r17y11g38b07.jpeg","Stim\r02y10g14b11.jpeg",17,2,11,10,38,14,7,11,4,1,1,1,2.294,1.303,1,"blå","19_17",4,1,1,"Left_lead","Male","Male",0,0.151247006822434,1.00915930697918,0.00915930697918199,4,1.52025659815164,2,1,"left"
"311","19_1",40,"19","Male",20,"Stim\r12y07g07b17.jpeg","Stim\r11y10g06b19.jpeg",12,11,7,10,7,6,17,19,2,-1,1,0,1.963,2.284,1,"blå","19_17",2,1,0,"Left_lead","Male","Male",1,0.149286430908143,0.921540929188247,-0.0784590708117534,2,-0.224300153825652,1,0,"left"
"312","19_1",52,"19","Male",20,"Stim\r13y33g08b23.jpeg","Stim\r22y35g09b11.jpeg",13,22,33,35,8,9,23,11,2,1,1,1,1.249,4.45,1,"gul","19_17",2,1,1,"Left_lead","Male","Male",0,0.18437859751175,1.0244051397681,0.0244051397681022,2,-0.224300153825652,1,0,"left"
"313","19_1",53,"19","Male",20,"Stim\r04y28g27b06.jpeg","Stim\r11y26g25b38.jpeg",4,11,28,26,27,25,6,38,2,1,0,0,1.621,1.449,1,"gul","19_17",-2,1,1,"Left_lead","Male","Male",0,0.185394663575365,0.987333216976895,-0.0126667830231053,2,-0.224300153825652,1,0,"left"
"315","19_1",58,"19","Male",20,"Stim\r05y28g23b30.jpeg","Stim\r16y21g04b04.jpeg",5,16,28,21,23,4,30,4,1,-1,0,1,1.718,1.552,1,"gul","19_17",-7,1,0,"Left_lead","Male","Male",1,0.184822179521125,1.01970213961874,0.0197021396187425,1,-1.0965785298143,0.25,-0.75,"left"
"316","19_1",59,"19","Male",20,"Stim\r17y20g40b07.jpeg","Stim\r09y17g32b21.jpeg",17,9,20,17,40,32,7,21,1,-1,0,1,1.237,1.751,1,"gul","19_17",-3,1,0,"Left_lead","Male","Male",1,0.188799545195421,1.01695691520114,0.0169569152011422,1,-1.0965785298143,0.25,-0.75,"left"
"319","19_1",64,"19","Male",20,"Stim\r12y12g14b26.jpeg","Stim\r18y13g28b06.jpeg",12,18,12,13,14,28,26,6,1,-1,1,0,1.912,2.16,1,"gul","19_17",1,1,0,"Left_lead","Male","Male",1,0.2677297672022,1.07351546796944,0.0735154679694445,1,-1.0965785298143,0.333333333333333,-0.666666666666667,"left"
"326","19_1",81,"19","Male",20,"Stim\r06y36g16b14.jpeg","Stim\r22y23g20b06.jpeg",6,22,36,23,16,20,14,6,-2,-1,0,0,1.264,3.866,1,"grøn","19_17",4,0,0,"Left_lead","Male","Male",0,0.202637600974279,1.0273464115067,0.0273464115066997,2,-0.224300153825652,1,0,"left"
"331","20_2",16,"20","Female",21,"Stim\r15y17g24b30.jpeg","Stim\r17y12g19b18.jpeg",15,17,17,12,24,19,30,18,-2,1,0,1,2.05,2.472,2,"rød","20_17",2,0,1,"Left_lead","Female","Male",1,0.215251875850543,0.944501208401173,-0.0554987915988271,2,-0.0570372970367047,1,0,"left"
"332","20_2",17,"20","Female",21,"Stim\r22y02g34b05.jpeg","Stim\r21y24g16b04.jpeg",22,21,2,24,34,16,5,4,2,-1,0,1,1.262,2.073,2,"rød","20_17",-1,1,0,"Left_lead","Female","Male",1,0.223501214796235,0.9150623720533,-0.0849376279467005,2,-0.0570372970367047,0.5,-0.5,"left"
"333","20_2",21,"20","Female",21,"Stim\r21y03g15b37.jpeg","Stim\r22y02g34b05.jpeg",21,22,3,2,15,34,37,5,-2,1,0,1,1.406,1.357,2,"rød","20_17",1,0,1,"Left_lead","Female","Male",1,0.235620549564305,0.956590592485469,-0.0434094075145315,2,-0.0570372970367047,0.5,-0.5,"left"
"334","20_2",29,"20","Female",21,"Stim\r04y39g24b15.jpeg","Stim\r12y09g30b18.jpeg",4,12,39,9,24,30,15,18,2,-1,1,0,1.568,0.945,2,"blå","20_17",3,1,0,"Left_lead","Female","Male",1,0.245305155484024,1.01480949100836,0.0148094910083638,2,-0.0570372970367047,0.666666666666667,-0.333333333333333,"left"
"338","20_2",39,"20","Female",21,"Stim\r21y01g04b27.jpeg","Stim\r14y12g04b29.jpeg",21,14,1,12,4,4,27,29,3,-1,1,0,2.018,1.862,2,"blå","20_17",2,1,0,"Left_lead","Female","Male",1,0.15274112608192,1.00391264327982,0.00391264327981578,3,1.48296972295432,0.75,-0.25,"left"
"340","20_2",45,"20","Female",21,"Stim\r02y10g14b11.jpeg","Stim\r21y31g06b08.jpeg",2,21,10,31,14,6,11,8,-2,1,1,0,1.27,1.361,2,"blå","20_17",-3,0,1,"Left_lead","Female","Male",1,0.2136241044362,1.12745691767717,0.127456917677174,2,-0.0570372970367047,1,0,"left"
"341","20_2",46,"20","Female",21,"Stim\r05y28g23b30.jpeg","Stim\r14y12g04b29.jpeg",5,14,28,12,23,4,30,29,3,1,0,0,1.269,1.846,2,"blå","20_17",-1,1,1,"Left_lead","Female","Male",0,0.22305824873782,1.11523855250196,0.115238552501963,3,1.48296972295432,1.5,0.5,"left"
"345","20_2",52,"20","Female",21,"Stim\r10y13g07b36.jpeg","Stim\r17y22g16b15.jpeg",10,17,13,22,7,16,36,15,-2,1,0,1,1.168,2.447,2,"gul","20_17",9,0,1,"Left_lead","Female","Male",1,0.17567583834096,1.00795194564427,0.00795194564427115,2,-0.0570372970367047,1,0,"left"
"346","20_2",54,"20","Female",21,"Stim\r14y10g15b15.jpeg","Stim\r11y14g08b23.jpeg",14,11,10,14,15,8,15,23,-2,1,0,1,1.48,1.459,2,"gul","20_17",4,0,1,"Left_lead","Female","Male",1,0.173298077780835,0.987260447830092,-0.0127395521699079,2,-0.0570372970367047,0.5,-0.5,"left"
"347","20_2",59,"20","Female",21,"Stim\r09y15g18b07.jpeg","Stim\r12y12g14b26.jpeg",9,12,15,12,18,14,7,26,3,-1,0,1,1.711,2.298,2,"gul","20_17",-3,1,0,"Left_lead","Female","Male",1,0.188023761990077,1.0111267838404,0.0111267838403957,3,1.48296972295432,0.75,-0.25,"left"
"349","20_2",69,"20","Female",21,"Stim\r09y06g26b32.jpeg","Stim\r12y09g30b18.jpeg",9,12,6,9,26,30,32,18,-1,1,0,1,2.205,1.143,2,"gul","20_17",3,0,1,"Left_lead","Female","Male",1,0.2383229558312,1.06058966888072,0.0605896688807195,1,-1.59704431702772,0.25,-0.75,"left"
"351","20_2",72,"20","Female",21,"Stim\r06y36g16b14.jpeg","Stim\r04y39g24b15.jpeg",6,4,36,39,16,24,14,15,-2,1,0,1,1.309,1.33,2,"gul","20_17",3,0,1,"Left_lead","Female","Male",1,0.20620869959192,0.970412879556003,-0.0295871204439971,2,-0.0570372970367047,0.5,-0.5,"left"
"352","20_2",74,"20","Female",21,"Stim\r18y19g14b27.jpeg","Stim\r14y10g15b15.jpeg",18,14,19,10,14,15,27,15,-2,1,0,1,2.614,1.2,2,"grøn","20_17",1,0,1,"Left_lead","Female","Male",1,0.198425195034551,0.984640348664429,-0.0153596513355714,2,-0.0570372970367047,0.5,-0.5,"left"
"356","20_1",10,"20","Female",21,"Stim\r12y07g16b25.jpeg","Stim\r11y13g22b35.jpeg",12,11,7,13,16,22,25,35,-2,-1,1,1,2.504,5.399,1,"rød","20_18",-1,0,0,"Left_lead","Female","Female",0,0.231916305888385,1.02216207246792,0.0221620724679199,2,0,1,0,"left"
"357","20_1",13,"20","Female",21,"Stim\r12y12g14b26.jpeg","Stim\r03y06g12b09.jpeg",12,3,12,6,14,12,26,9,-1,1,1,0,2.565,3.64,1,"rød","20_18",-9,0,1,"Left_lead","Female","Female",1,0.219888864745169,1.05965979538697,0.059659795386972,1,-1.41421356237309,1,0,"left"
"358","20_1",16,"20","Female",21,"Stim\r10y03g03b07.jpeg","Stim\r11y26g25b38.jpeg",10,11,3,26,3,25,7,38,-2,-1,0,0,2.002,3.982,1,"rød","20_18",1,0,0,"Left_lead","Female","Female",0,0.240847207764605,1.0488214727267,0.0488214727266951,2,0,1,0,"left"
"359","20_1",18,"20","Female",21,"Stim\r04y28g27b06.jpeg","Stim\r03y06g12b09.jpeg",4,3,28,6,27,12,6,9,-1,1,1,0,2.86,2.363,1,"rød","20_18",-1,0,1,"Left_lead","Female","Female",1,0.250040152014065,0.993141140116477,-0.00685885988352342,1,-1.41421356237309,0.5,-0.5,"left"
"362","20_1",23,"20","Female",21,"Stim\r10y13g07b36.jpeg","Stim\r14y10g15b15.jpeg",10,14,13,10,7,15,36,15,2,1,1,1,1.535,3.823,1,"rød","20_18",4,1,1,"Left_lead","Female","Female",0,0.25223682811091,0.982579400563802,-0.0174205994361982,2,0,1,0,"left"
"363","20_1",24,"20","Female",21,"Stim\r03y11g01b26.jpeg","Stim\r05y40g33b16.jpeg",3,5,11,40,1,33,26,16,-1,1,0,1,1.844,1.694,1,"rød","20_18",2,0,1,"Left_lead","Female","Female",1,0.254294828548845,0.970930927407762,-0.0290690725922381,1,-1.41421356237309,0.5,-0.5,"left"
"364","20_1",25,"20","Female",21,"Stim\r05y28g23b30.jpeg","Stim\r04y28g27b06.jpeg",5,4,28,28,23,27,30,6,-1,1,1,0,1.34,1.485,1,"rød","20_18",-1,0,1,"Left_lead","Female","Female",1,0.264457650557853,0.982643325517116,-0.0173566744828845,1,-1.41421356237309,0.333333333333333,-0.666666666666667,"left"
"372","20_1",51,"20","Female",21,"Stim\r10y13g07b36.jpeg","Stim\r14y12g04b29.jpeg",10,14,13,12,7,4,36,29,-3,-1,1,1,1.413,2.185,1,"gul","20_18",-1,0,0,"Left_lead","Female","Female",0,0.21511667648179,1.13378885355097,0.133788853550973,3,1.41421356237309,1.5,0.5,"left"
"378","20_1",72,"20","Female",21,"Stim\r14y12g04b29.jpeg","Stim\r03y11g01b26.jpeg",14,3,12,11,4,1,29,26,3,1,0,0,1.214,3.688,1,"gul","20_18",-1,1,1,"Left_lead","Female","Female",0,0.21924022773103,1.03324036555149,0.0332403655514921,3,1.41421356237309,1.5,0.5,"left"
"379","20_1",78,"20","Female",21,"Stim\r09y15g18b07.jpeg","Stim\r21y03g15b37.jpeg",9,21,15,3,18,15,7,37,2,1,0,0,1.415,2.541,1,"grøn","20_18",-3,1,1,"Left_lead","Female","Female",0,0.194020201465521,1.02710920608902,0.0271092060890203,2,0,1,0,"left"
"380","20_1",79,"20","Female",21,"Stim\r17y11g38b07.jpeg","Stim\r20y04g39b23.jpeg",17,20,11,4,38,39,7,23,-2,1,0,1,2.6,2.02,1,"grøn","20_18",1,0,1,"Left_lead","Female","Female",1,0.191358577138165,1.00778113178081,0.00778113178080786,2,0,0.666666666666667,-0.333333333333333,"left"
"382","20_1",87,"20","Female",21,"Stim\r21y03g15b37.jpeg","Stim\r14y20g16b10.jpeg",21,14,3,20,15,16,37,10,3,1,1,1,1.458,3.551,1,"grøn","20_18",1,1,1,"Left_lead","Female","Female",0,0.230701688707865,0.995446189260576,-0.00455381073942362,3,1.41421356237309,1.5,0.5,"left"
"383","20_1",92,"20","Female",21,"Stim\r13y24g05b28.jpeg","Stim\r15y05g12b10.jpeg",13,15,24,5,5,12,28,10,-2,1,0,1,1.867,1.31,1,"grøn","20_18",7,0,1,"Left_lead","Female","Female",1,0.25885453847935,1.03806857859111,0.0380685785911137,2,0,0.5,-0.5,"left"
"386","19_2",10,"19","Male",20,"Stim\r08y09g09b11.jpeg","Stim\r09y15g18b07.jpeg",8,9,9,15,9,18,11,7,2,1,1,1,1.175,1.527,2,"rød","19_18",1,1,1,"Left_lead","Male","Female",0,0.231740241164847,1.02282534594693,0.0228253459469303,2,-0.556825934121593,1,0,"left"
"387","19_2",11,"19","Male",20,"Stim\r07y02g03b06.jpeg","Stim\r05y40g33b16.jpeg",7,5,2,40,3,33,6,16,-2,1,1,0,1.527,2.144,2,"rød","19_18",-2,0,1,"Left_lead","Male","Female",1,0.204890520547756,1.03510399568203,0.0351039956820292,2,-0.556825934121593,1,0,"left"
"391","19_2",23,"19","Male",20,"Stim\r09y02g05b02.jpeg","Stim\r07y02g03b06.jpeg",9,7,2,2,5,3,2,6,3,-1,0,1,1.299,2.16,2,"rød","19_18",-2,1,0,"Left_lead","Male","Female",1,0.26000809137136,1.00882274958895,0.0088227495889468,3,0.631069392004472,0.75,-0.25,"left"
"392","19_2",27,"19","Male",20,"Stim\r21y24g16b04.jpeg","Stim\r06y19g29b08.jpeg",21,6,24,19,16,29,4,8,-2,1,0,1,1.732,2.32,2,"blå","19_18",4,0,1,"Left_lead","Male","Female",1,0.257738282189515,1.01381382741414,0.0138138274141433,2,-0.556825934121593,1,0,"left"
"393","19_2",28,"19","Male",20,"Stim\r21y01g04b27.jpeg","Stim\r17y07g07b24.jpeg",21,17,1,7,4,7,27,24,4,-1,0,1,1.324,2.738,2,"blå","19_18",-3,1,0,"Left_lead","Male","Female",1,0.249272833727475,0.993211386164133,-0.00678861383586737,4,1.81896471813054,1,0,"left"
"395","19_2",37,"19","Male",20,"Stim\r10y07g11b10.jpeg","Stim\r05y40g33b16.jpeg",10,5,7,40,11,33,10,16,3,-1,1,0,0.999,2.095,2,"blå","19_18",6,1,0,"Left_lead","Male","Female",1,0.145372607975953,0.884429262309682,-0.115570737690318,3,0.631069392004472,1,0,"left"
"398","19_2",40,"19","Male",20,"Stim\r11y10g06b19.jpeg","Stim\r17y22g16b15.jpeg",11,17,10,22,6,16,19,15,2,-1,0,1,0.878,1.451,2,"blå","19_18",-4,1,0,"Left_lead","Male","Female",1,0.15487599672317,0.962455481988748,-0.0375445180112525,2,-0.556825934121593,0.5,-0.5,"left"
"399","19_2",41,"19","Male",20,"Stim\r10y13g07b36.jpeg","Stim\r05y09g02b34.jpeg",10,5,13,9,7,2,36,34,4,-1,0,1,2.057,1.646,2,"blå","19_18",-2,1,0,"Left_lead","Male","Female",1,0.155951451378938,0.937266198526226,-0.0627338014737743,4,1.81896471813054,1,0,"left"
"400","19_2",47,"19","Male",20,"Stim\r12y12g14b26.jpeg","Stim\r13y24g05b28.jpeg",12,13,12,24,14,5,26,28,2,-1,1,0,1.842,1.07,2,"blå","19_18",2,1,0,"Left_lead","Male","Female",1,0.22182602275015,1.06751657697732,0.0675165769773152,2,-0.556825934121593,0.5,-0.5,"left"
"402","19_2",53,"19","Male",20,"Stim\r04y28g27b06.jpeg","Stim\r10y27g22b14.jpeg",4,10,28,27,27,22,6,14,2,-1,0,1,1.179,1.066,2,"gul","19_18",-1,1,0,"Left_lead","Male","Female",1,0.2044845968363,1.0484228928758,0.048422892875797,2,-0.556825934121593,0.666666666666667,-0.333333333333333,"left"
"409","19_2",78,"19","Male",20,"Stim\r16y09g06b10.jpeg","Stim\r10y03g03b07.jpeg",16,10,9,3,6,3,10,7,2,-1,0,1,0.847,2.744,2,"grøn","19_18",-3,1,0,"Left_lead","Male","Female",1,0.200099797587635,1.0613194729909,0.0613194729908983,2,-0.556825934121593,0.666666666666667,-0.333333333333333,"left"
"415","19_2",90,"19","Male",20,"Stim\r06y19g29b08.jpeg","Stim\r11y13g22b35.jpeg",6,11,19,13,29,22,8,35,-2,1,1,0,1.005,3.199,2,"grøn","19_18",-7,0,1,"Left_lead","Male","Female",1,0.256881196356474,0.985088357344533,-0.0149116426554673,2,-0.556825934121593,0.5,-0.5,"left"
"418","4_1",15,"4","Female",23,"Stim\r10y02g36b05.jpeg","Stim\r13y24g05b28.jpeg",10,13,2,24,36,5,5,28,3,1,1,1,2.405,5.932,1,"rød","4_2",3,1,1,"Left_lead","Female","Female",0,0.213547915165525,0.919633161010419,-0.0803668389895806,3,0.883699140327812,3,2,"left"
"419","4_1",17,"4","Female",23,"Stim\r16y09g06b10.jpeg","Stim\r17y22g16b15.jpeg",16,17,9,22,6,16,10,15,2,1,1,1,1.513,2.603,1,"rød","4_2",1,1,1,"Left_lead","Female","Female",0,0.2230111900189,0.917144504097922,-0.0828554959020782,2,-0.475837998638053,1,0,"left"
"423","4_1",27,"4","Female",23,"Stim\r14y10g15b15.jpeg","Stim\r04y16g13b13.jpeg",14,4,10,16,15,13,15,13,-4,-1,1,1,1.782,6.432,1,"blå","4_2",-2,0,0,"Left_lead","Female","Female",0,0.26431786236568,1.04162839287579,0.0416283928757863,4,2.24323627929368,1,0,"left"
"424","4_1",29,"4","Female",23,"Stim\r16y21g04b04.jpeg","Stim\r15y16g12b03.jpeg",16,15,21,16,4,12,4,3,3,-1,0,1,2.974,4.035,1,"blå","4_2",-1,1,0,"Left_lead","Female","Female",1,0.245233311948222,1.01603585917281,0.0160358591728056,3,0.883699140327812,3,2,"left"
"425","4_1",31,"4","Female",23,"Stim\r13y21g23b09.jpeg","Stim\r15y05g12b10.jpeg",13,15,21,5,23,12,9,10,2,1,1,1,1.768,3.14,1,"blå","4_2",1,1,1,"Left_lead","Female","Female",0,0.234010416662095,1.04518278277503,0.045182782775032,2,-0.475837998638053,0.666666666666667,-0.333333333333333,"left"
"426","4_1",34,"4","Female",23,"Stim\r12y07g07b17.jpeg","Stim\r14y10g15b15.jpeg",12,14,7,10,7,15,17,15,4,1,0,0,2.106,1.958,1,"blå","4_2",-2,1,1,"Left_lead","Female","Female",0,0.2202023183787,1.08658694921455,0.0865869492145497,4,2.24323627929368,4,3,"left"
"428","4_1",36,"4","Female",23,"Stim\r22y35g09b11.jpeg","Stim\r06y19g29b08.jpeg",22,6,35,19,9,29,11,8,2,-1,0,1,1.522,3.331,1,"blå","4_2",-3,1,0,"Left_lead","Female","Female",1,0.17420407482281,1.07299444270001,0.0729944427000071,2,-0.475837998638053,2,1,"left"
"430","4_1",42,"4","Female",23,"Stim\r03y11g01b26.jpeg","Stim\r18y19g14b27.jpeg",3,18,11,19,1,14,26,27,-2,1,0,1,1.413,1.918,1,"blå","4_2",1,0,1,"Left_lead","Female","Female",1,0.17865380769027,1.07946161651991,0.0794616165199062,2,-0.475837998638053,0.5,-0.5,"left"
"432","4_1",45,"4","Female",23,"Stim\r19y15g35b05.jpeg","Stim\r17y11g38b07.jpeg",19,17,15,11,35,38,5,7,3,1,1,1,2.588,1.776,1,"blå","4_2",2,1,1,"Left_lead","Female","Female",0,0.206213196126735,1.02333300449511,0.0233330044951099,3,0.883699140327812,1.5,0.5,"left"
"433","4_1",46,"4","Female",23,"Stim\r22y02g34b05.jpeg","Stim\r10y27g22b14.jpeg",22,10,2,27,34,22,5,14,-3,-1,0,0,1.714,2.338,1,"blå","4_2",9,0,0,"Left_lead","Female","Female",0,0.21268651897531,1.04075017172601,0.0407501717260088,3,0.883699140327812,3,2,"left"
"434","4_1",47,"4","Female",23,"Stim\r09y06g26b32.jpeg","Stim\r10y13g07b36.jpeg",9,10,6,13,26,7,32,36,-2,1,0,1,2.655,2.286,1,"blå","4_2",4,0,1,"Left_lead","Female","Female",1,0.22778361231943,1.134011847042,0.134011847041997,2,-0.475837998638053,1,0,"left"
"436","4_1",49,"4","Female",23,"Stim\r17y22g16b15.jpeg","Stim\r11y10g06b19.jpeg",17,11,22,10,16,6,15,19,-3,-1,0,0,2.046,1.835,1,"blå","4_2",4,0,0,"Left_lead","Female","Female",0,0.21366764918045,1.14700716727926,0.147007167279257,3,0.883699140327812,3,2,"left"
"438","4_1",54,"4","Female",23,"Stim\r20y04g39b23.jpeg","Stim\r09y06g26b32.jpeg",20,9,4,6,39,26,23,32,-2,-1,0,0,1.652,1.931,1,"gul","4_2",2,0,0,"Left_lead","Female","Female",0,0.1861551109369,1.03184500131595,0.0318450013159479,2,-0.475837998638053,2,1,"left"
"441","4_1",60,"4","Female",23,"Stim\r14y12g04b29.jpeg","Stim\r16y09g06b10.jpeg",14,16,12,9,4,6,29,10,2,1,0,0,1.758,2.346,1,"gul","4_2",-3,1,1,"Left_lead","Female","Female",0,0.19252411532496,1.0034394127677,0.00343941276769621,2,-0.475837998638053,1,0,"left"
"443","4_1",67,"4","Female",23,"Stim\r04y39g24b15.jpeg","Stim\r10y37g07b02.jpeg",4,10,39,37,24,7,15,2,-2,1,1,0,2.133,1.637,1,"gul","4_2",-2,0,1,"Left_lead","Female","Female",1,0.240513673244175,0.973071069509933,-0.0269289304900671,2,-0.475837998638053,1,0,"left"
"445","4_1",72,"4","Female",23,"Stim\r22y35g09b11.jpeg","Stim\r06y36g16b14.jpeg",22,6,35,36,9,16,11,14,-2,-1,0,0,1.461,2.787,1,"gul","4_2",1,0,0,"Left_lead","Female","Female",0,0.211152471452465,0.9931319794806,-0.0068680205194005,2,-0.475837998638053,1,0,"left"
"446","4_1",73,"4","Female",23,"Stim\r02y19g24b04.jpeg","Stim\r19y15g35b05.jpeg",2,19,19,15,24,35,4,5,-2,1,1,0,1.86,2.306,1,"gul","4_2",-4,0,1,"Left_lead","Female","Female",1,0.207748991911323,1.00409532858691,0.00409532858691031,2,-0.475837998638053,0.666666666666667,-0.333333333333333,"left"
"448","4_1",76,"4","Female",23,"Stim\r19y10g06b15.jpeg","Stim\r12y07g07b17.jpeg",19,12,10,7,6,7,15,17,-1,-1,0,0,2.68,4.87,1,"grøn","4_2",1,0,0,"Left_lead","Female","Female",0,0.20983680438523,1.00914373562971,0.00914373562971238,1,-1.83537513760392,1,0,"left"
"449","4_1",77,"4","Female",23,"Stim\r11y13g22b35.jpeg","Stim\r22y23g20b06.jpeg",11,22,13,23,22,20,35,6,3,-1,0,1,2.136,2.999,1,"grøn","4_2",-2,1,0,"Left_lead","Female","Female",1,0.193748387337113,1.01550140846697,0.0155014084669693,3,0.883699140327812,1.5,0.5,"left"
"450","4_1",78,"4","Female",23,"Stim\r09y15g18b07.jpeg","Stim\r17y22g16b15.jpeg",9,17,15,22,18,16,7,15,4,1,0,0,1.983,4.368,1,"grøn","4_2",-2,1,1,"Left_lead","Female","Female",0,0.193597982130103,1.02132203334787,0.0213220333478705,4,2.24323627929368,2,1,"left"
"451","4_1",82,"4","Female",23,"Stim\r07y14g27b22.jpeg","Stim\r05y28g23b30.jpeg",7,5,14,28,27,23,22,30,-3,1,1,0,1.641,2.325,1,"grøn","4_2",-4,0,1,"Left_lead","Female","Female",1,0.212510277603186,1.07597563561009,0.0759756356100938,3,0.883699140327812,1,0,"left"
"453","4_1",89,"4","Female",23,"Stim\r09y17g32b21.jpeg","Stim\r22y02g34b05.jpeg",9,22,17,2,32,34,21,5,2,1,1,1,2.484,2.135,1,"grøn","4_2",2,1,1,"Left_lead","Female","Female",0,0.268177978741435,1.08000473176331,0.0800047317633099,2,-0.475837998638053,2,1,"left"
"455","4_1",95,"4","Female",23,"Stim\r10y07g11b10.jpeg","Stim\r08y09g09b11.jpeg",10,8,7,9,11,9,10,11,2,1,0,0,1.101,1.52,1,"grøn","4_2",-2,1,1,"Left_lead","Female","Female",0,0.286297841223305,1.06720750928256,0.0672075092825632,2,-0.475837998638053,2,1,"left"
"459","3_2",14,"3","Male",24,"Stim\r17y11g38b07.jpeg","Stim\r15y05g12b10.jpeg",17,15,11,5,38,12,7,10,-2,-1,1,1,2.296,1.349,2,"rød","3_2",-2,0,0,"Left_lead","Male","Female",0,0.21353929165445,0.958674124388498,-0.0413258756115018,2,0.199862211488984,2,1,"left"
"465","3_2",27,"3","Male",24,"Stim\r09y15g18b07.jpeg","Stim\r22y23g20b06.jpeg",9,22,15,23,18,20,7,6,-1,1,1,0,1.031,1.162,2,"blå","3_2",-1,0,1,"Left_lead","Male","Female",1,0.25997351024482,1.02906112597745,0.0290611259774509,1,-0.999311057444918,0.5,-0.5,"left"
"467","3_2",36,"3","Male",24,"Stim\r15y05g12b10.jpeg","Stim\r17y20g40b07.jpeg",15,17,5,20,12,40,10,7,-1,1,1,0,1.786,1.195,2,"blå","3_2",-3,0,1,"Left_lead","Male","Female",1,0.1857361580012,1.14545342591614,0.145453425916143,1,-0.999311057444918,0.5,-0.5,"left"
"468","3_2",37,"3","Male",24,"Stim\r13y21g23b09.jpeg","Stim\r07y02g03b06.jpeg",13,7,21,2,23,3,9,6,-1,1,1,0,1.21,2.417,2,"blå","3_2",-3,0,1,"Left_lead","Male","Female",1,0.181276591978211,1.10394844581692,0.103948445816921,1,-0.999311057444918,1,0,"left"
"469","3_2",38,"3","Male",24,"Stim\r17y12g19b18.jpeg","Stim\r17y22g16b15.jpeg",17,17,12,22,19,16,18,15,-2,-1,1,1,1.16,3.758,2,"blå","3_2",-3,0,0,"Left_lead","Male","Female",0,0.160724192668272,1.06366471732167,0.0636647173216678,2,0.199862211488984,1,0,"left"
"470","3_2",47,"3","Male",24,"Stim\r05y40g33b16.jpeg","Stim\r04y16g13b13.jpeg",5,4,40,16,33,13,16,13,-1,1,1,0,0.891,1.621,2,"blå","3_2",-3,0,1,"Left_lead","Male","Female",1,0.22739330367824,1.18933163143346,0.189331631433465,1,-0.999311057444918,0.25,-0.75,"left"
"472","3_2",50,"3","Male",24,"Stim\r14y08g21b39.jpeg","Stim\r22y02g34b05.jpeg",14,22,8,2,21,34,39,5,1,-1,0,1,3.065,1.076,2,"gul","3_2",-6,1,0,"Left_lead","Male","Female",1,0.2277526154665,1.24332914022772,0.243329140227719,1,-0.999311057444918,1,0,"left"
"473","3_2",51,"3","Male",24,"Stim\r11y13g22b35.jpeg","Stim\r19y10g06b15.jpeg",11,19,13,10,22,6,35,15,-3,-1,1,1,1.787,1.339,2,"gul","3_2",-3,0,0,"Left_lead","Male","Female",0,0.23343566036975,1.31691570568899,0.316915705688989,3,1.39903548042289,1.5,0.5,"left"
"474","3_2",56,"3","Male",24,"Stim\r12y09g30b18.jpeg","Stim\r17y12g19b18.jpeg",12,17,9,12,30,19,18,18,2,1,1,1,1.032,1.106,2,"gul","3_2",3,1,1,"Left_lead","Male","Female",0,0.192303295628855,1.06830824803238,0.0683082480323833,2,0.199862211488984,2,1,"left"
"475","3_2",59,"3","Male",24,"Stim\r02y10g14b11.jpeg","Stim\r08y09g09b11.jpeg",2,8,10,9,14,9,11,11,-2,1,1,0,1.155,1.028,2,"gul","3_2",-1,0,1,"Left_lead","Male","Female",1,0.19560275479467,1.05285851761795,0.0528585176179548,2,0.199862211488984,1,0,"left"
"479","3_2",76,"3","Male",24,"Stim\r14y08g21b39.jpeg","Stim\r10y27g22b14.jpeg",14,10,8,27,21,22,39,14,-2,-1,0,0,1.009,1.471,2,"grøn","3_2",1,0,0,"Left_lead","Male","Female",0,0.206814633633659,1.0018263582605,0.00182635826050093,2,0.199862211488984,1,0,"left"
"480","3_2",77,"3","Male",24,"Stim\r03y03g02b05.jpeg","Stim\r13y33g08b23.jpeg",3,13,3,33,2,8,5,23,-1,1,0,1,0.956,0.845,2,"grøn","3_2",6,0,1,"Left_lead","Male","Female",1,0.189634270777508,1.00092826908251,0.000928269082505873,1,-0.999311057444918,0.5,-0.5,"left"
"481","3_2",79,"3","Male",24,"Stim\r10y37g07b02.jpeg","Stim\r14y12g04b29.jpeg",10,14,37,12,7,4,2,29,1,-1,0,1,1.508,3.854,2,"grøn","3_2",-3,1,0,"Left_lead","Male","Female",1,0.191079077798155,1.00903715966653,0.00903715966652596,1,-0.999311057444918,1,0,"left"
"483","3_2",81,"3","Male",24,"Stim\r05y09g02b34.jpeg","Stim\r07y02g03b06.jpeg",5,7,9,2,2,3,34,6,2,1,1,1,3.478,1.413,2,"grøn","3_2",1,1,1,"Left_lead","Male","Female",0,0.20584002309355,1.04020691095476,0.0402069109547569,2,0.199862211488984,1,0,"left"
"484","3_2",82,"3","Male",24,"Stim\r13y21g23b09.jpeg","Stim\r08y12g20b03.jpeg",13,8,21,12,23,20,9,3,2,-1,0,1,1.463,1.146,2,"grøn","3_2",-3,1,0,"Left_lead","Male","Female",1,0.201821024894765,1.00202465256929,0.00202465256929418,2,0.199862211488984,0.666666666666667,-0.333333333333333,"left"
"485","3_2",94,"3","Male",24,"Stim\r09y17g32b21.jpeg","Stim\r06y14g31b25.jpeg",9,6,17,14,32,31,21,25,-4,-1,1,1,1.208,1.067,2,"grøn","3_2",-1,0,0,"Left_lead","Male","Female",0,0.246437475257055,0.980720904177528,-0.0192790958224716,4,2.59820874935679,2,1,"left"
"486","3_2",95,"3","Male",24,"Stim\r17y22g16b15.jpeg","Stim\r22y23g20b06.jpeg",17,22,22,23,16,20,15,6,-2,-1,0,0,1.838,3.19,2,"grøn","3_2",4,0,0,"Left_lead","Male","Female",0,0.255526247674315,0.949362489852444,-0.0506375101475558,2,0.199862211488984,2,1,"left"
"490","23_1",15,"23","Male",23,"Stim\r04y28g27b06.jpeg","Stim\r07y06g08b05.jpeg",4,7,28,6,27,8,6,5,2,1,1,1,1.317,1.344,1,"rød","23_22",3,1,1,"Left_lead","Male","Female",0,0.229124511756015,0.979082413294412,-0.0209175867055884,2,0.740191901388164,2,1,"left"
"492","23_1",23,"23","Male",23,"Stim\r17y12g19b18.jpeg","Stim\r15y05g12b10.jpeg",17,15,12,5,19,12,18,10,2,-1,0,1,2.122,2.074,1,"rød","23_22",-2,1,0,"Left_lead","Male","Female",1,0.251096613895366,0.97287013289763,-0.0271298671023703,2,0.740191901388164,1,0,"left"
"494","23_1",26,"23","Male",23,"Stim\r09y15g18b07.jpeg","Stim\r09y07g06b09.jpeg",9,9,15,7,18,6,7,9,-1,1,0,1,2.335,1.582,1,"blå","23_22",2,0,1,"Left_lead","Male","Female",1,0.2545534539166,0.961802978811037,-0.0381970211889631,1,-0.653110501224851,1,0,"left"
"495","23_1",28,"23","Male",23,"Stim\r08y23g10b29.jpeg","Stim\r09y06g26b32.jpeg",8,9,23,6,10,26,29,32,1,-1,1,0,2.348,1.45,1,"blå","23_22",3,1,0,"Left_lead","Male","Female",1,0.245919623537535,0.971356826794603,-0.0286431732053973,1,-0.653110501224851,1,0,"left"
"499","23_1",45,"23","Male",23,"Stim\r14y08g21b39.jpeg","Stim\r11y13g22b35.jpeg",14,11,8,13,21,22,39,35,1,-1,0,1,3.548,1.565,1,"blå","23_22",-4,1,0,"Left_lead","Male","Female",1,0.17517863936695,0.843720392654753,-0.156279607345247,1,-0.653110501224851,0.5,-0.5,"left"
"503","23_1",67,"23","Male",23,"Stim\r08y09g09b11.jpeg","Stim\r07y06g08b05.jpeg",8,7,9,6,9,8,11,5,2,-1,0,1,1.177,3.843,1,"gul","23_22",-3,1,0,"Left_lead","Male","Female",1,0.186421493453649,0.745495124425301,-0.254504875574699,2,0.740191901388164,1,0,"left"
"505","23_1",70,"23","Male",23,"Stim\r22y02g34b05.jpeg","Stim\r21y03g15b37.jpeg",22,21,2,3,34,15,5,37,1,-1,1,0,1.844,2.38,1,"gul","23_22",1,1,0,"Left_lead","Male","Female",1,0.20278600922667,0.898213389852583,-0.101786610147417,1,-0.653110501224851,1,0,"left"
"506","23_1",72,"23","Male",23,"Stim\r09y07g06b09.jpeg","Stim\r07y14g27b22.jpeg",9,7,7,14,6,27,9,22,2,1,1,1,1.2,1.765,1,"gul","23_22",7,1,1,"Left_lead","Male","Female",0,0.204106004406492,0.964604485214828,-0.0353955147851724,2,0.740191901388164,2,1,"left"
"508","23_1",76,"23","Male",23,"Stim\r10y03g03b07.jpeg","Stim\r03y03g02b05.jpeg",10,3,3,3,3,2,7,5,1,-1,0,1,0.989,1.654,1,"grøn","23_22",-1,1,0,"Left_lead","Male","Female",1,0.213202313705535,1.04359543432284,0.0435954343228413,1,-0.653110501224851,1,0,"left"
"509","23_1",80,"23","Male",23,"Stim\r12y07g16b25.jpeg","Stim\r03y06g12b09.jpeg",12,3,7,6,16,12,25,9,-1,1,1,0,1.841,1.82,1,"grøn","23_22",-4,0,1,"Left_lead","Male","Female",1,0.195837917276223,1.0205140663269,0.0205140663269017,1,-0.653110501224851,1,0,"left"
"516","23_1",92,"23","Male",23,"Stim\r20y04g39b23.jpeg","Stim\r10y02g36b05.jpeg",20,10,4,2,39,36,23,5,3,1,0,0,2.536,1.693,1,"grøn","23_22",-3,1,1,"Left_lead","Male","Female",0,0.2186971099469,0.868758145030061,-0.131241854969939,3,2.13349430400118,3,2,"left"
"519","24_2",10,"24","Female",25,"Stim\r02y10g14b11.jpeg","Stim\r04y39g24b15.jpeg",2,4,10,39,14,24,11,15,1,-1,1,0,2.407,1.396,2,"rød","24_22",2,1,0,"Left_lead","Female","Female",1,0.224358682896235,0.98834528713366,-0.0116547128663396,1,-0.83452296039628,1,0,"left"
"520","24_2",11,"24","Female",25,"Stim\r11y26g25b38.jpeg","Stim\r18y19g14b27.jpeg",11,18,26,19,25,14,38,27,-2,-1,0,0,1.337,2.203,2,"rød","24_22",7,0,0,"Left_lead","Female","Female",0,0.192562667083443,0.977513474701503,-0.022486525298497,2,0.83452296039628,2,1,"left"
"521","24_2",14,"24","Female",25,"Stim\r04y39g24b15.jpeg","Stim\r10y07g11b10.jpeg",4,10,39,7,24,11,15,10,-1,1,0,1,3.031,1.703,2,"rød","24_22",6,0,1,"Left_lead","Female","Female",1,0.19953345842265,0.893554282698226,-0.106445717301774,1,-0.83452296039628,0.5,-0.5,"left"
"526","24_2",28,"24","Female",25,"Stim\r17y11g38b07.jpeg","Stim\r02y10g14b11.jpeg",17,2,11,10,38,14,7,11,1,-1,1,0,1.948,2.613,2,"blå","24_22",4,1,0,"Left_lead","Female","Female",1,0.246595628518425,0.981473569392596,-0.018526430607404,1,-0.83452296039628,1,0,"left"
"527","24_2",32,"24","Female",25,"Stim\r04y28g27b06.jpeg","Stim\r17y11g38b07.jpeg",4,17,28,11,27,38,6,7,-1,1,0,1,1.815,1.574,2,"blå","24_22",1,0,1,"Left_lead","Female","Female",1,0.23288967471305,1.00694827155025,0.00694827155024558,1,-0.83452296039628,1,0,"left"
"528","24_2",33,"24","Female",25,"Stim\r13y24g05b28.jpeg","Stim\r21y03g15b37.jpeg",13,21,24,3,5,15,28,37,-3,-1,0,0,2.044,1.955,2,"blå","24_22",9,0,0,"Left_lead","Female","Female",0,0.208449498218285,0.949877336780087,-0.0501226632199127,3,2.50356888118884,3,2,"left"
"529","24_2",35,"24","Female",25,"Stim\r16y09g06b10.jpeg","Stim\r17y20g40b07.jpeg",16,17,9,20,6,40,10,7,2,1,0,0,1.518,6.417,2,"blå","24_22",-3,1,1,"Left_lead","Female","Female",0,0.17273209344767,0.952285153357391,-0.0477148466426088,2,0.83452296039628,2,1,"left"
"530","24_2",36,"24","Female",25,"Stim\r14y12g04b29.jpeg","Stim\r18y19g14b27.jpeg",14,18,12,19,4,14,29,27,-1,1,1,0,2.907,2.908,2,"blå","24_22",-2,0,1,"Left_lead","Female","Female",1,0.154584954146125,0.948428837822421,-0.0515711621775788,1,-0.83452296039628,0.5,-0.5,"left"
"532","24_2",39,"24","Female",25,"Stim\r07y14g27b22.jpeg","Stim\r12y07g16b25.jpeg",7,12,14,7,27,16,22,25,-2,-1,0,0,1.195,5.141,2,"blå","24_22",3,0,0,"Left_lead","Female","Female",0,0.155531310799449,1.01881039656958,0.0188103965695816,2,0.83452296039628,1,0,"left"
"533","24_2",45,"24","Female",25,"Stim\r11y10g06b19.jpeg","Stim\r12y07g07b17.jpeg",11,12,10,7,6,7,19,17,1,-1,0,1,2.099,1.629,2,"blå","24_22",-2,1,0,"Left_lead","Female","Female",1,0.19622088019191,0.973608297388919,-0.0263917026110806,1,-0.83452296039628,1,0,"left"
"534","24_2",47,"24","Female",25,"Stim\r15y16g12b03.jpeg","Stim\r22y02g34b05.jpeg",15,22,16,2,12,34,3,5,-1,1,0,1,1.937,1.29,2,"blå","24_22",2,0,1,"Left_lead","Female","Female",1,0.21530857982835,1.04532973778743,0.0453297377874278,1,-0.83452296039628,1,0,"left"
"536","24_2",54,"24","Female",25,"Stim\r11y14g08b23.jpeg","Stim\r10y13g07b36.jpeg",11,10,14,13,8,7,23,36,-2,1,1,0,2.226,1.473,2,"gul","24_22",-1,0,1,"Left_lead","Female","Female",1,0.1923011934633,1.04750130513431,0.0475013051343147,2,0.83452296039628,1,0,"left"
"540","24_2",60,"24","Female",25,"Stim\r14y12g04b29.jpeg","Stim\r03y11g01b26.jpeg",14,3,12,11,4,1,29,26,1,1,0,0,1.39,1.675,2,"gul","24_22",-1,1,1,"Left_lead","Female","Female",0,0.20088232593031,1.04978558858285,0.0497855885828464,1,-0.83452296039628,1,0,"left"
"541","24_2",61,"24","Female",25,"Stim\r10y13g07b36.jpeg","Stim\r12y12g14b26.jpeg",10,12,13,12,7,14,36,26,-1,1,1,0,1.188,2.37,2,"gul","24_22",-1,0,1,"Left_lead","Female","Female",1,0.219261513137926,1.10899881029914,0.108998810299141,1,-0.83452296039628,1,0,"left"
"542","24_2",67,"24","Female",25,"Stim\r02y19g24b04.jpeg","Stim\r14y20g16b10.jpeg",2,14,19,20,24,16,4,10,-2,1,0,1,1.98,1.389,2,"gul","24_22",1,0,1,"Left_lead","Female","Female",1,0.229735917452085,0.909816561693647,-0.0901834383063529,2,0.83452296039628,1,0,"left"
"544","24_2",71,"24","Female",25,"Stim\r14y20g16b10.jpeg","Stim\r09y17g32b21.jpeg",14,9,20,17,16,32,10,21,1,-1,0,1,1.103,3.819,2,"gul","24_22",-3,1,0,"Left_lead","Female","Female",1,0.201259342131829,0.887340642005703,-0.112659357994297,1,-0.83452296039628,0.5,-0.5,"left"
"546","24_2",73,"24","Female",25,"Stim\r16y09g06b10.jpeg","Stim\r16y21g04b04.jpeg",16,16,9,21,6,4,10,4,1,1,0,0,0.941,1.314,2,"grøn","24_22",-2,1,1,"Left_lead","Female","Female",0,0.20100268449705,0.971293766013048,-0.0287062339869516,1,-0.83452296039628,1,0,"left"
"547","24_2",74,"24","Female",25,"Stim\r06y14g31b25.jpeg","Stim\r12y09g30b18.jpeg",6,12,14,9,31,30,25,18,-1,-1,1,1,1.292,2.602,2,"grøn","24_22",-1,0,0,"Left_lead","Female","Female",0,0.197621823178284,0.981221964944768,-0.0187780350552317,1,-0.83452296039628,1,0,"left"
"548","24_2",75,"24","Female",25,"Stim\r02y10g14b11.jpeg","Stim\r14y10g15b15.jpeg",2,14,10,10,14,15,11,15,-1,1,0,1,2.209,1.676,2,"grøn","24_22",1,0,1,"Left_lead","Female","Female",1,0.207454840432727,0.982245238703955,-0.0177547612960449,1,-0.83452296039628,1,0,"left"
"549","24_2",76,"24","Female",25,"Stim\r07y14g27b22.jpeg","Stim\r15y17g24b30.jpeg",7,15,14,17,27,24,22,30,-2,-1,1,1,1.26,1.8,2,"grøn","24_22",-3,0,0,"Left_lead","Female","Female",0,0.201714798400703,0.978066294706708,-0.0219337052932922,2,0.83452296039628,2,1,"left"
"550","24_2",77,"24","Female",25,"Stim\r17y11g38b07.jpeg","Stim\r17y20g40b07.jpeg",17,17,11,20,38,40,7,7,2,1,1,1,2.711,1.519,2,"grøn","24_22",2,1,1,"Left_lead","Female","Female",0,0.183706220988415,0.977954449253776,-0.0220455507462244,2,0.83452296039628,2,1,"left"
"552","24_2",81,"24","Female",25,"Stim\r09y17g32b21.jpeg","Stim\r06y14g31b25.jpeg",9,6,17,14,32,31,21,25,-2,1,1,0,1.194,2.829,2,"grøn","24_22",-1,0,1,"Left_lead","Female","Female",1,0.198201794082,1.00592285016622,0.00592285016622185,2,0.83452296039628,0.5,-0.5,"left"
"557","24_2",92,"24","Female",25,"Stim\r03y11g01b26.jpeg","Stim\r21y01g04b27.jpeg",3,21,11,1,1,4,26,27,-1,1,0,1,2.912,1.455,2,"grøn","24_22",3,0,1,"Left_lead","Female","Female",1,0.216841848985655,0.876049226151992,-0.123950773848008,1,-0.83452296039628,1,0,"left"
"560","21_2",13,"21","Male",24,"Stim\r12y07g07b17.jpeg","Stim\r13y24g05b28.jpeg",12,13,7,24,7,5,17,28,-2,-1,0,0,2,2.511,2,"rød","21_23",1,0,0,"Left_lead","Male","Male",0,0.198420870877202,0.96195708917968,-0.0380429108203203,2,1.22140963310492,1,0,"left"
"564","21_2",29,"21","Male",24,"Stim\r11y26g25b38.jpeg","Stim\r05y09g02b34.jpeg",11,5,26,9,25,2,38,34,1,-1,0,1,1.464,1.759,2,"blå","21_23",-4,1,0,"Left_lead","Male","Male",1,0.243354858903511,1.00214712949987,0.00214712949987339,1,-0.793916261518197,0.5,-0.5,"left"
"569","21_2",43,"21","Male",24,"Stim\r16y09g06b10.jpeg","Stim\r10y03g03b07.jpeg",16,10,9,3,6,3,10,7,-2,1,1,0,1.508,2.031,2,"blå","21_23",-3,0,1,"Left_lead","Male","Male",1,0.173460081422795,1.05872009861417,0.0587200986141696,2,1.22140963310492,1,0,"left"
"571","21_2",49,"21","Male",24,"Stim\r07y02g03b06.jpeg","Stim\r20y04g39b23.jpeg",7,20,2,4,3,39,6,23,-1,1,0,1,3.05,2.227,2,"gul","21_23",2,0,1,"Left_lead","Male","Male",1,0.19101311645681,1.07771486321546,0.077714863215459,1,-0.793916261518197,1,0,"left"
"572","21_2",50,"21","Male",24,"Stim\r20y14g02b19.jpeg","Stim\r15y17g24b30.jpeg",20,15,14,17,2,24,19,30,-1,1,0,1,1.53,1.708,2,"gul","21_23",3,0,1,"Left_lead","Male","Male",1,0.19297325232145,1.11449068639128,0.114490686391277,1,-0.793916261518197,0.5,-0.5,"left"
"573","21_2",53,"21","Male",24,"Stim\r03y06g12b09.jpeg","Stim\r09y02g05b02.jpeg",3,9,6,2,12,5,9,2,-2,1,1,0,1.27,2.709,2,"gul","21_23",-4,0,1,"Left_lead","Male","Male",1,0.185151848057305,1.05613270706771,0.0561327070677093,2,1.22140963310492,1,0,"left"
"575","21_2",56,"21","Male",24,"Stim\r15y16g12b03.jpeg","Stim\r06y19g29b08.jpeg",15,6,16,19,12,29,3,8,-2,-1,0,0,1.278,1.53,2,"gul","21_23",3,0,0,"Left_lead","Male","Male",0,0.181026636850265,1.02104415307765,0.0210441530776497,2,1.22140963310492,2,1,"left"
"577","21_2",61,"21","Male",24,"Stim\r05y28g23b30.jpeg","Stim\r13y24g05b28.jpeg",5,13,28,24,23,5,30,28,2,-1,0,1,1.587,3.641,2,"gul","21_23",-4,1,0,"Left_lead","Male","Male",1,0.206238132821012,1.03690500872079,0.0369050087207865,2,1.22140963310492,1,0,"left"
"578","21_2",65,"21","Male",24,"Stim\r05y40g33b16.jpeg","Stim\r06y36g16b14.jpeg",5,6,40,36,33,16,16,14,1,-1,0,1,2.212,1.328,2,"gul","21_23",-4,1,0,"Left_lead","Male","Male",1,0.22564942452555,1.04122309288279,0.0412230928827879,1,-0.793916261518197,0.5,-0.5,"left"
"579","21_2",66,"21","Male",24,"Stim\r09y07g06b09.jpeg","Stim\r15y05g12b10.jpeg",9,15,7,5,6,12,9,10,-2,-1,1,1,1.842,3.293,2,"gul","21_23",-2,0,0,"Left_lead","Male","Male",0,0.23495335889612,1.05324978048881,0.0532497804888095,2,1.22140963310492,2,1,"left"
"580","21_2",67,"21","Male",24,"Stim\r22y23g20b06.jpeg","Stim\r10y27g22b14.jpeg",22,10,23,27,20,22,6,14,-1,1,0,1,1.785,2.863,2,"gul","21_23",4,0,1,"Left_lead","Male","Male",1,0.26721106989949,1.07394266516963,0.0739426651696327,1,-0.793916261518197,1,0,"left"
"581","21_2",68,"21","Male",24,"Stim\r03y11g01b26.jpeg","Stim\r14y10g15b15.jpeg",3,14,11,10,1,15,26,15,1,-1,0,1,1.599,1.812,2,"gul","21_23",-1,1,0,"Left_lead","Male","Male",1,0.25870412314597,1.01314717750673,0.0131471775067331,1,-0.793916261518197,1,0,"left"
"586","21_2",83,"21","Male",24,"Stim\r11y10g06b19.jpeg","Stim\r11y14g08b23.jpeg",11,11,10,14,6,8,19,23,-1,1,0,1,1.118,1.162,2,"grøn","21_23",2,0,1,"Left_lead","Male","Male",1,0.19030479658507,1.0047105799542,0.00471057995420066,1,-0.793916261518197,0.5,-0.5,"left"
"587","21_2",87,"21","Male",24,"Stim\r09y15g18b07.jpeg","Stim\r10y27g22b14.jpeg",9,10,15,27,18,22,7,14,-2,-1,0,0,1.957,1.242,2,"grøn","21_23",4,0,0,"Left_lead","Male","Male",0,0.249562586823715,1.07952529098343,0.0795252909834314,2,1.22140963310492,2,1,"left"
"589","21_2",90,"21","Male",24,"Stim\r08y09g09b11.jpeg","Stim\r17y07g07b24.jpeg",8,17,9,7,9,7,11,24,-2,1,1,0,2.629,1.161,2,"grøn","21_23",-2,0,1,"Left_lead","Male","Male",1,0.296103855152785,1.11252699133872,0.112526991338717,2,1.22140963310492,1,0,"left"
"590","21_2",95,"21","Male",24,"Stim\r02y19g24b04.jpeg","Stim\r11y13g22b35.jpeg",2,11,19,13,24,22,4,35,-1,1,1,0,1.121,2.644,2,"grøn","21_23",-2,0,1,"Left_lead","Male","Male",1,0.27430500669677,1.01902830987628,0.0190283098762813,1,-0.793916261518197,1,0,"left"
"591","21_2",96,"21","Male",24,"Stim\r04y39g24b15.jpeg","Stim\r13y21g23b09.jpeg",4,13,39,21,24,23,15,9,-1,1,1,0,1.153,1.688,2,"grøn","21_23",-1,0,1,"Left_lead","Male","Male",1,0.250035870534565,1.02042138557994,0.020421385579944,1,-0.793916261518197,0.5,-0.5,"left"
"593","21_1",17,"21","Male",24,"Stim\r03y06g12b09.jpeg","Stim\r06y14g31b25.jpeg",3,6,6,14,12,31,9,25,-1,1,0,1,3.989,3.536,1,"rød","21_24",3,0,1,"Left_lead","Male","Female",1,0.228248202088353,0.938036721454415,-0.0619632785455847,1,-0.87388478319842,0.5,-0.5,"left"
"594","21_1",18,"21","Male",24,"Stim\r14y12g04b29.jpeg","Stim\r17y11g38b07.jpeg",14,17,12,11,4,38,29,7,-1,1,0,1,2.313,2.826,1,"rød","21_24",3,0,1,"Left_lead","Male","Female",1,0.2204908223389,0.878632339212022,-0.121367660787978,1,-0.87388478319842,0.5,-0.5,"left"
"595","21_1",20,"21","Male",24,"Stim\r16y21g04b04.jpeg","Stim\r13y24g05b28.jpeg",16,13,21,24,4,5,4,28,-2,1,1,0,2.667,3.561,1,"rød","21_24",-3,0,1,"Left_lead","Male","Female",1,0.21831966795633,0.923040372534933,-0.0769596274650673,2,0.953328854398277,1,0,"left"
"596","21_1",21,"21","Male",24,"Stim\r10y02g36b05.jpeg","Stim\r14y12g04b29.jpeg",10,14,2,12,36,4,5,29,1,1,1,1,2.193,2.849,1,"rød","21_24",4,1,1,"Left_lead","Male","Female",0,0.23061874621329,0.935267975517317,-0.0647320244826826,1,-0.87388478319842,1,0,"left"
"598","21_1",27,"21","Male",24,"Stim\r17y07g07b24.jpeg","Stim\r21y01g04b27.jpeg",17,21,7,1,7,4,24,27,2,1,1,1,1.703,1.862,1,"blå","21_24",3,1,1,"Left_lead","Male","Female",0,0.243671535338505,0.941702506096536,-0.0582974939034635,2,0.953328854398277,1,0,"left"
"599","21_1",31,"21","Male",24,"Stim\r09y07g06b09.jpeg","Stim\r06y19g29b08.jpeg",9,6,7,19,6,29,9,8,-2,-1,1,1,2.079,2.865,1,"blå","21_24",-1,0,0,"Left_lead","Male","Female",0,0.195920812303678,0.871580288736854,-0.128419711263146,2,0.953328854398277,2,1,"left"
"600","21_1",34,"21","Male",24,"Stim\r13y24g05b28.jpeg","Stim\r17y07g07b24.jpeg",13,17,24,7,5,7,28,24,-1,1,1,0,2.48,1.845,1,"blå","21_24",-4,0,1,"Left_lead","Male","Female",1,0.16935456483335,0.83108322777879,-0.16891677222121,1,-0.87388478319842,0.5,-0.5,"left"
"603","21_1",38,"21","Male",24,"Stim\r12y12g14b26.jpeg","Stim\r06y14g31b25.jpeg",12,6,12,14,14,31,26,25,2,1,0,0,2.999,1.91,1,"blå","21_24",-1,1,1,"Left_lead","Male","Female",0,0.13860836108975,0.918396224891443,-0.081603775108557,2,0.953328854398277,2,1,"left"
"606","21_1",45,"21","Male",24,"Stim\r10y27g22b14.jpeg","Stim\r10y07g11b10.jpeg",10,10,27,7,22,11,14,10,-1,-1,1,1,5.419,1.568,1,"blå","21_24",-4,0,0,"Left_lead","Male","Female",0,0.184615643613045,1.01307522920655,0.0130752292065484,1,-0.87388478319842,0.5,-0.5,"left"
"607","21_1",47,"21","Male",24,"Stim\r13y33g08b23.jpeg","Stim\r10y27g22b14.jpeg",13,10,33,27,8,22,23,14,-2,-1,1,1,1.771,2.189,1,"blå","21_24",-9,0,0,"Left_lead","Male","Female",0,0.2098030492577,1.15795366672742,0.157953666727417,2,0.953328854398277,2,1,"left"
"611","21_1",52,"21","Male",24,"Stim\r21y01g04b27.jpeg","Stim\r03y03g02b05.jpeg",21,3,1,3,4,2,27,5,-2,-1,0,0,4.284,1.746,1,"gul","21_24",2,0,0,"Left_lead","Male","Female",0,0.197901564305115,1.23472684857699,0.234726848576991,2,0.953328854398277,2,1,"left"
"613","21_1",55,"21","Male",24,"Stim\r22y02g34b05.jpeg","Stim\r15y05g12b10.jpeg",22,15,2,5,34,12,5,10,2,1,1,1,1.215,2.004,1,"gul","21_24",3,1,1,"Left_lead","Male","Female",0,0.19040864369685,1.07917744922451,0.0791774492245072,2,0.953328854398277,2,1,"left"
"614","21_1",56,"21","Male",24,"Stim\r16y21g04b04.jpeg","Stim\r15y17g24b30.jpeg",16,15,21,17,4,24,4,30,-2,1,1,0,1.888,1.943,1,"gul","21_24",-4,0,1,"Left_lead","Male","Female",1,0.183514948292605,1.02496154993499,0.02496154993499,2,0.953328854398277,1,0,"left"
"619","21_1",61,"21","Male",24,"Stim\r19y15g35b05.jpeg","Stim\r04y16g13b13.jpeg",19,4,15,16,35,13,5,13,1,-1,1,0,2.329,2.207,1,"gul","21_24",1,1,0,"Left_lead","Male","Female",1,0.212178355303215,1.11275724165133,0.112757241651334,1,-0.87388478319842,0.5,-0.5,"left"
"620","21_1",62,"21","Male",24,"Stim\r18y13g28b06.jpeg","Stim\r17y12g19b18.jpeg",18,17,13,12,28,19,6,18,-1,1,1,0,4.013,2.415,1,"gul","21_24",-1,0,1,"Left_lead","Male","Female",1,0.2277923779666,1.1153273762677,0.115327376267703,1,-0.87388478319842,1,0,"left"
"621","21_1",63,"21","Male",24,"Stim\r20y14g02b19.jpeg","Stim\r08y12g20b03.jpeg",20,8,14,12,2,20,19,3,-1,-1,1,1,4.275,2.813,1,"gul","21_24",-2,0,0,"Left_lead","Male","Female",0,0.238276027159125,1.05702964137769,0.0570296413776876,1,-0.87388478319842,1,0,"left"
"622","21_1",64,"21","Male",24,"Stim\r03y11g01b26.jpeg","Stim\r12y07g07b17.jpeg",3,12,11,7,1,7,26,17,2,1,0,0,1.383,1.72,1,"gul","21_24",-4,1,1,"Left_lead","Male","Female",0,0.245359586389775,1.04727720584006,0.047277205840057,2,0.953328854398277,2,1,"left"
"623","21_1",65,"21","Male",24,"Stim\r09y17g32b21.jpeg","Stim\r14y10g15b15.jpeg",9,14,17,10,32,15,21,15,1,-1,0,1,5.318,1.499,1,"gul","21_24",-7,1,0,"Left_lead","Male","Female",1,0.22505644099362,1.05683177959516,0.0568317795951614,1,-0.87388478319842,0.5,-0.5,"left"
"624","21_1",70,"21","Male",24,"Stim\r13y21g23b09.jpeg","Stim\r09y17g32b21.jpeg",13,9,21,17,23,32,9,21,-2,-1,1,1,1.687,2.161,1,"gul","21_24",-4,0,0,"Left_lead","Male","Female",0,0.23059966408687,1.04534761994019,0.0453476199401892,2,0.953328854398277,2,1,"left"
"626","21_1",75,"21","Male",24,"Stim\r15y05g12b10.jpeg","Stim\r06y36g16b14.jpeg",15,6,5,36,12,16,10,14,-2,1,0,1,1.447,3.565,1,"grøn","21_24",4,0,1,"Left_lead","Male","Female",1,0.20967550383345,0.988216997761031,-0.0117830022389691,2,0.953328854398277,1,0,"left"
"627","21_1",77,"21","Male",24,"Stim\r17y12g19b18.jpeg","Stim\r22y23g20b06.jpeg",17,22,12,23,19,20,18,6,-1,1,0,1,2.387,1.411,1,"grøn","21_24",1,0,1,"Left_lead","Male","Female",1,0.18366245334851,0.967424901819366,-0.0325750981806335,1,-0.87388478319842,0.5,-0.5,"left"
"629","21_1",80,"21","Male",24,"Stim\r16y21g04b04.jpeg","Stim\r03y03g02b05.jpeg",16,3,21,3,4,2,4,5,1,-1,0,1,2.706,2.038,1,"grøn","21_24",-2,1,0,"Left_lead","Male","Female",1,0.189848092457785,0.977735843300674,-0.0222641566993256,1,-0.87388478319842,1,0,"left"
"632","21_1",85,"21","Male",24,"Stim\r14y20g16b10.jpeg","Stim\r11y26g25b38.jpeg",14,11,20,26,16,25,10,38,-1,1,0,1,2.356,2.861,1,"grøn","21_24",9,0,1,"Left_lead","Male","Female",1,0.178615206399674,1.01627659971678,0.0162765997167791,1,-0.87388478319842,1,0,"left"
"633","21_1",87,"21","Male",24,"Stim\r21y31g06b08.jpeg","Stim\r10y03g03b07.jpeg",21,10,31,3,6,3,8,7,-1,1,1,0,3.217,1.394,1,"grøn","21_24",-3,0,1,"Left_lead","Male","Female",1,0.23407249604202,1.0194125999941,0.0194125999941017,1,-0.87388478319842,1,0,"left"
"634","21_1",92,"21","Male",24,"Stim\r19y15g35b05.jpeg","Stim\r07y14g27b22.jpeg",19,7,15,14,35,27,5,22,2,-1,0,1,2.667,1.362,1,"grøn","21_24",-8,1,0,"Left_lead","Male","Female",1,0.2390599252075,0.961559649201822,-0.0384403507981784,2,0.953328854398277,1,0,"left"
"636","21_1",96,"21","Male",24,"Stim\r12y09g30b18.jpeg","Stim\r04y28g27b06.jpeg",12,4,9,28,30,27,18,6,2,1,0,0,3.051,1.442,1,"grøn","21_24",-3,1,1,"Left_lead","Male","Female",0,0.24187390462813,0.967101779757943,-0.0328982202420571,2,0.953328854398277,1,0,"left"
"642","26_2",15,"26","Female",24,"Stim\r09y06g26b32.jpeg","Stim\r06y14g31b25.jpeg",9,6,6,14,26,31,32,25,1,1,0,0,1.137,1.834,2,"rød","26_27",-3,1,1,"Left_lead","Female","Male",0,0.246429423432605,1.02244237979532,0.0224423797953228,1,-0.515978455203089,1,0,"left"
"644","26_2",19,"26","Female",24,"Stim\r22y02g34b05.jpeg","Stim\r14y10g15b15.jpeg",22,14,2,10,34,15,5,15,-1,-1,1,1,0.972,1.597,2,"rød","26_27",-8,0,0,"Left_lead","Female","Male",0,0.27102778009198,1.10388100951312,0.10388100951312,1,-0.515978455203089,1,0,"left"
"649","26_2",25,"26","Female",24,"Stim\r03y03g02b05.jpeg","Stim\r09y15g18b07.jpeg",3,9,3,15,2,18,5,7,1,-1,1,0,1.249,2.357,2,"blå","26_27",2,1,0,"Left_lead","Female","Male",1,0.274246487226,1.0221037561548,0.0221037561547968,1,-0.515978455203089,1,0,"left"
"653","26_2",37,"26","Female",24,"Stim\r13y24g05b28.jpeg","Stim\r15y17g24b30.jpeg",13,15,24,17,5,24,28,30,2,1,1,1,1.867,1.566,2,"blå","26_27",2,1,1,"Left_lead","Female","Male",0,0.163686397209053,0.98634126567684,-0.01365873432316,2,1.89192100241133,2,1,"left"
"654","26_2",40,"26","Female",24,"Stim\r15y16g12b03.jpeg","Stim\r02y19g24b04.jpeg",15,2,16,19,12,24,3,4,1,-1,1,0,1.231,1.596,2,"blå","26_27",1,1,0,"Left_lead","Female","Male",1,0.162747062343335,1.01624556208468,0.0162455620846789,1,-0.515978455203089,0.5,-0.5,"left"
"655","26_2",43,"26","Female",24,"Stim\r07y02g03b06.jpeg","Stim\r03y03g02b05.jpeg",7,3,2,3,3,2,6,5,-1,-1,1,1,1.691,1.552,2,"blå","26_27",-1,0,0,"Left_lead","Female","Male",0,0.18464000239522,1.11851614235206,0.118516142352063,1,-0.515978455203089,1,0,"left"
"658","26_2",48,"26","Female",24,"Stim\r07y14g27b22.jpeg","Stim\r13y33g08b23.jpeg",7,13,14,33,27,8,22,23,2,1,1,1,1.669,1.74,2,"blå","26_27",1,1,1,"Left_lead","Female","Male",0,0.21973062589548,1.11183774887916,0.111837748879157,2,1.89192100241133,2,1,"left"
"660","26_2",56,"26","Female",24,"Stim\r15y17g24b30.jpeg","Stim\r13y21g23b09.jpeg",15,13,17,21,24,23,30,9,1,-1,1,0,1.244,1.623,2,"gul","26_27",4,1,0,"Left_lead","Female","Male",1,0.18863539575849,1.04128953286262,0.0412895328626233,1,-0.515978455203089,0.333333333333333,-0.666666666666667,"left"
"661","26_2",61,"26","Female",24,"Stim\r16y21g04b04.jpeg","Stim\r09y17g32b21.jpeg",16,9,21,17,4,32,4,21,1,-1,0,1,1.022,1.26,2,"gul","26_27",-4,1,0,"Left_lead","Female","Male",1,0.213850390671021,1.05650602143515,0.0565060214351487,1,-0.515978455203089,0.5,-0.5,"left"
"663","26_2",66,"26","Female",24,"Stim\r14y10g15b15.jpeg","Stim\r11y14g08b23.jpeg",14,11,10,14,15,8,15,23,-1,1,0,1,1.414,1.977,2,"gul","26_27",4,0,1,"Left_lead","Female","Male",1,0.25345492612935,1.14155149577665,0.141551495776652,1,-0.515978455203089,0.25,-0.75,"left"
"666","26_2",74,"26","Female",24,"Stim\r06y14g31b25.jpeg","Stim\r09y17g32b21.jpeg",6,9,14,17,31,32,25,21,-2,1,0,1,1.559,1.998,2,"grøn","26_27",1,0,1,"Left_lead","Female","Male",1,0.20524678893578,1.01714099930796,0.0171409993079619,2,1.89192100241133,0.666666666666667,-0.333333333333333,"left"
"668","26_2",76,"26","Female",24,"Stim\r08y09g09b11.jpeg","Stim\r11y10g06b19.jpeg",8,11,9,10,9,6,11,19,2,1,0,0,1.808,2.627,2,"grøn","26_27",-3,1,1,"Left_lead","Female","Male",0,0.212187924048435,1.02888415687517,0.0288841568751681,2,1.89192100241133,1,0,"left"
"669","26_2",78,"26","Female",24,"Stim\r10y07g11b10.jpeg","Stim\r15y16g12b03.jpeg",10,15,7,16,11,12,10,3,2,1,1,1,1.776,2.248,2,"grøn","26_27",1,1,1,"Left_lead","Female","Male",0,0.181161389160285,0.961217415353269,-0.0387825846467308,2,1.89192100241133,2,1,"left"
"672","26_2",84,"26","Female",24,"Stim\r06y19g29b08.jpeg","Stim\r04y28g27b06.jpeg",6,4,19,28,29,27,8,6,-1,1,1,0,1.579,1.292,2,"grøn","26_27",-2,0,1,"Left_lead","Female","Male",1,0.178738317873855,0.916267135096083,-0.0837328649039174,1,-0.515978455203089,0.333333333333333,-0.666666666666667,"left"
"674","26_2",86,"26","Female",24,"Stim\r22y02g34b05.jpeg","Stim\r17y11g38b07.jpeg",22,17,2,11,34,38,5,7,1,-1,1,0,1.815,1.75,2,"grøn","26_27",4,1,0,"Left_lead","Female","Male",1,0.15854315283195,0.83875947706461,-0.16124052293539,1,-0.515978455203089,1,0,"left"
"678","26_2",92,"26","Female",24,"Stim\r14y08g21b39.jpeg","Stim\r15y17g24b30.jpeg",14,15,8,17,21,24,39,30,-1,1,0,1,1.633,1.334,2,"grøn","26_27",3,0,1,"Left_lead","Female","Male",1,0.245781183541225,0.990702312267169,-0.00929768773283102,1,-0.515978455203089,0.333333333333333,-0.666666666666667,"left"
"681","26_1",13,"26","Female",24,"Stim\r12y07g16b25.jpeg","Stim\r14y10g15b15.jpeg",12,14,7,10,16,15,25,15,-1,1,0,1,2.612,3.768,1,"rød","26_28",2,0,1,"Left_lead","Female","Female",1,0.20950794380506,1.00131724908872,0.001317249088715,1,-0.839719122759632,1,0,"left"
"687","26_1",34,"26","Female",24,"Stim\r17y20g40b07.jpeg","Stim\r15y16g12b03.jpeg",17,15,20,16,40,12,7,3,-2,-1,1,1,1.393,2.948,1,"blå","26_28",-4,0,0,"Left_lead","Female","Female",0,0.19380892061356,0.953487218004895,-0.0465127819951047,2,1.14507153103586,2,1,"left"
"688","26_1",35,"26","Female",24,"Stim\r17y07g07b24.jpeg","Stim\r09y17g32b21.jpeg",17,9,7,17,7,32,24,21,2,1,0,0,1.914,3.364,1,"blå","26_28",-3,1,1,"Left_lead","Female","Female",0,0.175431059322314,0.984464857805759,-0.0155351421942407,2,1.14507153103586,1,0,"left"
"690","26_1",42,"26","Female",24,"Stim\r16y21g04b04.jpeg","Stim\r21y31g06b08.jpeg",16,21,21,31,4,6,4,8,2,1,1,1,1.464,2.031,1,"blå","26_28",4,1,1,"Left_lead","Female","Female",0,0.155150597723222,0.931243711298641,-0.0687562887013587,2,1.14507153103586,2,1,"left"
"692","26_1",51,"26","Female",24,"Stim\r08y23g10b29.jpeg","Stim\r17y20g40b07.jpeg",8,17,23,20,10,40,29,7,2,1,0,0,1.426,3.101,1,"gul","26_28",-3,1,1,"Left_lead","Female","Female",0,0.21796866540515,1.21315519244361,0.213155192443612,2,1.14507153103586,2,1,"left"
"694","26_1",53,"26","Female",24,"Stim\r15y16g12b03.jpeg","Stim\r22y23g20b06.jpeg",15,22,16,23,12,20,3,6,1,1,1,1,1.898,2.401,1,"gul","26_28",7,1,1,"Left_lead","Female","Female",0,0.187189738949445,1.07023627476989,0.0702362747698932,1,-0.839719122759632,1,0,"left"
"695","26_1",63,"26","Female",24,"Stim\r14y12g04b29.jpeg","Stim\r11y14g08b23.jpeg",14,11,12,14,4,8,29,23,2,1,1,1,1.257,1.867,1,"gul","26_28",2,1,1,"Left_lead","Female","Female",0,0.24826527819385,1.05159906672844,0.0515990667284407,2,1.14507153103586,2,1,"left"
"696","26_1",64,"26","Female",24,"Stim\r15y17g24b30.jpeg","Stim\r06y19g29b08.jpeg",15,6,17,19,24,29,30,8,2,1,1,1,1.43,2.663,1,"gul","26_28",2,1,1,"Left_lead","Female","Female",0,0.269106691624955,1.09686149489943,0.096861494899432,2,1.14507153103586,2,1,"left"
"701","26_1",75,"26","Female",24,"Stim\r05y40g33b16.jpeg","Stim\r06y19g29b08.jpeg",5,6,40,19,33,29,16,8,-1,1,1,0,1.051,3.341,1,"grøn","26_28",-4,0,1,"Left_lead","Female","Female",1,0.20915463374447,0.988060176813897,-0.0119398231861026,1,-0.839719122759632,1,0,"left"
"702","26_1",78,"26","Female",24,"Stim\r20y14g02b19.jpeg","Stim\r11y14g08b23.jpeg",20,11,14,14,2,8,19,23,1,1,1,1,0.842,2.03,1,"grøn","26_28",6,1,1,"Left_lead","Female","Female",0,0.176197097780175,0.947502505864086,-0.0524974941359141,1,-0.839719122759632,1,0,"left"
"704","26_1",83,"26","Female",24,"Stim\r08y23g10b29.jpeg","Stim\r11y14g08b23.jpeg",8,11,23,14,10,8,29,23,1,-1,0,1,2.202,1.698,1,"grøn","26_28",-2,1,0,"Left_lead","Female","Female",1,0.162541538394365,0.828410378297477,-0.171589621702523,1,-0.839719122759632,1,0,"left"
"707","30_1",15,"30","Female",24,"Stim\r17y11g38b07.jpeg","Stim\r21y24g16b04.jpeg",17,21,11,24,38,16,7,4,-2,1,0,1,4.56,2.787,1,"rød","30_31",4,0,1,"Left_lead","Female","Male",1,0.24355198093955,1.04382695472431,0.0438269547243144,2,0.158113883008419,0.5,-0.5,"left"
"714","30_1",29,"30","Female",24,"Stim\r13y21g23b09.jpeg","Stim\r06y19g29b08.jpeg",13,6,21,19,23,29,9,8,2,1,0,0,3.323,3.684,1,"blå","30_31",-1,1,1,"Left_lead","Female","Male",0,0.23408382391997,0.964959189608161,-0.0350408103918395,2,0.158113883008419,2,1,"left"
"720","30_1",35,"30","Female",24,"Stim\r10y13g07b36.jpeg","Stim\r11y26g25b38.jpeg",10,11,13,26,7,25,36,38,2,-1,1,0,3.127,4.829,1,"blå","30_31",2,1,0,"Left_lead","Female","Male",1,0.160457454696405,0.892581157113789,-0.107418842886211,2,0.158113883008419,1,0,"left"
"721","30_1",39,"30","Female",24,"Stim\r17y20g40b07.jpeg","Stim\r16y09g06b10.jpeg",17,16,20,9,40,6,7,10,2,-1,1,0,2.973,3.468,1,"blå","30_31",3,1,0,"Left_lead","Female","Male",1,0.15087063119509,0.991124475988221,-0.00887552401177882,2,0.158113883008419,0.666666666666667,-0.333333333333333,"left"
"722","30_1",42,"30","Female",24,"Stim\r14y20g16b10.jpeg","Stim\r09y15g18b07.jpeg",14,9,20,15,16,18,10,7,-2,1,1,0,1.606,4.664,1,"blå","30_31",-3,0,1,"Left_lead","Female","Male",1,0.166231012989016,1.01453746242196,0.0145374624219596,2,0.158113883008419,0.666666666666667,-0.333333333333333,"left"
"723","30_1",43,"30","Female",24,"Stim\r06y14g31b25.jpeg","Stim\r09y17g32b21.jpeg",6,9,14,17,31,32,25,21,2,-1,0,1,5.1,9.659,1,"blå","30_31",-4,1,0,"Left_lead","Female","Male",1,0.166045544864075,0.985195621033622,-0.0148043789663784,2,0.158113883008419,0.666666666666667,-0.333333333333333,"left"
"728","30_1",50,"30","Female",24,"Stim\r21y24g16b04.jpeg","Stim\r15y16g12b03.jpeg",21,15,24,16,16,12,4,3,2,-1,0,1,2.234,3.8,1,"gul","30_31",-8,1,0,"Left_lead","Female","Male",1,0.1841565987635,1.01396767451905,0.0139676745190476,2,0.158113883008419,1,0,"left"
"729","30_1",52,"30","Female",24,"Stim\r16y21g04b04.jpeg","Stim\r14y20g16b10.jpeg",16,14,21,20,4,16,4,10,2,-1,0,1,2.152,4.77,1,"gul","30_31",-1,1,0,"Left_lead","Female","Male",1,0.15004237319138,0.819839645311876,-0.180160354688124,2,0.158113883008419,0.666666666666667,-0.333333333333333,"left"
"730","30_1",54,"30","Female",24,"Stim\r10y03g03b07.jpeg","Stim\r22y02g34b05.jpeg",10,22,3,2,3,34,7,5,-2,1,1,0,1.719,5.633,1,"gul","30_31",-1,0,1,"Left_lead","Female","Male",1,0.167456994675275,0.927751490310445,-0.0722485096895554,2,0.158113883008419,1,0,"left"
"731","30_1",59,"30","Female",24,"Stim\r13y21g23b09.jpeg","Stim\r08y23g10b29.jpeg",13,8,21,23,23,10,9,29,-2,1,0,1,3.69,5.888,1,"gul","30_31",2,0,1,"Left_lead","Female","Male",1,0.169197761592243,0.911951221932377,-0.088048778067623,2,0.158113883008419,1,0,"left"
"733","30_1",62,"30","Female",24,"Stim\r13y33g08b23.jpeg","Stim\r10y37g07b02.jpeg",13,10,33,37,8,7,23,2,2,-1,1,0,2.658,3.24,1,"gul","30_31",4,1,0,"Left_lead","Female","Male",1,0.20413585839285,0.938463441120114,-0.0615365588798861,2,0.158113883008419,0.666666666666667,-0.333333333333333,"left"
"734","30_1",65,"30","Female",24,"Stim\r10y02g36b05.jpeg","Stim\r21y03g15b37.jpeg",10,21,2,3,36,15,5,37,3,-1,1,0,2.359,6.742,1,"gul","30_31",1,1,0,"Left_lead","Female","Male",1,0.20235920858757,0.929724345066675,-0.0702756549333247,3,2.26629898978734,1.5,0.5,"left"
"737","30_1",72,"30","Female",24,"Stim\r11y14g08b23.jpeg","Stim\r12y07g07b17.jpeg",11,12,14,7,8,7,23,17,2,-1,0,1,2.044,3.256,1,"gul","30_31",-7,1,0,"Left_lead","Female","Male",1,0.21851435010348,1.03430003438651,0.0343000343865132,2,0.158113883008419,0.666666666666667,-0.333333333333333,"left"
"738","30_1",82,"30","Female",24,"Stim\r07y14g27b22.jpeg","Stim\r06y14g31b25.jpeg",7,6,14,14,27,31,22,25,2,-1,1,0,3.745,3.446,1,"grøn","30_31",4,1,0,"Left_lead","Female","Male",1,0.22980262664697,1.16260723551998,0.162607235519981,2,0.158113883008419,1,0,"left"
"739","30_1",85,"30","Female",24,"Stim\r10y37g07b02.jpeg","Stim\r11y14g08b23.jpeg",10,11,37,14,7,8,2,23,-1,1,0,1,1.155,3.068,1,"grøn","30_31",1,0,1,"Left_lead","Female","Male",1,0.182472739159417,1.02616073011584,0.0261607301158362,1,-1.9500712237705,1,0,"left"
"747","29_2",16,"29","Male",23,"Stim\r21y03g15b37.jpeg","Stim\r22y02g34b05.jpeg",21,22,3,2,15,34,37,5,3,-1,1,0,1.891,1.414,2,"rød","29_31",1,1,0,"Left_lead","Male","Male",1,0.222439048764459,0.977396051601257,-0.0226039483987426,3,0.254588394565053,1.5,0.5,"left"
"748","29_2",19,"29","Male",23,"Stim\r20y14g02b19.jpeg","Stim\r21y01g04b27.jpeg",20,21,14,1,2,4,19,27,-4,-1,0,0,1.923,1.613,2,"rød","29_31",1,0,0,"Left_lead","Male","Male",0,0.2320073734164,0.961386945471679,-0.0386130545283208,4,1.24465437342915,2,1,"left"
"752","29_2",25,"29","Male",23,"Stim\r12y07g07b17.jpeg","Stim\r17y22g16b15.jpeg",12,17,7,22,7,16,17,15,2,-1,0,1,1.803,1.546,2,"blå","29_31",-2,1,0,"Left_lead","Male","Male",1,0.270672287668402,1.00073839483516,0.000738394835162026,2,-0.735477584299042,0.666666666666667,-0.333333333333333,"left"
"755","29_2",29,"29","Male",23,"Stim\r18y19g14b27.jpeg","Stim\r11y10g06b19.jpeg",18,11,19,10,14,6,27,19,-4,-1,1,1,1.514,1.546,2,"blå","29_31",-8,0,0,"Left_lead","Male","Male",0,0.243499057718342,1.00112095691528,0.00112095691527614,4,1.24465437342915,4,3,"left"
"756","29_2",31,"29","Male",23,"Stim\r15y16g12b03.jpeg","Stim\r22y23g20b06.jpeg",15,22,16,23,12,20,3,6,1,-1,1,0,1.549,1.632,2,"blå","29_31",3,1,0,"Left_lead","Male","Male",1,0.212318818543426,0.936913579406709,-0.0630864205932912,1,-1.72554356316314,0.333333333333333,-0.666666666666667,"left"
"758","29_2",35,"29","Male",23,"Stim\r09y07g06b09.jpeg","Stim\r22y35g09b11.jpeg",9,22,7,35,6,9,9,11,3,1,1,1,1.617,1.944,2,"blå","29_31",2,1,1,"Left_lead","Male","Male",0,0.181091338604986,1.0009108527565,0.000910852756498493,3,0.254588394565053,1,0,"left"
"759","29_2",36,"29","Male",23,"Stim\r03y06g12b09.jpeg","Stim\r22y02g34b05.jpeg",3,22,6,2,12,34,9,5,2,-1,0,1,1.227,2.712,2,"blå","29_31",-4,1,0,"Left_lead","Male","Male",1,0.174749921958864,1.07822409596513,0.0782240959651286,2,-0.735477584299042,1,0,"left"
"767","29_2",55,"29","Male",23,"Stim\r09y06g26b32.jpeg","Stim\r05y09g02b34.jpeg",9,5,6,9,26,2,32,34,4,1,1,1,1.657,1.432,2,"gul","29_31",3,1,1,"Left_lead","Male","Male",0,0.18325141494291,1.02199098921624,0.0219909892162431,4,1.24465437342915,1.33333333333333,0.333333333333333,"left"
"768","29_2",63,"29","Male",23,"Stim\r09y15g18b07.jpeg","Stim\r09y17g32b21.jpeg",9,9,15,17,18,32,7,21,4,1,1,1,2.006,1.915,2,"gul","29_31",2,1,1,"Left_lead","Male","Male",0,0.24712002295315,1.03847331338106,0.0384733133810604,4,1.24465437342915,1.33333333333333,0.333333333333333,"left"
"769","29_2",64,"29","Male",23,"Stim\r14y20g16b10.jpeg","Stim\r13y24g05b28.jpeg",14,13,20,24,16,5,10,28,2,-1,1,0,1.675,1.363,2,"gul","29_31",4,1,0,"Left_lead","Male","Male",1,0.2465929791526,0.993500188007485,-0.00649981199251504,2,-0.735477584299042,0.666666666666667,-0.333333333333333,"left"
"770","29_2",67,"29","Male",23,"Stim\r05y09g02b34.jpeg","Stim\r14y08g21b39.jpeg",5,14,9,8,2,21,34,39,3,-1,0,1,1.468,1.732,2,"gul","29_31",-1,1,0,"Left_lead","Male","Male",1,0.21221484615865,0.847599967547129,-0.152400032452871,3,0.254588394565053,0.75,-0.25,"left"
"771","29_2",68,"29","Male",23,"Stim\r09y17g32b21.jpeg","Stim\r06y14g31b25.jpeg",9,6,17,14,32,31,21,25,3,1,0,0,1.493,1.295,2,"gul","29_31",-3,1,1,"Left_lead","Male","Male",0,0.2076479847147,0.809402154701064,-0.190597845298936,3,0.254588394565053,1,0,"left"
"777","29_2",80,"29","Male",23,"Stim\r07y02g03b06.jpeg","Stim\r03y11g01b26.jpeg",7,3,2,11,3,1,6,26,-4,-1,1,1,2.197,1.763,2,"grøn","29_31",-2,0,0,"Left_lead","Male","Male",0,0.199182044496935,1.02857218450255,0.0285721845025488,4,1.24465437342915,1.33333333333333,0.333333333333333,"left"
"779","29_2",88,"29","Male",23,"Stim\r17y22g16b15.jpeg","Stim\r12y12g14b26.jpeg",17,12,22,12,16,14,15,26,2,1,0,0,1.108,3.77,2,"grøn","29_31",-2,1,1,"Left_lead","Male","Male",0,0.22852082763537,0.969829420459289,-0.0301705795407113,2,-0.735477584299042,2,1,"left"
"780","29_2",94,"29","Male",23,"Stim\r06y19g29b08.jpeg","Stim\r04y28g27b06.jpeg",6,4,19,28,29,27,8,6,2,-1,0,1,0.877,1.384,2,"grøn","29_31",-2,1,0,"Left_lead","Male","Male",1,0.27408925304922,1.08889215565669,0.088892155656686,2,-0.735477584299042,0.666666666666667,-0.333333333333333,"left"
"783","29_1",20,"29","Male",23,"Stim\r15y17g24b30.jpeg","Stim\r08y09g09b11.jpeg",15,8,17,9,24,9,30,11,4,-1,0,1,2.099,2.144,1,"rød","29_32",-7,1,0,"Left_lead","Male","Female",1,0.246440984618165,1.0467774306852,0.0467774306852027,4,1.31417111385123,1.33333333333333,0.333333333333333,"left"
"786","29_1",25,"29","Male",23,"Stim\r09y02g05b02.jpeg","Stim\r08y23g10b29.jpeg",9,8,2,23,5,10,2,29,2,-1,0,1,2.502,3.013,1,"rød","29_32",-1,1,0,"Left_lead","Male","Female",1,0.264369211639681,0.972815040468069,-0.0271849595319307,2,-0.535403046383835,0.5,-0.5,"left"
"789","29_1",28,"29","Male",23,"Stim\r09y06g26b32.jpeg","Stim\r11y13g22b35.jpeg",9,11,6,13,26,22,32,35,-1,1,0,1,2.363,2.492,1,"blå","29_32",3,0,1,"Left_lead","Male","Female",1,0.24161501841815,0.943883745448063,-0.0561162545519373,1,-1.46019012650137,0.25,-0.75,"left"
"790","29_1",29,"29","Male",23,"Stim\r11y14g08b23.jpeg","Stim\r21y01g04b27.jpeg",11,21,14,1,8,4,23,27,4,1,1,1,1.94,1.511,1,"blå","29_32",4,1,1,"Left_lead","Male","Female",0,0.233152200809482,0.949727502582413,-0.0502724974175871,4,1.31417111385123,1.33333333333333,0.333333333333333,"left"
"793","29_1",32,"29","Male",23,"Stim\r18y19g14b27.jpeg","Stim\r06y14g31b25.jpeg",18,6,19,14,14,31,27,25,-2,-1,1,1,2.143,2.876,1,"blå","29_32",-2,0,0,"Left_lead","Male","Female",0,0.2185076620186,0.94528611093303,-0.0547138890669696,2,-0.535403046383835,0.666666666666667,-0.333333333333333,"left"
"795","29_1",40,"29","Male",23,"Stim\r07y02g03b06.jpeg","Stim\r15y16g12b03.jpeg",7,15,2,16,3,12,6,3,2,-1,0,1,1.802,1.485,1,"blå","29_32",-3,1,0,"Left_lead","Male","Female",1,0.157394141321229,1.00008501296033,8.50129603264804e-05,2,-0.535403046383835,2,1,"left"
"796","29_1",48,"29","Male",23,"Stim\r06y36g16b14.jpeg","Stim\r04y39g24b15.jpeg",6,4,36,39,16,24,14,15,-4,1,0,1,2.461,1.675,1,"blå","29_32",1,0,1,"Left_lead","Male","Female",1,0.19327578957021,1.00036475517972,0.000364755179721454,4,1.31417111385123,1.33333333333333,0.333333333333333,"left"
"797","29_1",50,"29","Male",23,"Stim\r08y23g10b29.jpeg","Stim\r14y20g16b10.jpeg",8,14,23,20,10,16,29,10,2,1,0,0,1.708,1.893,1,"gul","29_32",-3,1,1,"Left_lead","Male","Female",0,0.19353092858537,1.08063938616285,0.08063938616285,2,-0.535403046383835,1,0,"left"
"799","29_1",59,"29","Male",23,"Stim\r21y03g15b37.jpeg","Stim\r09y06g26b32.jpeg",21,9,3,6,15,26,37,32,3,1,1,1,1.342,1.448,1,"gul","29_32",3,1,1,"Left_lead","Male","Female",0,0.199273109035699,1.0697947853759,0.0697947853758984,3,0.389384033733698,1.5,0.5,"left"
"802","29_1",64,"29","Male",23,"Stim\r08y09g09b11.jpeg","Stim\r07y06g08b05.jpeg",8,7,9,6,9,8,11,5,-2,1,1,0,1.766,4.396,1,"gul","29_32",-3,0,1,"Left_lead","Male","Female",1,0.27265515453835,1.10084139039306,0.100841390393055,2,-0.535403046383835,1,0,"left"
"805","29_1",71,"29","Male",23,"Stim\r15y16g12b03.jpeg","Stim\r06y14g31b25.jpeg",15,6,16,14,12,31,3,25,2,-1,0,1,2.83,2.163,1,"gul","29_32",-2,1,0,"Left_lead","Male","Female",1,0.22293418782804,0.999535214815737,-0.000464785184263294,2,-0.535403046383835,0.5,-0.5,"left"
"808","29_1",79,"29","Male",23,"Stim\r07y14g27b22.jpeg","Stim\r04y39g24b15.jpeg",7,4,14,39,27,24,22,15,3,1,0,0,1.715,2.107,1,"grøn","29_32",-3,1,1,"Left_lead","Male","Female",0,0.19935106869066,1.05378929680026,0.0537892968002562,3,0.389384033733698,0.75,-0.25,"left"
"810","29_1",80,"29","Male",23,"Stim\r14y10g15b15.jpeg","Stim\r15y05g12b10.jpeg",14,15,10,5,15,12,15,10,1,1,0,0,1.994,5.364,1,"grøn","29_32",-3,1,1,"Left_lead","Male","Female",0,0.210220094143285,1.08483044976365,0.0848304497636532,1,-1.46019012650137,1,0,"left"
"813","29_1",84,"29","Male",23,"Stim\r19y10g06b15.jpeg","Stim\r12y07g07b17.jpeg",19,12,10,7,6,7,15,17,-1,1,0,1,3.816,4.146,1,"grøn","29_32",1,0,1,"Left_lead","Male","Female",1,0.1901612725299,0.968589696710091,-0.0314103032899092,1,-1.46019012650137,1,0,"left"
"816","29_1",91,"29","Male",23,"Stim\r04y28g27b06.jpeg","Stim\r09y15g18b07.jpeg",4,9,28,15,27,18,6,7,3,-1,0,1,1.696,2.015,1,"grøn","29_32",-9,1,0,"Left_lead","Male","Female",1,0.25755326795237,1.04820495437085,0.0482049543708469,3,0.389384033733698,0.75,-0.25,"left"
"821","30_2",12,"30","Female",24,"Stim\r17y22g16b15.jpeg","Stim\r10y13g07b36.jpeg",17,10,22,13,16,7,15,36,-1,1,1,0,1.7,4.575,2,"rød","30_32",-7,0,1,"Left_lead","Female","Female",1,0.195923078527572,0.956150379476291,-0.0438496205237091,1,-1.39044357430761,1,0,"left"
"823","30_2",16,"30","Female",24,"Stim\r05y28g23b30.jpeg","Stim\r03y06g12b09.jpeg",5,3,28,6,23,12,30,9,-2,1,1,0,1.549,4.219,2,"rød","30_32",-2,0,1,"Left_lead","Female","Female",1,0.21785899622066,0.945238709150376,-0.054761290849624,2,0.695221787153807,1,0,"left"
