thearol/gender_bias_in_decision_making/Gender_bias_study_2/data/disagree_sensitivity_GBDM_long_format.csv
"","SubjectID_unique","Trial","SubjectID","Gender","Age","Image_1","Image_2","Prop_red_image_1","Prop_red_image_2","Prop_yellow_image_1","Prop_yellow_image_2","Prop_green_image_1","Prop_green_image_2","Prop_blue_image_1","Prop_blue_image_2","Response","Joint","Correct","Correct_joint","RT","RT_joint","Round","Block","group_id","diff","response_dummy","response_joint_dummy","chosen_leader","Leader_gender","Follower_gender","leader_behavior","Sensitivity_roll","skill_dif_roll","skill_dif_roll_c","Response_abs","z_Response_abs","conf_dif","conf_dif_c","Side"
"3","3_1",13,"3","Male",24,"Stim\r07y02g03b06.jpeg","Stim\r14y12g04b29.jpeg",7,14,2,12,3,4,6,29,-2,1,0,1,1.989,4.514,1,"rød","3_1",7,0,1,"Left_lead","Male","Male",1,0.191763087160764,1.03902212924457,0.0390221292445669,2,-0.267273026697222,1,0,"left"
"4","3_1",15,"3","Male",24,"Stim\r13y33g08b23.jpeg","Stim\r11y13g22b35.jpeg",13,11,33,13,8,22,23,35,2,1,0,0,1.078,1.666,1,"rød","3_1",-2,1,1,"Left_lead","Male","Male",0,0.210112072425785,1.01608815457772,0.0160881545777241,2,-0.267273026697222,2,1,"left"
"6","3_1",17,"3","Male",24,"Stim\r08y09g09b11.jpeg","Stim\r09y06g26b32.jpeg",8,9,9,6,9,26,11,32,2,-1,1,0,1.457,1.951,1,"rød","3_1",1,1,0,"Left_lead","Male","Male",1,0.201444147791859,1.0399443180593,0.0399443180593011,2,-0.267273026697222,1,0,"left"
"7","3_1",19,"3","Male",24,"Stim\r14y12g04b29.jpeg","Stim\r13y33g08b23.jpeg",14,13,12,33,4,8,29,23,2,-1,0,1,1.322,3.525,1,"rød","3_1",-1,1,0,"Left_lead","Male","Male",1,0.205713448587695,0.943538141331417,-0.0564618586685833,2,-0.267273026697222,1,0,"left"
"10","3_1",22,"3","Male",24,"Stim\r21y03g15b37.jpeg","Stim\r18y13g28b06.jpeg",21,18,3,13,15,28,37,6,3,1,0,0,1.607,1.824,1,"rød","3_1",-3,1,1,"Left_lead","Male","Male",0,0.216996088159063,0.928063256264684,-0.0719367437353156,3,0.75727357564213,1.5,0.5,"left"
"11","3_1",23,"3","Male",24,"Stim\r18y19g14b27.jpeg","Stim\r19y10g06b15.jpeg",18,19,19,10,14,6,27,15,1,-1,1,0,1.577,1.044,1,"rød","3_1",1,1,0,"Left_lead","Male","Male",1,0.230417268320538,0.967750182521576,-0.0322498174784239,1,-1.29181962903657,0.5,-0.5,"left"
"12","3_1",24,"3","Male",24,"Stim\r14y08g21b39.jpeg","Stim\r12y12g14b26.jpeg",14,12,8,12,21,14,39,26,2,-1,0,1,2.765,1.33,1,"rød","3_1",-2,1,0,"Left_lead","Male","Male",1,0.231151617317661,0.975087110271554,-0.0249128897284464,2,-0.267273026697222,1,0,"left"
"13","3_1",25,"3","Male",24,"Stim\r03y03g02b05.jpeg","Stim\r04y28g27b06.jpeg",3,4,3,28,2,27,5,6,4,1,1,1,1.327,1.14,1,"rød","3_1",1,1,1,"Left_lead","Male","Male",0,0.228692888341036,0.938711086814012,-0.0612889131859881,4,1.78182017798148,2,1,"left"
"15","3_1",29,"3","Male",24,"Stim\r12y07g07b17.jpeg","Stim\r09y17g32b21.jpeg",12,9,7,17,7,32,17,21,-2,1,0,1,2.47,1.474,1,"blå","3_1",4,0,1,"Left_lead","Male","Male",1,0.202837675607932,0.914322967425175,-0.0856770325748254,2,-0.267273026697222,0.666666666666667,-0.333333333333333,"left"
"16","3_1",33,"3","Male",24,"Stim\r21y31g06b08.jpeg","Stim\r22y35g09b11.jpeg",21,22,31,35,6,9,8,11,4,1,1,1,1.193,1.563,1,"blå","3_1",3,1,1,"Left_lead","Male","Male",0,0.205844129538261,0.993610059881042,-0.00638994011895844,4,1.78182017798148,2,1,"left"
"17","3_1",34,"3","Male",24,"Stim\r13y33g08b23.jpeg","Stim\r17y22g16b15.jpeg",13,17,33,22,8,16,23,15,-1,1,1,0,2.316,1.064,1,"blå","3_1",-8,0,1,"Left_lead","Male","Male",1,0.207715616063826,1.20272988634997,0.20272988634997,1,-1.29181962903657,0.5,-0.5,"left"
"18","3_1",35,"3","Male",24,"Stim\r11y10g06b19.jpeg","Stim\r09y17g32b21.jpeg",11,9,10,17,6,32,19,21,4,1,1,1,1.103,1.025,1,"blå","3_1",2,1,1,"Left_lead","Male","Male",0,0.212312153525641,1.59776381558388,0.597763815583876,4,1.78182017798148,2,1,"left"
"19","3_1",36,"3","Male",24,"Stim\r10y02g36b05.jpeg","Stim\r21y31g06b08.jpeg",10,21,2,31,36,6,5,8,2,-1,1,0,1.329,3.581,1,"blå","3_1",3,1,0,"Left_lead","Male","Male",1,0.203453805314691,1.51820821205982,0.518208212059823,2,-0.267273026697222,1,0,"left"
"20","3_1",37,"3","Male",24,"Stim\r09y06g26b32.jpeg","Stim\r03y11g01b26.jpeg",9,3,6,11,26,1,32,26,3,1,0,0,1.549,1.316,1,"blå","3_1",-6,1,1,"Left_lead","Male","Male",0,0.171881532738348,1.10177654862338,0.101776548623376,3,0.75727357564213,1.5,0.5,"left"
"21","3_1",41,"3","Male",24,"Stim\r09y17g32b21.jpeg","Stim\r20y14g02b19.jpeg",9,20,17,14,32,2,21,19,-3,-1,1,1,1.293,1.035,1,"blå","3_1",-2,0,0,"Left_lead","Male","Male",0,0.16041068011356,1.07889924809471,0.0788992480947099,3,0.75727357564213,3,2,"left"
"27","3_1",49,"3","Male",24,"Stim\r16y09g06b10.jpeg","Stim\r21y31g06b08.jpeg",16,21,9,31,6,6,10,8,1,-1,0,1,0.987,1.848,1,"blå","3_1",-2,1,0,"Left_lead","Male","Male",1,0.171638200913802,0.857494213913452,-0.142505786086548,1,-1.29181962903657,0.5,-0.5,"left"
"29","3_1",52,"3","Male",24,"Stim\r06y14g31b25.jpeg","Stim\r09y15g18b07.jpeg",6,9,14,15,31,18,25,7,3,1,1,1,1.654,1,1,"gul","3_1",1,1,1,"Left_lead","Male","Male",0,0.15489435095952,0.73426119141892,-0.26573880858108,3,0.75727357564213,3,2,"left"
"30","3_1",54,"3","Male",24,"Stim\r06y19g29b08.jpeg","Stim\r22y23g20b06.jpeg",6,22,19,23,29,20,8,6,2,-1,1,0,1.066,1.032,1,"gul","3_1",4,1,0,"Left_lead","Male","Male",1,0.173248817690233,0.880025413575863,-0.119974586424137,2,-0.267273026697222,0.666666666666667,-0.333333333333333,"left"
"34","3_1",68,"3","Male",24,"Stim\r04y39g24b15.jpeg","Stim\r13y33g08b23.jpeg",4,13,39,33,24,8,15,23,-4,-1,1,1,1.042,4.111,1,"gul","3_1",-6,0,0,"Left_lead","Male","Male",0,0.230304031978158,1.03822863966408,0.0382286396640785,4,1.78182017798148,1.33333333333333,0.333333333333333,"left"
"36","3_1",71,"3","Male",24,"Stim\r09y02g05b02.jpeg","Stim\r03y06g12b09.jpeg",9,3,2,6,5,12,2,9,-1,1,0,1,1.305,1.346,1,"gul","3_1",4,0,1,"Left_lead","Male","Male",1,0.24086213270283,1.25641992868778,0.256419928687776,1,-1.29181962903657,1,0,"left"
"37","3_1",74,"3","Male",24,"Stim\r11y10g06b19.jpeg","Stim\r05y09g02b34.jpeg",11,5,10,9,6,2,19,34,-2,-1,1,1,1.349,1.659,1,"grøn","3_1",-4,0,0,"Left_lead","Male","Male",0,0.244001368108592,1.07125049645164,0.0712504964516352,2,-0.267273026697222,2,1,"left"
"41","3_1",87,"3","Male",24,"Stim\r15y05g12b10.jpeg","Stim\r08y23g10b29.jpeg",15,8,5,23,12,10,10,29,-3,-1,1,1,1.011,1.38,1,"grøn","3_1",-2,0,0,"Left_lead","Male","Male",0,0.233971457557894,1.06772581839254,0.0677258183925356,3,0.75727357564213,1.5,0.5,"left"
"45","3_1",95,"3","Male",24,"Stim\r07y06g08b05.jpeg","Stim\r16y09g06b10.jpeg",7,16,6,9,8,6,5,10,-4,-1,1,1,1.435,0.868,1,"grøn","3_1",-2,0,0,"Left_lead","Male","Male",0,0.229724381760173,0.9789884680472,-0.0210115319528003,4,1.78182017798148,4,3,"left"
"47","4_2",13,"4","Female",23,"Stim\r05y40g33b16.jpeg","Stim\r04y16g13b13.jpeg",5,4,40,16,33,13,16,13,2,1,0,0,1.47,3.892,2,"rød","4_1",-1,1,1,"Left_lead","Female","Male",0,0.196617526417829,1.03540296479649,0.0354029647964909,2,-0.0770991079443883,2,1,"left"
"48","4_2",15,"4","Female",23,"Stim\r11y14g08b23.jpeg","Stim\r09y15g18b07.jpeg",11,9,14,15,8,18,23,7,-2,-1,1,1,1.539,3.311,2,"rød","4_1",-2,0,0,"Left_lead","Female","Male",0,0.218215740836279,1.01597195624497,0.0159719562449725,2,-0.0770991079443883,1,0,"left"
"50","4_2",28,"4","Female",23,"Stim\r10y07g11b10.jpeg","Stim\r10y03g03b07.jpeg",10,10,7,3,11,3,10,7,-2,1,1,0,1.933,3.532,2,"blå","4_1",-3,0,1,"Left_lead","Female","Male",1,0.220102461604016,1.21204521117712,0.212045211177117,2,-0.0770991079443883,0.666666666666667,-0.333333333333333,"left"
"52","4_2",36,"4","Female",23,"Stim\r21y01g04b27.jpeg","Stim\r15y17g24b30.jpeg",21,15,1,17,4,24,27,30,1,-1,1,0,1.821,5.512,2,"blå","4_1",3,1,0,"Left_lead","Female","Male",1,0.181338752603958,1.18138980222844,0.181389802228441,1,-1.04083795724924,0.333333333333333,-0.666666666666667,"left"
"55","4_2",43,"4","Female",23,"Stim\r12y09g30b18.jpeg","Stim\r11y10g06b19.jpeg",12,11,9,10,30,6,18,19,4,1,1,1,1.703,1.51,2,"blå","4_1",1,1,1,"Left_lead","Female","Male",0,0.154984594016455,1.04390322871122,0.0439032287112195,4,1.85037859066532,1.33333333333333,0.333333333333333,"left"
"57","4_2",49,"4","Female",23,"Stim\r22y35g09b11.jpeg","Stim\r13y33g08b23.jpeg",22,13,35,33,9,8,11,23,-1,1,1,0,2.159,4.01,2,"gul","4_1",-2,0,1,"Left_lead","Female","Male",1,0.198181949813423,1.08285839231099,0.0828583923109871,1,-1.04083795724924,0.5,-0.5,"left"
"59","4_2",57,"4","Female",23,"Stim\r09y15g18b07.jpeg","Stim\r17y12g19b18.jpeg",9,17,15,12,18,19,7,18,-2,-1,1,1,1.804,4.565,2,"gul","4_1",-3,0,0,"Left_lead","Female","Male",0,0.187239201939496,0.977324768815859,-0.0226752311841407,2,-0.0770991079443883,1,0,"left"
"60","4_2",58,"4","Female",23,"Stim\r10y03g03b07.jpeg","Stim\r03y06g12b09.jpeg",10,3,3,6,3,12,7,9,2,-1,1,0,2.34,2.205,2,"gul","4_1",3,1,0,"Left_lead","Female","Male",1,0.199405197024519,1.16482799047336,0.16482799047336,2,-0.0770991079443883,1,0,"left"
"64","4_2",72,"4","Female",23,"Stim\r03y11g01b26.jpeg","Stim\r08y12g20b03.jpeg",3,8,11,12,1,20,26,3,1,1,1,1,1.976,1.407,2,"gul","4_1",1,1,1,"Left_lead","Female","Male",0,0.231063999303357,0.958350723678666,-0.0416492763213342,1,-1.04083795724924,0.5,-0.5,"left"
"65","4_2",76,"4","Female",23,"Stim\r17y07g07b24.jpeg","Stim\r10y03g03b07.jpeg",17,10,7,3,7,3,24,7,-4,-1,1,1,1.57,1.267,2,"grøn","4_1",-4,0,0,"Left_lead","Female","Male",0,0.237134242128066,1.02299225507771,0.0229922550777091,4,1.85037859066532,2,1,"left"
"66","4_2",78,"4","Female",23,"Stim\r14y08g21b39.jpeg","Stim\r08y12g20b03.jpeg",14,8,8,12,21,20,39,3,1,1,0,0,1.022,1.394,2,"grøn","4_1",-1,1,1,"Left_lead","Female","Male",0,0.209432776735592,1.00150405743782,0.00150405743782267,1,-1.04083795724924,0.5,-0.5,"left"
"68","4_2",84,"4","Female",23,"Stim\r07y02g03b06.jpeg","Stim\r10y37g07b02.jpeg",7,10,2,37,3,7,6,2,-2,-1,0,0,1.665,2.355,2,"grøn","4_1",4,0,0,"Left_lead","Female","Male",0,0.205951261779677,1.00397369835951,0.00397369835951,2,-0.0770991079443883,0.666666666666667,-0.333333333333333,"left"
"69","4_2",90,"4","Female",23,"Stim\r10y07g11b10.jpeg","Stim\r18y19g14b27.jpeg",10,18,7,19,11,14,10,27,-2,1,0,1,1.827,2.359,2,"grøn","4_1",3,0,1,"Left_lead","Female","Male",1,0.246946847961767,0.96333291544753,-0.0366670845524696,2,-0.0770991079443883,0.666666666666667,-0.333333333333333,"left"
"71","4_2",95,"4","Female",23,"Stim\r07y14g27b22.jpeg","Stim\r12y09g30b18.jpeg",7,12,14,9,27,30,22,18,-1,1,0,1,1.625,2.853,2,"grøn","4_1",3,0,1,"Left_lead","Female","Male",1,0.235745484239072,1.0069256593654,0.00692565936539635,1,-1.04083795724924,0.333333333333333,-0.666666666666667,"left"
"73","9_1",16,"9","Male",23,"Stim\r14y10g15b15.jpeg","Stim\r15y05g12b10.jpeg",14,15,10,5,15,12,15,10,4,1,1,1,1.404,2.386,1,"rød","9_11",1,1,1,"Left_lead","Male","Male",0,0.212207772229472,1.05496542885125,0.0549654288512471,4,0.812167812143628,1,0,"left"
"76","9_1",22,"9","Male",23,"Stim\r05y40g33b16.jpeg","Stim\r08y23g10b29.jpeg",5,8,40,23,33,10,16,29,4,1,1,1,3.141,3.796,1,"rød","9_11",3,1,1,"Left_lead","Male","Male",0,0.23247492838211,1.04116333034097,0.041163330340968,4,0.812167812143628,2,1,"left"
"78","9_1",25,"9","Male",23,"Stim\r06y14g31b25.jpeg","Stim\r09y06g26b32.jpeg",6,9,14,6,31,26,25,32,4,1,1,1,1.843,1.916,1,"rød","9_11",3,1,1,"Left_lead","Male","Male",0,0.240996997755494,1.00017043505208,0.000170435052076146,4,0.812167812143628,1.33333333333333,0.333333333333333,"left"
"79","9_1",29,"9","Male",23,"Stim\r12y09g30b18.jpeg","Stim\r10y27g22b14.jpeg",12,10,9,27,30,22,18,14,4,-1,0,1,1.819,2.679,1,"blå","9_11",-4,1,0,"Left_lead","Male","Male",1,0.230875615382159,0.993887383785603,-0.00611261621439729,4,0.812167812143628,1.33333333333333,0.333333333333333,"left"
"83","9_1",34,"9","Male",23,"Stim\r17y20g40b07.jpeg","Stim\r09y07g06b09.jpeg",17,9,20,7,40,6,7,9,4,1,1,1,1.297,1.113,1,"blå","9_11",2,1,1,"Left_lead","Male","Male",0,0.220123006584433,1.18152534810471,0.181525348104715,4,0.812167812143628,2,1,"left"
"88","9_1",49,"9","Male",23,"Stim\r08y09g09b11.jpeg","Stim\r03y06g12b09.jpeg",8,3,9,6,9,12,11,9,3,1,0,0,0.99,1.346,1,"blå","9_11",-2,1,1,"Left_lead","Male","Male",0,0.167163190328442,0.989754474811187,-0.0102455251888131,3,-0.66884408058887,1.5,0.5,"left"
"89","9_1",54,"9","Male",23,"Stim\r15y16g12b03.jpeg","Stim\r02y19g24b04.jpeg",15,2,16,19,12,24,3,4,-3,-1,0,0,1.417,1.41,1,"gul","9_11",3,0,0,"Left_lead","Male","Male",0,0.163321304748306,0.946129410528618,-0.0538705894713822,3,-0.66884408058887,0.75,-0.25,"left"
"91","9_1",58,"9","Male",23,"Stim\r11y26g25b38.jpeg","Stim\r05y28g23b30.jpeg",11,5,26,28,25,23,38,30,-3,1,0,1,1.851,2.295,1,"gul","9_11",2,0,1,"Left_lead","Male","Male",1,0.202108716210629,0.827104647063584,-0.172895352936416,3,-0.66884408058887,0.75,-0.25,"left"
"92","9_1",59,"9","Male",23,"Stim\r09y15g18b07.jpeg","Stim\r08y12g20b03.jpeg",9,8,15,12,18,20,7,3,-4,-1,1,1,1.379,1.562,1,"gul","9_11",-3,0,0,"Left_lead","Male","Male",0,0.197349301231338,0.973355091733861,-0.026644908266139,4,0.812167812143628,2,1,"left"
"94","9_1",62,"9","Male",23,"Stim\r21y31g06b08.jpeg","Stim\r01y27g01b01.jpeg",21,1,31,27,6,1,8,1,-4,-1,1,1,2.077,2.793,1,"gul","9_11",-4,0,0,"Left_lead","Male","Male",0,0.231432128921065,1.16064246145778,0.160642461457776,4,0.812167812143628,1,0,"left"
"95","9_1",63,"9","Male",23,"Stim\r22y23g20b06.jpeg","Stim\r21y24g16b04.jpeg",22,21,23,24,20,16,6,4,-3,-1,0,0,1.632,1.272,1,"gul","9_11",1,0,0,"Left_lead","Male","Male",0,0.235096057671657,1.20670284602254,0.206702846022536,3,-0.66884408058887,1.5,0.5,"left"
"103","12_2",11,"12","Female",24,"Stim\r21y01g04b27.jpeg","Stim\r18y13g28b06.jpeg",21,18,1,13,4,28,27,6,1,-1,0,1,1.925,1.975,2,"rød","12_11",-3,1,0,"Left_lead","Female","Male",1,0.192693759392159,1.03960006210088,0.0396000621008796,1,-0.640961115694596,0.25,-0.75,"left"
"105","12_2",18,"12","Female",24,"Stim\r14y12g04b29.jpeg","Stim\r17y20g40b07.jpeg",14,17,12,20,4,40,29,7,1,-1,1,0,1.894,1.566,2,"rød","12_11",3,1,0,"Left_lead","Female","Male",1,0.214542649691081,0.926205945199326,-0.0737940548006738,1,-0.640961115694596,0.25,-0.75,"left"
"107","12_2",21,"12","Female",24,"Stim\r17y22g16b15.jpeg","Stim\r13y21g23b09.jpeg",17,13,22,21,16,23,15,9,1,-1,0,1,1.435,1.53,2,"rød","12_11",-4,1,0,"Left_lead","Female","Male",1,0.226054386741744,0.963535270662936,-0.0364647293370642,1,-0.640961115694596,0.25,-0.75,"left"
"111","12_2",29,"12","Female",24,"Stim\r07y06g08b05.jpeg","Stim\r18y13g28b06.jpeg",7,18,6,13,8,28,5,6,1,-1,1,0,1.567,1.963,2,"blå","12_11",1,1,0,"Left_lead","Female","Male",1,0.199285425761032,0.743550783835033,-0.256449216164967,1,-0.640961115694596,0.25,-0.75,"left"
"114","12_2",35,"12","Female",24,"Stim\r11y13g22b35.jpeg","Stim\r21y03g15b37.jpeg",11,21,13,3,22,15,35,37,-1,1,0,1,1.622,1.614,2,"blå","12_11",2,0,1,"Left_lead","Female","Male",1,0.171273329342782,0.676888639934589,-0.323111360065411,1,-0.640961115694596,0.25,-0.75,"left"
"123","12_2",58,"12","Female",24,"Stim\r04y28g27b06.jpeg","Stim\r10y27g22b14.jpeg",4,10,28,27,27,22,6,14,-3,1,1,0,1.434,2.728,2,"gul","12_11",-1,0,1,"Left_lead","Female","Male",1,0.193901807046794,1.37653581896145,0.376535818961452,3,1.63801174010841,0.75,-0.25,"left"
"124","12_2",72,"12","Female",24,"Stim\r13y24g05b28.jpeg","Stim\r10y27g22b14.jpeg",13,10,24,27,5,22,28,14,-1,1,0,1,0.957,2.431,2,"gul","12_11",3,0,1,"Left_lead","Female","Male",1,0.232304628385037,0.961241150187615,-0.0387588498123845,1,-0.640961115694596,0.25,-0.75,"left"
"127","12_2",76,"12","Female",24,"Stim\r20y04g39b23.jpeg","Stim\r17y20g40b07.jpeg",20,17,4,20,39,40,23,7,-2,1,0,1,0.88,2.295,2,"grøn","12_11",1,0,1,"Left_lead","Female","Male",1,0.240889005229919,1.03508419399741,0.0350841939974074,2,0.498525312206908,0.5,-0.5,"left"
"128","12_2",78,"12","Female",24,"Stim\r04y28g27b06.jpeg","Stim\r09y06g26b32.jpeg",4,9,28,6,27,26,6,32,-2,1,1,0,1.783,1.71,2,"grøn","12_11",-1,0,1,"Left_lead","Female","Male",1,0.207212910701587,0.998225656340407,-0.00177434365959317,2,0.498525312206908,0.5,-0.5,"left"
"132","12_2",87,"12","Female",24,"Stim\r18y19g14b27.jpeg","Stim\r04y16g13b13.jpeg",18,4,19,16,14,13,27,13,2,1,0,0,1.37,4.438,2,"grøn","12_11",-1,1,1,"Left_lead","Female","Male",0,0.23386559450319,1.09777665153377,0.0977766515337732,2,0.498525312206908,0.666666666666667,-0.333333333333333,"left"
"136","10_1",10,"10","Female",26,"Stim\r09y17g32b21.jpeg","Stim\r10y37g07b02.jpeg",9,10,17,37,32,7,21,2,2,-1,1,0,4.776,13.944,1,"rød","10_12",1,1,0,"Left_lead","Female","Female",1,0.181307499327251,0.861327556816496,-0.138672443183504,2,-0.169106025888688,0.666666666666667,-0.333333333333333,"left"
"137","10_1",14,"10","Female",26,"Stim\r12y07g07b17.jpeg","Stim\r08y23g10b29.jpeg",12,8,7,23,7,10,17,29,2,1,0,0,1.295,3.564,1,"rød","10_12",-4,1,1,"Left_lead","Female","Female",0,0.189717521215171,0.915936590181696,-0.0840634098183036,2,-0.169106025888688,1,0,"left"
"138","10_1",15,"10","Female",26,"Stim\r22y35g09b11.jpeg","Stim\r21y03g15b37.jpeg",22,21,35,3,9,15,11,37,2,-1,0,1,1.439,2.497,1,"rød","10_12",-1,1,0,"Left_lead","Female","Female",1,0.205369777564451,0.928824009429783,-0.0711759905702166,2,-0.169106025888688,0.5,-0.5,"left"
"142","10_1",31,"10","Female",26,"Stim\r17y20g40b07.jpeg","Stim\r21y24g16b04.jpeg",17,21,20,24,40,16,7,4,1,-1,0,1,2.064,3.281,1,"blå","10_12",-3,1,0,"Left_lead","Female","Female",1,0.218624253974339,0.893966943183916,-0.106033056816084,1,-1.11609977086534,0.5,-0.5,"left"
"143","10_1",33,"10","Female",26,"Stim\r04y16g13b13.jpeg","Stim\r14y10g15b15.jpeg",4,14,16,10,13,15,13,15,4,1,1,1,1.515,1.391,1,"blå","10_12",2,1,1,"Left_lead","Female","Female",0,0.209060420616027,0.940125569195352,-0.0598744308046476,4,1.72488146406462,2,1,"left"
"144","10_1",36,"10","Female",26,"Stim\r21y24g16b04.jpeg","Stim\r09y02g05b02.jpeg",21,9,24,2,16,5,4,2,4,1,0,0,1.376,1.298,1,"blå","10_12",-2,1,1,"Left_lead","Female","Female",0,0.189406608114502,0.893416793285268,-0.106583206714732,4,1.72488146406462,4,3,"left"
"145","10_1",40,"10","Female",26,"Stim\r19y15g35b05.jpeg","Stim\r08y12g20b03.jpeg",19,8,15,12,35,20,5,3,1,-1,0,1,5.523,1.709,1,"blå","10_12",-2,1,0,"Left_lead","Female","Female",1,0.152162148028191,0.987117993322947,-0.0128820066770527,1,-1.11609977086534,1,0,"left"
"146","10_1",42,"10","Female",26,"Stim\r04y28g27b06.jpeg","Stim\r10y03g03b07.jpeg",4,10,28,3,27,3,6,7,4,1,1,1,1.446,3.406,1,"blå","10_12",1,1,1,"Left_lead","Female","Female",0,0.156178470277836,1.00793157644231,0.00793157644231024,4,1.72488146406462,4,3,"left"
"147","10_1",45,"10","Female",26,"Stim\r08y23g10b29.jpeg","Stim\r07y14g27b22.jpeg",8,7,23,14,10,27,29,22,3,-1,0,1,1.161,2.392,1,"blå","10_12",-7,1,0,"Left_lead","Female","Female",1,0.166730068591098,0.955966760546996,-0.0440332394530037,3,0.777887719087967,1.5,0.5,"left"
"152","10_1",64,"10","Female",26,"Stim\r03y06g12b09.jpeg","Stim\r10y03g03b07.jpeg",3,10,6,3,12,3,9,7,2,-1,0,1,0.854,1.471,1,"gul","10_12",-3,1,0,"Left_lead","Female","Female",1,0.217647058105891,0.98998526846662,-0.0100147315333798,2,-0.169106025888688,1,0,"left"
"153","10_1",67,"10","Female",26,"Stim\r06y19g29b08.jpeg","Stim\r14y20g16b10.jpeg",6,14,19,20,29,16,8,10,-1,1,0,1,1.934,2.474,1,"gul","10_12",1,0,1,"Left_lead","Female","Female",1,0.232250944199362,0.960586406347321,-0.0394135936526793,1,-1.11609977086534,0.5,-0.5,"left"
"155","10_1",73,"10","Female",26,"Stim\r22y02g34b05.jpeg","Stim\r10y03g03b07.jpeg",22,10,2,3,34,3,5,7,3,1,1,1,1.066,0.983,1,"gul","10_12",1,1,1,"Left_lead","Female","Female",0,0.233063795137071,0.967202882382227,-0.032797117617773,3,0.777887719087967,3,2,"left"
"156","10_1",80,"10","Female",26,"Stim\r11y26g25b38.jpeg","Stim\r11y13g22b35.jpeg",11,11,26,13,25,22,38,35,-2,1,1,0,0.873,2.12,1,"grøn","10_12",-3,0,1,"Left_lead","Female","Female",1,0.206903974491516,1.01500560576375,0.0150056057637471,2,-0.169106025888688,1,0,"left"
"158","10_1",85,"10","Female",26,"Stim\r21y24g16b04.jpeg","Stim\r15y16g12b03.jpeg",21,15,24,16,16,12,4,3,-1,1,1,0,0.991,1.275,1,"grøn","10_12",-4,0,1,"Left_lead","Female","Female",1,0.199018349098104,1.04223145078973,0.0422314507897303,1,-1.11609977086534,1,0,"left"
"160","10_1",93,"10","Female",26,"Stim\r14y08g21b39.jpeg","Stim\r03y06g12b09.jpeg",14,3,8,6,21,12,39,9,-1,1,1,0,0.926,5.309,1,"grøn","10_12",-9,0,1,"Left_lead","Female","Female",1,0.244902588094906,1.05624233307785,0.0562423330778461,1,-1.11609977086534,1,0,"left"
"162","10_1",95,"10","Female",26,"Stim\r10y13g07b36.jpeg","Stim\r16y21g04b04.jpeg",10,16,13,21,7,4,36,4,-1,1,1,0,1.031,1.856,1,"grøn","10_12",-3,0,1,"Left_lead","Female","Female",1,0.244217948955074,1.07674884006967,0.076748840069667,1,-1.11609977086534,1,0,"left"
"163","13_1",18,"13","Male",23,"Stim\r18y13g28b06.jpeg","Stim\r12y07g16b25.jpeg",18,12,13,7,28,16,6,25,2,1,0,0,2.298,2.879,1,"rød","13_14",-6,1,1,"Left_lead","Male","Female",0,0.195499285824713,0.909804016992799,-0.0901959830072012,2,0.174728902734291,1,0,"left"
"164","13_1",19,"13","Male",23,"Stim\r10y07g11b10.jpeg","Stim\r09y15g18b07.jpeg",10,9,7,15,11,18,10,7,-1,1,1,0,2.529,8.43,1,"rød","13_14",-1,0,1,"Left_lead","Male","Female",1,0.201048307288421,0.940298323769658,-0.0597016762303415,1,-1.09205564208932,1,0,"left"
"168","13_1",26,"13","Male",23,"Stim\r04y28g27b06.jpeg","Stim\r10y27g22b14.jpeg",4,10,28,27,27,22,6,14,2,-1,1,0,1.258,4.536,1,"blå","13_14",8,1,0,"Left_lead","Male","Female",1,0.23917430865135,0.979454464501125,-0.0205455354988754,2,0.174728902734291,0.666666666666667,-0.333333333333333,"left"
"170","13_1",33,"13","Male",23,"Stim\r18y19g14b27.jpeg","Stim\r05y28g23b30.jpeg",18,5,19,28,14,23,27,30,2,-1,1,0,3.325,3.016,1,"blå","13_14",3,1,0,"Left_lead","Male","Female",1,0.203171002497212,1.03376735373901,0.0337673537390095,2,0.174728902734291,2,1,"left"
"171","13_1",37,"13","Male",23,"Stim\r09y07g06b09.jpeg","Stim\r22y35g09b11.jpeg",9,22,7,35,6,9,9,11,-2,-1,0,0,1.871,2.843,1,"blå","13_14",2,0,0,"Left_lead","Male","Female",0,0.173557354865061,0.951222196272644,-0.0487778037273563,2,0.174728902734291,1,0,"left"
"172","13_1",39,"13","Male",23,"Stim\r12y09g30b18.jpeg","Stim\r09y17g32b21.jpeg",12,9,9,17,30,32,18,21,2,1,1,1,1.171,3.171,1,"blå","13_14",3,1,1,"Left_lead","Male","Female",0,0.155041310072327,1.01616371824415,0.0161637182441514,2,0.174728902734291,1,0,"left"
"177","13_1",48,"13","Male",23,"Stim\r11y14g08b23.jpeg","Stim\r12y12g14b26.jpeg",11,12,14,12,8,14,23,26,3,1,1,1,5.236,4.186,1,"blå","13_14",3,1,1,"Left_lead","Male","Female",0,0.194319420895767,1.11091026050083,0.110910260500835,3,1.4415134475579,1.5,0.5,"left"
"180","13_1",53,"13","Male",23,"Stim\r18y19g14b27.jpeg","Stim\r08y23g10b29.jpeg",18,8,19,23,14,10,27,29,-1,1,0,1,1.731,1.489,1,"gul","13_14",4,0,1,"Left_lead","Male","Female",1,0.214046316875676,1.05101514187364,0.051015141873638,1,-1.09205564208932,0.5,-0.5,"left"
"182","13_1",63,"13","Male",23,"Stim\r13y21g23b09.jpeg","Stim\r18y19g14b27.jpeg",13,18,21,19,23,14,9,27,-4,-1,1,1,1.667,1.729,1,"gul","13_14",-2,0,0,"Left_lead","Male","Female",0,0.211490915217064,1.07882913206516,0.0788291320651553,4,2.7082979923815,4,3,"left"
"183","13_1",66,"13","Male",23,"Stim\r09y07g06b09.jpeg","Stim\r07y14g27b22.jpeg",9,7,7,14,6,27,9,22,2,-1,1,0,2.58,2.195,1,"gul","13_14",7,1,0,"Left_lead","Male","Female",1,0.222069520201299,1.07805227525398,0.0780522752539765,2,0.174728902734291,1,0,"left"
"184","13_1",67,"13","Male",23,"Stim\r07y14g27b22.jpeg","Stim\r11y13g22b35.jpeg",7,11,14,13,27,22,22,35,-1,-1,1,1,1.127,1.243,1,"gul","13_14",-1,0,0,"Left_lead","Male","Female",0,0.23821929281802,1.07403522190861,0.0740352219086091,1,-1.09205564208932,1,0,"left"
"187","13_1",70,"13","Male",23,"Stim\r21y03g15b37.jpeg","Stim\r03y11g01b26.jpeg",21,3,3,11,15,1,37,26,2,1,1,1,4.022,2.412,1,"gul","13_14",8,1,1,"Left_lead","Male","Female",0,0.259379135380063,1.54071372332134,0.540713723321342,2,0.174728902734291,2,1,"left"
"188","13_1",71,"13","Male",23,"Stim\r11y26g25b38.jpeg","Stim\r05y28g23b30.jpeg",11,5,26,28,25,23,38,30,-2,-1,0,0,1.303,1.113,1,"gul","13_14",2,0,0,"Left_lead","Male","Female",0,0.256366580653179,1.58837862015975,0.588378620159746,2,0.174728902734291,2,1,"left"
"193","13_2",14,"13","Male",23,"Stim\r18y19g14b27.jpeg","Stim\r10y03g03b07.jpeg",18,10,19,3,14,3,27,7,2,1,0,0,2.281,5.082,2,"rød","13_15",-8,1,1,"Left_lead","Male","Male",0,0.195616806523838,0.964651142504398,-0.0353488574956023,2,-0.306476579428413,1,0,"left"
"194","13_2",18,"13","Male",23,"Stim\r12y12g14b26.jpeg","Stim\r08y12g20b03.jpeg",12,8,12,12,14,20,26,3,-2,1,1,0,2.349,1.034,2,"rød","13_15",-4,0,1,"Left_lead","Male","Male",1,0.20350937061193,0.923408623140499,-0.0765913768595009,2,-0.306476579428413,0.666666666666667,-0.333333333333333,"left"
"197","13_2",28,"13","Male",23,"Stim\r20y14g02b19.jpeg","Stim\r14y10g15b15.jpeg",20,14,14,10,2,15,19,15,2,-1,0,1,1.05,1.782,2,"blå","13_15",-4,1,0,"Left_lead","Male","Male",1,0.174120243277749,0.940368276195233,-0.0596317238047673,2,-0.306476579428413,1,0,"left"
"199","13_2",32,"13","Male",23,"Stim\r10y03g03b07.jpeg","Stim\r03y03g02b05.jpeg",10,3,3,3,3,2,7,5,2,-1,0,1,1.808,4.164,2,"blå","13_15",-2,1,0,"Left_lead","Male","Male",1,0.198694137849854,0.945179962827161,-0.0548200371728391,2,-0.306476579428413,1,0,"left"
"201","13_2",39,"13","Male",23,"Stim\r21y01g04b27.jpeg","Stim\r17y07g07b24.jpeg",21,17,1,7,4,7,27,24,-4,-1,1,1,1.68,1.655,2,"blå","13_15",-3,0,0,"Left_lead","Male","Male",0,0.158272146778508,1.09798196816108,0.0979819681610801,4,2.0091242429196,2,1,"left"
"205","13_2",45,"13","Male",23,"Stim\r12y07g07b17.jpeg","Stim\r13y33g08b23.jpeg",12,13,7,33,7,8,17,23,2,-1,1,0,1.853,1.425,2,"blå","13_15",6,1,0,"Left_lead","Male","Male",1,0.166895611113356,1.03924264314794,0.0392426431479351,2,-0.306476579428413,0.666666666666667,-0.333333333333333,"left"
"206","13_2",46,"13","Male",23,"Stim\r16y09g06b10.jpeg","Stim\r06y36g16b14.jpeg",16,6,9,36,6,16,10,14,4,1,1,1,1.529,1.574,2,"blå","13_15",4,1,1,"Left_lead","Male","Male",0,0.174361917664345,1.01065824328675,0.0106582432867461,4,2.0091242429196,1.33333333333333,0.333333333333333,"left"
"207","13_2",49,"13","Male",23,"Stim\r12y09g30b18.jpeg","Stim\r12y07g07b17.jpeg",12,12,9,7,30,7,18,17,-1,1,1,0,2.475,1.122,2,"gul","13_15",-2,0,1,"Left_lead","Male","Male",1,0.166420459468772,1.01489421320267,0.014894213202673,1,-1.46427699060242,0.5,-0.5,"left"
"212","13_2",67,"13","Male",23,"Stim\r07y02g03b06.jpeg","Stim\r21y01g04b27.jpeg",7,21,2,1,3,4,6,27,2,-1,0,1,3.598,1.773,2,"gul","13_15",-1,1,0,"Left_lead","Male","Male",1,0.239262569516313,1.04002657275278,0.0400265727527758,2,-0.306476579428413,2,1,"left"
"213","13_2",72,"13","Male",23,"Stim\r22y35g09b11.jpeg","Stim\r04y39g24b15.jpeg",22,4,35,39,9,24,11,15,-3,-1,0,0,1.343,1.297,2,"gul","13_15",4,0,0,"Left_lead","Male","Male",0,0.237236704407319,1.03874517769056,0.0387451776905634,3,0.851323831745592,1.5,0.5,"left"
"214","13_2",73,"13","Male",23,"Stim\r14y12g04b29.jpeg","Stim\r01y27g01b01.jpeg",14,1,12,27,4,1,29,1,1,-1,0,1,1.815,1.08,2,"grøn","13_15",-3,1,0,"Left_lead","Male","Male",1,0.235184729337121,0.991151433612208,-0.0088485663877923,1,-1.46427699060242,0.333333333333333,-0.666666666666667,"left"
"217","13_2",77,"13","Male",23,"Stim\r04y28g27b06.jpeg","Stim\r09y15g18b07.jpeg",4,9,28,15,27,18,6,7,3,-1,0,1,2.501,4.585,2,"grøn","13_15",-9,1,0,"Left_lead","Male","Male",1,0.199022957505116,0.909254824820605,-0.0907451751793951,3,0.851323831745592,1,0,"left"
"218","13_2",78,"13","Male",23,"Stim\r06y14g31b25.jpeg","Stim\r02y19g24b04.jpeg",6,2,14,19,31,24,25,4,-2,1,1,0,1.118,2.081,2,"grøn","13_15",-7,0,1,"Left_lead","Male","Male",1,0.195873960356146,0.952584763260585,-0.0474152367394149,2,-0.306476579428413,1,0,"left"
"219","13_2",79,"13","Male",23,"Stim\r17y07g07b24.jpeg","Stim\r03y11g01b26.jpeg",17,3,7,11,7,1,24,26,-2,-1,1,1,1.126,2.503,2,"grøn","13_15",-6,0,0,"Left_lead","Male","Male",0,0.195800837963953,0.999208371651269,-0.000791628348731477,2,-0.306476579428413,2,1,"left"
"221","13_2",83,"13","Male",23,"Stim\r22y35g09b11.jpeg","Stim\r08y23g10b29.jpeg",22,8,35,23,9,10,11,29,2,-1,1,0,2.074,1.283,2,"grøn","13_15",1,1,0,"Left_lead","Male","Male",1,0.193763331255233,1.07898411047605,0.0789841104760458,2,-0.306476579428413,0.666666666666667,-0.333333333333333,"left"
"223","13_2",92,"13","Male",23,"Stim\r04y39g24b15.jpeg","Stim\r10y27g22b14.jpeg",4,10,39,27,24,22,15,14,-2,1,1,0,2.124,1.206,2,"grøn","13_15",-2,0,1,"Left_lead","Male","Male",1,0.254508224567897,1.02826040402791,0.0282604040279095,2,-0.306476579428413,0.666666666666667,-0.333333333333333,"left"
"226","15_1",12,"15","Male",20,"Stim\r15y05g12b10.jpeg","Stim\r13y33g08b23.jpeg",15,13,5,33,12,8,10,23,3,1,0,0,2.038,3.075,1,"rød","15_16",-2,1,1,"Left_lead","Male","Female",0,0.201058023869095,0.958704376202395,-0.0412956237976047,3,0.695968773397057,1,0,"left"
"230","15_1",17,"15","Male",20,"Stim\r17y20g40b07.jpeg","Stim\r14y20g16b10.jpeg",17,14,20,20,40,16,7,10,-2,1,1,0,2.774,1.804,1,"rød","15_16",-3,0,1,"Left_lead","Male","Female",1,0.219272440526961,1.06364321112932,0.0636432111293186,2,-0.586078967071206,0.5,-0.5,"left"
"231","15_1",18,"15","Male",20,"Stim\r08y23g10b29.jpeg","Stim\r11y26g25b38.jpeg",8,11,23,26,10,25,29,38,-2,-1,0,0,3.816,1.897,1,"rød","15_16",3,0,0,"Left_lead","Male","Female",0,0.227959281184696,1.00701555242099,0.00701555242099161,2,-0.586078967071206,1,0,"left"
"233","15_1",23,"15","Male",20,"Stim\r05y28g23b30.jpeg","Stim\r04y39g24b15.jpeg",5,4,28,39,23,24,30,15,-2,-1,1,1,2.831,6.564,1,"rød","15_16",-1,0,0,"Left_lead","Male","Female",0,0.237363380492808,1.03387481089191,0.0338748108919127,2,-0.586078967071206,1,0,"left"
"236","15_1",30,"15","Male",20,"Stim\r06y14g31b25.jpeg","Stim\r20y04g39b23.jpeg",6,20,14,4,31,39,25,23,3,1,0,0,1.437,1.698,1,"blå","15_16",-2,1,1,"Left_lead","Male","Female",0,0.22612445138381,1.00221898739147,0.00221898739146797,3,0.695968773397057,0.75,-0.25,"left"
"237","15_1",32,"15","Male",20,"Stim\r17y07g07b24.jpeg","Stim\r03y11g01b26.jpeg",17,3,7,11,7,1,24,26,-3,1,0,1,2.084,3.35,1,"blå","15_16",2,0,1,"Left_lead","Male","Female",1,0.219602242120328,0.984213510870844,-0.0157864891291564,3,0.695968773397057,0.75,-0.25,"left"
"238","15_1",35,"15","Male",20,"Stim\r06y36g16b14.jpeg","Stim\r05y40g33b16.jpeg",6,5,36,40,16,33,14,16,4,1,1,1,1.858,2.275,1,"blå","15_16",2,1,1,"Left_lead","Male","Female",0,0.21725365431969,0.944098617190089,-0.055901382809911,4,1.97801651386532,1,0,"left"
"241","15_1",39,"15","Male",20,"Stim\r06y19g29b08.jpeg","Stim\r10y02g36b05.jpeg",6,10,19,2,29,36,8,5,-1,1,1,0,2.299,2.182,1,"blå","15_16",-3,0,1,"Left_lead","Male","Female",1,0.156085869413475,0.994797897669198,-0.00520210233080176,1,-1.86812670753947,0.25,-0.75,"left"
"243","15_1",48,"15","Male",20,"Stim\r17y20g40b07.jpeg","Stim\r05y40g33b16.jpeg",17,5,20,40,40,33,7,16,2,1,1,1,2.028,2.831,1,"blå","15_16",9,1,1,"Left_lead","Male","Female",0,0.190243430029556,1.06580177360068,0.0658017736006815,2,-0.586078967071206,1,0,"left"
"244","15_1",49,"15","Male",20,"Stim\r10y13g07b36.jpeg","Stim\r21y03g15b37.jpeg",10,21,13,3,7,15,36,37,-3,1,0,1,1.781,1.639,1,"blå","15_16",1,0,1,"Left_lead","Male","Female",1,0.199703114599756,1.05039929290435,0.0503992929043477,3,0.695968773397057,0.75,-0.25,"left"
"248","15_1",63,"15","Male",20,"Stim\r11y10g06b19.jpeg","Stim\r12y07g07b17.jpeg",11,12,10,7,6,7,19,17,2,-1,0,1,2.581,3.593,1,"gul","15_16",-3,1,0,"Left_lead","Male","Female",1,0.21633652941125,0.9405108172745,-0.0594891827254999,2,-0.586078967071206,0.5,-0.5,"left"
"256","15_1",80,"15","Male",20,"Stim\r04y39g24b15.jpeg","Stim\r21y03g15b37.jpeg",4,21,39,3,24,15,15,37,2,-1,0,1,1.604,1.796,1,"grøn","15_16",-9,1,0,"Left_lead","Male","Female",1,0.186871043162202,0.88634905101677,-0.11365094898323,2,-0.586078967071206,0.5,-0.5,"left"
"258","15_1",85,"15","Male",20,"Stim\r08y23g10b29.jpeg","Stim\r10y13g07b36.jpeg",8,10,23,13,10,7,29,36,-1,1,1,0,1.666,1.311,1,"grøn","15_16",-3,0,1,"Left_lead","Male","Female",1,0.18748465690835,0.996096093211861,-0.0039039067881389,1,-1.86812670753947,0.333333333333333,-0.666666666666667,"left"
"261","14_2",10,"14","Female",25,"Stim\r12y07g16b25.jpeg","Stim\r14y20g16b10.jpeg",12,14,7,20,16,16,25,10,2,1,1,1,1.182,1.708,2,"rød","14_16",2,1,1,"Left_lead","Female","Female",0,0.197985586882144,0.965226569636909,-0.0347734303630911,2,0,1,0,"left"
"263","14_2",18,"14","Female",25,"Stim\r14y10g15b15.jpeg","Stim\r15y05g12b10.jpeg",14,15,10,5,15,12,15,10,-2,1,0,1,1.13,1.264,2,"rød","14_16",1,0,1,"Left_lead","Female","Female",1,0.209747343099263,0.924093783427359,-0.0759062165726406,2,0,0.5,-0.5,"left"
"266","14_2",24,"14","Female",25,"Stim\r22y02g34b05.jpeg","Stim\r19y10g06b15.jpeg",22,19,2,10,34,6,5,15,-1,1,1,0,3.105,1.556,2,"rød","14_16",-3,0,1,"Left_lead","Female","Female",1,0.23479272636307,1.01821124979881,0.0182112497988052,1,-1.33333333333333,0.25,-0.75,"left"
"269","14_2",31,"14","Female",25,"Stim\r06y19g29b08.jpeg","Stim\r18y13g28b06.jpeg",6,18,19,13,29,28,8,6,-1,1,1,0,3.342,2.048,2,"blå","14_16",-2,0,1,"Left_lead","Female","Female",1,0.245779821850399,1.12183810760472,0.121838107604724,1,-1.33333333333333,1,0,"left"
"271","14_2",33,"14","Female",25,"Stim\r04y39g24b15.jpeg","Stim\r12y07g07b17.jpeg",4,12,39,7,24,7,15,17,-2,-1,0,0,1.144,1.944,2,"blå","14_16",2,0,0,"Left_lead","Female","Female",0,0.213125854366887,1.00661255813505,0.00661255813504602,2,0,2,1,"left"
"272","14_2",34,"14","Female",25,"Stim\r16y09g06b10.jpeg","Stim\r02y10g14b11.jpeg",16,2,9,10,6,14,10,11,2,-1,1,0,1.045,1.397,2,"blå","14_16",1,1,0,"Left_lead","Female","Female",1,0.212261905520653,0.979773716100319,-0.0202262838996814,2,0,0.5,-0.5,"left"
"274","14_2",43,"14","Female",25,"Stim\r17y20g40b07.jpeg","Stim\r21y24g16b04.jpeg",17,21,20,24,40,16,7,4,-1,1,1,0,2.155,1.55,2,"blå","14_16",-3,0,1,"Left_lead","Female","Female",1,0.165653350095756,1.00529515777066,0.00529515777066236,1,-1.33333333333333,0.25,-0.75,"left"
"276","14_2",45,"14","Female",25,"Stim\r09y07g06b09.jpeg","Stim\r04y28g27b06.jpeg",9,4,7,28,6,27,9,6,2,-1,0,1,0.974,1.291,2,"blå","14_16",-3,1,0,"Left_lead","Female","Female",1,0.175897603527167,0.979543040773839,-0.0204569592261614,2,0,0.5,-0.5,"left"
"277","14_2",46,"14","Female",25,"Stim\r11y13g22b35.jpeg","Stim\r14y08g21b39.jpeg",11,14,13,8,22,21,35,39,2,-1,1,0,1.673,1.057,2,"blå","14_16",4,1,0,"Left_lead","Female","Female",1,0.188813611642714,0.989710595308481,-0.0102894046915187,2,0,0.5,-0.5,"left"
"279","14_2",52,"14","Female",25,"Stim\r15y05g12b10.jpeg","Stim\r12y07g07b17.jpeg",15,12,5,7,12,7,10,17,-2,1,0,1,1.453,1.231,2,"gul","14_16",2,0,1,"Left_lead","Female","Female",1,0.150025636162383,1.06591903436388,0.0659190343638829,2,0,0.5,-0.5,"left"
"280","14_2",53,"14","Female",25,"Stim\r14y10g15b15.jpeg","Stim\r08y09g09b11.jpeg",14,8,10,9,15,9,15,11,-2,-1,1,1,1.584,1.76,2,"gul","14_16",-1,0,0,"Left_lead","Female","Female",0,0.143697684924799,1.02627363339378,0.0262736333937819,2,0,1,0,"left"
"281","14_2",57,"14","Female",25,"Stim\r20y14g02b19.jpeg","Stim\r02y10g14b11.jpeg",20,2,14,10,2,14,19,11,-1,1,1,0,1.582,2.166,2,"gul","14_16",-4,0,1,"Left_lead","Female","Female",1,0.135197513349747,1.42408559397969,0.424085593979686,1,-1.33333333333333,0.5,-0.5,"left"
"285","14_2",69,"14","Female",25,"Stim\r10y27g22b14.jpeg","Stim\r11y26g25b38.jpeg",10,11,27,26,22,25,14,38,-3,1,1,0,1.011,1.715,2,"gul","14_16",-1,0,1,"Left_lead","Female","Female",1,0.254688755684507,1.05398043559848,0.0539804355984794,3,1.33333333333333,0.75,-0.25,"left"
"286","14_2",74,"14","Female",25,"Stim\r10y13g07b36.jpeg","Stim\r08y23g10b29.jpeg",10,8,13,23,7,10,36,29,2,-1,1,0,2.951,1.3,2,"grøn","14_16",3,1,0,"Left_lead","Female","Female",1,0.253337332571236,1.07029121955753,0.0702912195575272,2,0,2,1,"left"
"289","14_2",83,"14","Female",25,"Stim\r12y07g16b25.jpeg","Stim\r02y10g14b11.jpeg",12,2,7,10,16,14,25,11,-4,-1,1,1,1.805,1.516,2,"grøn","14_16",-2,0,0,"Left_lead","Female","Female",0,0.218619154440502,1.10776696433633,0.107766964336329,4,2.66666666666667,4,3,"left"
"293","14_2",95,"14","Female",25,"Stim\r09y07g06b09.jpeg","Stim\r08y23g10b29.jpeg",9,8,7,23,6,10,9,29,-1,1,0,1,2.323,2.012,2,"grøn","14_16",4,0,1,"Left_lead","Female","Female",1,0.240467359198855,0.973069723553591,-0.0269302764464094,1,-1.33333333333333,1,0,"left"
"297","19_1",19,"19","Male",20,"Stim\r03y06g12b09.jpeg","Stim\r06y19g29b08.jpeg",3,6,6,19,12,29,9,8,1,1,1,1,1.771,3.078,1,"rød","19_17",3,1,1,"Left_lead","Male","Male",0,0.216707943822024,1.02706020522775,0.0270602052277535,1,-1.0965785298143,1,0,"left"
"299","19_1",21,"19","Male",20,"Stim\r11y13g22b35.jpeg","Stim\r15y16g12b03.jpeg",11,15,13,16,22,12,35,3,3,-1,1,0,2.315,1.849,1,"rød","19_17",4,1,0,"Left_lead","Male","Male",1,0.226872493412263,1.04162809474325,0.0416280947432464,3,0.647978222162995,0.75,-0.25,"left"
"303","19_1",26,"19","Male",20,"Stim\r12y07g16b25.jpeg","Stim\r12y12g14b26.jpeg",12,12,7,12,16,14,25,26,4,1,1,1,1.537,1.662,1,"blå","19_17",1,1,1,"Left_lead","Male","Male",0,0.231057995500085,1.00615686437181,0.00615686437181329,4,1.52025659815164,2,1,"left"
"307","19_1",34,"19","Male",20,"Stim\r21y24g16b04.jpeg","Stim\r04y28g27b06.jpeg",21,4,24,28,16,27,4,6,1,-1,1,0,3.169,1.658,1,"blå","19_17",2,1,0,"Left_lead","Male","Male",1,0.210493436720034,0.945061402846105,-0.0549385971538947,1,-1.0965785298143,0.5,-0.5,"left"
"309","19_1",38,"19","Male",20,"Stim\r17y11g38b07.jpeg","Stim\r02y10g14b11.jpeg",17,2,11,10,38,14,7,11,4,1,1,1,2.294,1.303,1,"blå","19_17",4,1,1,"Left_lead","Male","Male",0,0.171022121966835,1.08226186013337,0.0822618601333678,4,1.52025659815164,2,1,"left"
"311","19_1",40,"19","Male",20,"Stim\r12y07g07b17.jpeg","Stim\r11y10g06b19.jpeg",12,11,7,10,7,6,17,19,2,-1,1,0,1.963,2.284,1,"blå","19_17",2,1,0,"Left_lead","Male","Male",1,0.155364692034042,1.0398322248279,0.0398322248278982,2,-0.224300153825652,1,0,"left"
"312","19_1",52,"19","Male",20,"Stim\r13y33g08b23.jpeg","Stim\r22y35g09b11.jpeg",13,22,33,35,8,9,23,11,2,1,1,1,1.249,4.45,1,"gul","19_17",2,1,1,"Left_lead","Male","Male",0,0.187142289296699,1.02940928110889,0.0294092811088922,2,-0.224300153825652,1,0,"left"
"313","19_1",53,"19","Male",20,"Stim\r04y28g27b06.jpeg","Stim\r11y26g25b38.jpeg",4,11,28,26,27,25,6,38,2,1,0,0,1.621,1.449,1,"gul","19_17",-2,1,1,"Left_lead","Male","Male",0,0.188457032861329,0.968032376631026,-0.0319676233689739,2,-0.224300153825652,1,0,"left"
"315","19_1",58,"19","Male",20,"Stim\r05y28g23b30.jpeg","Stim\r16y21g04b04.jpeg",5,16,28,21,23,4,30,4,1,-1,0,1,1.718,1.552,1,"gul","19_17",-7,1,0,"Left_lead","Male","Male",1,0.0947427466925477,0.567255277468555,-0.432744722531445,1,-1.0965785298143,0.25,-0.75,"left"
"316","19_1",59,"19","Male",20,"Stim\r17y20g40b07.jpeg","Stim\r09y17g32b21.jpeg",17,9,20,17,40,32,7,21,1,-1,0,1,1.237,1.751,1,"gul","19_17",-3,1,0,"Left_lead","Male","Male",1,0.144244072912401,0.801845841606324,-0.198154158393676,1,-1.0965785298143,0.25,-0.75,"left"
"319","19_1",64,"19","Male",20,"Stim\r12y12g14b26.jpeg","Stim\r18y13g28b06.jpeg",12,18,12,13,14,28,26,6,1,-1,1,0,1.912,2.16,1,"gul","19_17",1,1,0,"Left_lead","Male","Male",1,0.198289002035486,0.885231530892329,-0.114768469107671,1,-1.0965785298143,0.333333333333333,-0.666666666666667,"left"
"326","19_1",81,"19","Male",20,"Stim\r06y36g16b14.jpeg","Stim\r22y23g20b06.jpeg",6,22,36,23,16,20,14,6,-2,-1,0,0,1.264,3.866,1,"grøn","19_17",4,0,0,"Left_lead","Male","Male",0,0.203024247179923,0.947898358077743,-0.052101641922257,2,-0.224300153825652,1,0,"left"
"331","20_2",16,"20","Female",21,"Stim\r15y17g24b30.jpeg","Stim\r17y12g19b18.jpeg",15,17,17,12,24,19,30,18,-2,1,0,1,2.05,2.472,2,"rød","20_17",2,0,1,"Left_lead","Female","Male",1,0.196872935860067,0.887783164461629,-0.112216835538371,2,-0.0570372970367047,1,0,"left"
"332","20_2",17,"20","Female",21,"Stim\r22y02g34b05.jpeg","Stim\r21y24g16b04.jpeg",22,21,2,24,34,16,5,4,2,-1,0,1,1.262,2.073,2,"rød","20_17",-1,1,0,"Left_lead","Female","Male",1,0.199393563803134,0.894549842367916,-0.105450157632084,2,-0.0570372970367047,0.5,-0.5,"left"
"333","20_2",21,"20","Female",21,"Stim\r21y03g15b37.jpeg","Stim\r22y02g34b05.jpeg",21,22,3,2,15,34,37,5,-2,1,0,1,1.406,1.357,2,"rød","20_17",1,0,1,"Left_lead","Female","Male",1,0.224148875950674,0.932832623862695,-0.0671673761373053,2,-0.0570372970367047,0.5,-0.5,"left"
"334","20_2",29,"20","Female",21,"Stim\r04y39g24b15.jpeg","Stim\r12y09g30b18.jpeg",4,12,39,9,24,30,15,18,2,-1,1,0,1.568,0.945,2,"blå","20_17",3,1,0,"Left_lead","Female","Male",1,0.253734829117934,1.03476901278365,0.0347690127836515,2,-0.0570372970367047,0.666666666666667,-0.333333333333333,"left"
"338","20_2",39,"20","Female",21,"Stim\r21y01g04b27.jpeg","Stim\r14y12g04b29.jpeg",21,14,1,12,4,4,27,29,3,-1,1,0,2.018,1.862,2,"blå","20_17",2,1,0,"Left_lead","Female","Male",1,0.152557624324224,1.0472144989509,0.0472144989509,3,1.48296972295432,0.75,-0.25,"left"
"340","20_2",45,"20","Female",21,"Stim\r02y10g14b11.jpeg","Stim\r21y31g06b08.jpeg",2,21,10,31,14,6,11,8,-2,1,1,0,1.27,1.361,2,"blå","20_17",-3,0,1,"Left_lead","Female","Male",1,0.176229316411412,1.00147250240861,0.00147250240860664,2,-0.0570372970367047,1,0,"left"
"341","20_2",46,"20","Female",21,"Stim\r05y28g23b30.jpeg","Stim\r14y12g04b29.jpeg",5,14,28,12,23,4,30,29,3,1,0,0,1.269,1.846,2,"blå","20_17",-1,1,1,"Left_lead","Female","Male",0,0.192042138946023,1.03123690586798,0.0312369058679791,3,1.48296972295432,1.5,0.5,"left"
"345","20_2",52,"20","Female",21,"Stim\r10y13g07b36.jpeg","Stim\r17y22g16b15.jpeg",10,17,13,22,7,16,36,15,-2,1,0,1,1.168,2.447,2,"gul","20_17",9,0,1,"Left_lead","Female","Male",1,0.144905694175961,0.743415308571239,-0.256584691428761,2,-0.0570372970367047,1,0,"left"
"346","20_2",54,"20","Female",21,"Stim\r14y10g15b15.jpeg","Stim\r11y14g08b23.jpeg",14,11,10,14,15,8,15,23,-2,1,0,1,1.48,1.459,2,"gul","20_17",4,0,1,"Left_lead","Female","Male",1,0.122346308013698,0.532747615277046,-0.467252384722954,2,-0.0570372970367047,0.5,-0.5,"left"
"347","20_2",59,"20","Female",21,"Stim\r09y15g18b07.jpeg","Stim\r12y12g14b26.jpeg",9,12,15,12,18,14,7,26,3,-1,0,1,1.711,2.298,2,"gul","20_17",-3,1,0,"Left_lead","Female","Male",1,0.167911357818027,0.765336978190066,-0.234663021809934,3,1.48296972295432,0.75,-0.25,"left"
"349","20_2",69,"20","Female",21,"Stim\r09y06g26b32.jpeg","Stim\r12y09g30b18.jpeg",9,12,6,9,26,30,32,18,-1,1,0,1,2.205,1.143,2,"gul","20_17",3,0,1,"Left_lead","Female","Male",1,0.235596645131586,0.949298002190006,-0.0507019978099942,1,-1.59704431702772,0.25,-0.75,"left"
"351","20_2",72,"20","Female",21,"Stim\r06y36g16b14.jpeg","Stim\r04y39g24b15.jpeg",6,4,36,39,16,24,14,15,-2,1,0,1,1.309,1.33,2,"gul","20_17",3,0,1,"Left_lead","Female","Male",1,0.220268784516546,0.921428653796388,-0.0785713462036124,2,-0.0570372970367047,0.5,-0.5,"left"
"352","20_2",74,"20","Female",21,"Stim\r18y19g14b27.jpeg","Stim\r14y10g15b15.jpeg",18,14,19,10,14,15,27,15,-2,1,0,1,2.614,1.2,2,"grøn","20_17",1,0,1,"Left_lead","Female","Male",1,0.227158775666767,0.944788974024166,-0.0552110259758345,2,-0.0570372970367047,0.5,-0.5,"left"
"356","20_1",10,"20","Female",21,"Stim\r12y07g16b25.jpeg","Stim\r11y13g22b35.jpeg",12,11,7,13,16,22,25,35,-2,-1,1,1,2.504,5.399,1,"rød","20_18",-1,0,0,"Left_lead","Female","Female",0,0.212371298395748,1.0324924724809,0.0324924724808962,2,0,1,0,"left"
"357","20_1",13,"20","Female",21,"Stim\r12y12g14b26.jpeg","Stim\r03y06g12b09.jpeg",12,3,12,6,14,12,26,9,-1,1,1,0,2.565,3.64,1,"rød","20_18",-9,0,1,"Left_lead","Female","Female",1,0.204751082543386,1.05814522890709,0.0581452289070887,1,-1.41421356237309,1,0,"left"
"358","20_1",16,"20","Female",21,"Stim\r10y03g03b07.jpeg","Stim\r11y26g25b38.jpeg",10,11,3,26,3,25,7,38,-2,-1,0,0,2.002,3.982,1,"rød","20_18",1,0,0,"Left_lead","Female","Female",0,0.210677365939611,1.05952604213858,0.0595260421385804,2,0,1,0,"left"
"359","20_1",18,"20","Female",21,"Stim\r04y28g27b06.jpeg","Stim\r03y06g12b09.jpeg",4,3,28,6,27,12,6,9,-1,1,1,0,2.86,2.363,1,"rød","20_18",-1,0,1,"Left_lead","Female","Female",1,0.232631154361911,1.18925623771502,0.189256237715015,1,-1.41421356237309,0.5,-0.5,"left"
"362","20_1",23,"20","Female",21,"Stim\r10y13g07b36.jpeg","Stim\r14y10g15b15.jpeg",10,14,13,10,7,15,36,15,2,1,1,1,1.535,3.823,1,"rød","20_18",4,1,1,"Left_lead","Female","Female",0,0.226139280353987,0.980913069664204,-0.0190869303357963,2,0,1,0,"left"
"363","20_1",24,"20","Female",21,"Stim\r03y11g01b26.jpeg","Stim\r05y40g33b16.jpeg",3,5,11,40,1,33,26,16,-1,1,0,1,1.844,1.694,1,"rød","20_18",2,0,1,"Left_lead","Female","Female",1,0.228322124605368,0.971984121399558,-0.0280158786004416,1,-1.41421356237309,0.5,-0.5,"left"
"364","20_1",25,"20","Female",21,"Stim\r05y28g23b30.jpeg","Stim\r04y28g27b06.jpeg",5,4,28,28,23,27,30,6,-1,1,1,0,1.34,1.485,1,"rød","20_18",-1,0,1,"Left_lead","Female","Female",1,0.233907044341832,1.00167079202549,0.00167079202549214,1,-1.41421356237309,0.333333333333333,-0.666666666666667,"left"
"372","20_1",51,"20","Female",21,"Stim\r10y13g07b36.jpeg","Stim\r14y12g04b29.jpeg",10,14,13,12,7,4,36,29,-3,-1,1,1,1.413,2.185,1,"gul","20_18",-1,0,0,"Left_lead","Female","Female",0,0.228621285928182,1.13043609211762,0.130436092117618,3,1.41421356237309,1.5,0.5,"left"
"378","20_1",72,"20","Female",21,"Stim\r14y12g04b29.jpeg","Stim\r03y11g01b26.jpeg",14,3,12,11,4,1,29,26,3,1,0,0,1.214,3.688,1,"gul","20_18",-1,1,1,"Left_lead","Female","Female",0,0.240243849706477,1.01605556606274,0.0160555660627371,3,1.41421356237309,1.5,0.5,"left"
"379","20_1",78,"20","Female",21,"Stim\r09y15g18b07.jpeg","Stim\r21y03g15b37.jpeg",9,21,15,3,18,15,7,37,2,1,0,0,1.415,2.541,1,"grøn","20_18",-3,1,1,"Left_lead","Female","Female",0,0.198287994669603,0.975743126490526,-0.0242568735094745,2,0,1,0,"left"
"380","20_1",79,"20","Female",21,"Stim\r17y11g38b07.jpeg","Stim\r20y04g39b23.jpeg",17,20,11,4,38,39,7,23,-2,1,0,1,2.6,2.02,1,"grøn","20_18",1,0,1,"Left_lead","Female","Female",1,0.193473718896617,0.958762218010762,-0.0412377819892382,2,0,0.666666666666667,-0.333333333333333,"left"
"382","20_1",87,"20","Female",21,"Stim\r21y03g15b37.jpeg","Stim\r14y20g16b10.jpeg",21,14,3,20,15,16,37,10,3,1,1,1,1.458,3.551,1,"grøn","20_18",1,1,1,"Left_lead","Female","Female",0,0.23575148740191,0.960378245876196,-0.039621754123804,3,1.41421356237309,1.5,0.5,"left"
"383","20_1",92,"20","Female",21,"Stim\r13y24g05b28.jpeg","Stim\r15y05g12b10.jpeg",13,15,24,5,5,12,28,10,-2,1,0,1,1.867,1.31,1,"grøn","20_18",7,0,1,"Left_lead","Female","Female",1,0.249693664103249,0.965912859503119,-0.0340871404968812,2,0,0.5,-0.5,"left"
"386","19_2",10,"19","Male",20,"Stim\r08y09g09b11.jpeg","Stim\r09y15g18b07.jpeg",8,9,9,15,9,18,11,7,2,1,1,1,1.175,1.527,2,"rød","19_18",1,1,1,"Left_lead","Male","Female",0,0.217747958652656,1.08990919475696,0.0899091947569624,2,-0.556825934121593,1,0,"left"
"387","19_2",11,"19","Male",20,"Stim\r07y02g03b06.jpeg","Stim\r05y40g33b16.jpeg",7,5,2,40,3,33,6,16,-2,1,1,0,1.527,2.144,2,"rød","19_18",-2,0,1,"Left_lead","Male","Female",1,0.196369800416331,1.04445974165223,0.0444597416522277,2,-0.556825934121593,1,0,"left"
"391","19_2",23,"19","Male",20,"Stim\r09y02g05b02.jpeg","Stim\r07y02g03b06.jpeg",9,7,2,2,5,3,2,6,3,-1,0,1,1.299,2.16,2,"rød","19_18",-2,1,0,"Left_lead","Male","Female",1,0.230103298311368,0.977170973383646,-0.0228290266163537,3,0.631069392004472,0.75,-0.25,"left"
"392","19_2",27,"19","Male",20,"Stim\r21y24g16b04.jpeg","Stim\r06y19g29b08.jpeg",21,6,24,19,16,29,4,8,-2,1,0,1,1.732,2.32,2,"blå","19_18",4,0,1,"Left_lead","Male","Female",1,0.22794574004268,0.90996348618927,-0.09003651381073,2,-0.556825934121593,1,0,"left"
"393","19_2",28,"19","Male",20,"Stim\r21y01g04b27.jpeg","Stim\r17y07g07b24.jpeg",21,17,1,7,4,7,27,24,4,-1,0,1,1.324,2.738,2,"blå","19_18",-3,1,0,"Left_lead","Male","Female",1,0.213641496943312,0.845478261213503,-0.154521738786497,4,1.81896471813054,1,0,"left"
"395","19_2",37,"19","Male",20,"Stim\r10y07g11b10.jpeg","Stim\r05y40g33b16.jpeg",10,5,7,40,11,33,10,16,3,-1,1,0,0.999,2.095,2,"blå","19_18",6,1,0,"Left_lead","Male","Female",1,0.169782904651852,1.09143580663908,0.0914358066390839,3,0.631069392004472,1,0,"left"
"398","19_2",40,"19","Male",20,"Stim\r11y10g06b19.jpeg","Stim\r17y22g16b15.jpeg",11,17,10,22,6,16,19,15,2,-1,0,1,0.878,1.451,2,"blå","19_18",-4,1,0,"Left_lead","Male","Female",1,0.156761592839964,1.06861880286862,0.0686188028686232,2,-0.556825934121593,0.5,-0.5,"left"
"399","19_2",41,"19","Male",20,"Stim\r10y13g07b36.jpeg","Stim\r05y09g02b34.jpeg",10,5,13,9,7,2,36,34,4,-1,0,1,2.057,1.646,2,"blå","19_18",-2,1,0,"Left_lead","Male","Female",1,0.158647342120211,1.03492218484399,0.0349221848439938,4,1.81896471813054,1,0,"left"
"400","19_2",47,"19","Male",20,"Stim\r12y12g14b26.jpeg","Stim\r13y24g05b28.jpeg",12,13,12,24,14,5,26,28,2,-1,1,0,1.842,1.07,2,"blå","19_18",2,1,0,"Left_lead","Male","Female",1,0.184189560694354,0.985663224383049,-0.014336775616951,2,-0.556825934121593,0.5,-0.5,"left"
"402","19_2",53,"19","Male",20,"Stim\r04y28g27b06.jpeg","Stim\r10y27g22b14.jpeg",4,10,28,27,27,22,6,14,2,-1,0,1,1.179,1.066,2,"gul","19_18",-1,1,0,"Left_lead","Male","Female",1,0.232146668253205,1.02415296102773,0.0241529610277251,2,-0.556825934121593,0.666666666666667,-0.333333333333333,"left"
"409","19_2",78,"19","Male",20,"Stim\r16y09g06b10.jpeg","Stim\r10y03g03b07.jpeg",16,10,9,3,6,3,10,7,2,-1,0,1,0.847,2.744,2,"grøn","19_18",-3,1,0,"Left_lead","Male","Female",1,0.201913539107155,0.977924186327334,-0.0220758136726661,2,-0.556825934121593,0.666666666666667,-0.333333333333333,"left"
"415","19_2",90,"19","Male",20,"Stim\r06y19g29b08.jpeg","Stim\r11y13g22b35.jpeg",6,11,19,13,29,22,8,35,-2,1,1,0,1.005,3.199,2,"grøn","19_18",-7,0,1,"Left_lead","Male","Female",1,0.245814299497295,0.994558150012255,-0.00544184998774544,2,-0.556825934121593,0.5,-0.5,"left"
"418","4_1",15,"4","Female",23,"Stim\r10y02g36b05.jpeg","Stim\r13y24g05b28.jpeg",10,13,2,24,36,5,5,28,3,1,1,1,2.405,5.932,1,"rød","4_2",3,1,1,"Left_lead","Female","Female",0,0.210517949581783,1.00965753397838,0.0096575339783822,3,0.883699140327812,3,2,"left"
"419","4_1",17,"4","Female",23,"Stim\r16y09g06b10.jpeg","Stim\r17y22g16b15.jpeg",16,17,9,22,6,16,10,15,2,1,1,1,1.513,2.603,1,"rød","4_2",1,1,1,"Left_lead","Female","Female",0,0.19233074492495,1.02048689896923,0.0204868989692339,2,-0.475837998638053,1,0,"left"
"423","4_1",27,"4","Female",23,"Stim\r14y10g15b15.jpeg","Stim\r04y16g13b13.jpeg",14,4,10,16,15,13,15,13,-4,-1,1,1,1.782,6.432,1,"blå","4_2",-2,0,0,"Left_lead","Female","Female",0,0.243842350213356,1.0271151441471,0.0271151441470989,4,2.24323627929368,1,0,"left"
"424","4_1",29,"4","Female",23,"Stim\r16y21g04b04.jpeg","Stim\r15y16g12b03.jpeg",16,15,21,16,4,12,4,3,3,-1,0,1,2.974,4.035,1,"blå","4_2",-1,1,0,"Left_lead","Female","Female",1,0.234245012949497,0.970938853571977,-0.0290611464280234,3,0.883699140327812,3,2,"left"
"425","4_1",31,"4","Female",23,"Stim\r13y21g23b09.jpeg","Stim\r15y05g12b10.jpeg",13,15,21,5,23,12,9,10,2,1,1,1,1.768,3.14,1,"blå","4_2",1,1,1,"Left_lead","Female","Female",0,0.230872431508235,1.03024058689529,0.0302405868952884,2,-0.475837998638053,0.666666666666667,-0.333333333333333,"left"
"426","4_1",34,"4","Female",23,"Stim\r12y07g07b17.jpeg","Stim\r14y10g15b15.jpeg",12,14,7,10,7,15,17,15,4,1,0,0,2.106,1.958,1,"blå","4_2",-2,1,1,"Left_lead","Female","Female",0,0.219565483858578,1.00523781773005,0.00523781773005139,4,2.24323627929368,4,3,"left"
"428","4_1",36,"4","Female",23,"Stim\r22y35g09b11.jpeg","Stim\r06y19g29b08.jpeg",22,6,35,19,9,29,11,8,2,-1,0,1,1.522,3.331,1,"blå","4_2",-3,1,0,"Left_lead","Female","Female",1,0.176801819068053,0.893850194242172,-0.106149805757828,2,-0.475837998638053,2,1,"left"
"430","4_1",42,"4","Female",23,"Stim\r03y11g01b26.jpeg","Stim\r18y19g14b27.jpeg",3,18,11,19,1,14,26,27,-2,1,0,1,1.413,1.918,1,"blå","4_2",1,0,1,"Left_lead","Female","Female",1,0.152552551245251,0.954582842450255,-0.0454171575497453,2,-0.475837998638053,0.5,-0.5,"left"
"432","4_1",45,"4","Female",23,"Stim\r19y15g35b05.jpeg","Stim\r17y11g38b07.jpeg",19,17,15,11,35,38,5,7,3,1,1,1,2.588,1.776,1,"blå","4_2",2,1,1,"Left_lead","Female","Female",0,0.171513329602952,0.989041903051837,-0.0109580969481632,3,0.883699140327812,1.5,0.5,"left"
"433","4_1",46,"4","Female",23,"Stim\r22y02g34b05.jpeg","Stim\r10y27g22b14.jpeg",22,10,2,27,34,22,5,14,-3,-1,0,0,1.714,2.338,1,"blå","4_2",9,0,0,"Left_lead","Female","Female",0,0.178047075758622,0.961646111109821,-0.0383538888901794,3,0.883699140327812,3,2,"left"
"434","4_1",47,"4","Female",23,"Stim\r09y06g26b32.jpeg","Stim\r10y13g07b36.jpeg",9,10,6,13,26,7,32,36,-2,1,0,1,2.655,2.286,1,"blå","4_2",4,0,1,"Left_lead","Female","Female",1,0.176214225424616,0.946722923720065,-0.0532770762799353,2,-0.475837998638053,1,0,"left"
"436","4_1",49,"4","Female",23,"Stim\r17y22g16b15.jpeg","Stim\r11y10g06b19.jpeg",17,11,22,10,16,6,15,19,-3,-1,0,0,2.046,1.835,1,"blå","4_2",4,0,0,"Left_lead","Female","Female",0,0.176253780662146,0.913230011598105,-0.0867699884018949,3,0.883699140327812,3,2,"left"
"438","4_1",54,"4","Female",23,"Stim\r20y04g39b23.jpeg","Stim\r09y06g26b32.jpeg",20,9,4,6,39,26,23,32,-2,-1,0,0,1.652,1.931,1,"gul","4_2",2,0,0,"Left_lead","Female","Female",0,0.139444369362439,0.686447267638114,-0.313552732361886,2,-0.475837998638053,2,1,"left"
"441","4_1",60,"4","Female",23,"Stim\r14y12g04b29.jpeg","Stim\r16y09g06b10.jpeg",14,16,12,9,4,6,29,10,2,1,0,0,1.758,2.346,1,"gul","4_2",-3,1,1,"Left_lead","Female","Female",0,0.211698684031011,1.04621152568209,0.0462115256820939,2,-0.475837998638053,1,0,"left"
"443","4_1",67,"4","Female",23,"Stim\r04y39g24b15.jpeg","Stim\r10y37g07b02.jpeg",4,10,39,37,24,7,15,2,-2,1,1,0,2.133,1.637,1,"gul","4_2",-2,0,1,"Left_lead","Female","Female",1,0.231250009709006,1.02130897177999,0.0213089717799939,2,-0.475837998638053,1,0,"left"
"445","4_1",72,"4","Female",23,"Stim\r22y35g09b11.jpeg","Stim\r06y36g16b14.jpeg",22,6,35,36,9,16,11,14,-2,-1,0,0,1.461,2.787,1,"gul","4_2",1,0,0,"Left_lead","Female","Female",0,0.237427907816033,1.07541957537846,0.0754195753784577,2,-0.475837998638053,1,0,"left"
"446","4_1",73,"4","Female",23,"Stim\r02y19g24b04.jpeg","Stim\r19y15g35b05.jpeg",2,19,19,15,24,35,4,5,-2,1,1,0,1.86,2.306,1,"gul","4_2",-4,0,1,"Left_lead","Female","Female",1,0.237226544078002,1.09793468810719,0.0979346881071925,2,-0.475837998638053,0.666666666666667,-0.333333333333333,"left"
"448","4_1",76,"4","Female",23,"Stim\r19y10g06b15.jpeg","Stim\r12y07g07b17.jpeg",19,12,10,7,6,7,15,17,-1,-1,0,0,2.68,4.87,1,"grøn","4_2",1,0,0,"Left_lead","Female","Female",0,0.246085520582915,1.12404327150643,0.124043271506429,1,-1.83537513760392,1,0,"left"
"449","4_1",77,"4","Female",23,"Stim\r11y13g22b35.jpeg","Stim\r22y23g20b06.jpeg",11,22,13,23,22,20,35,6,3,-1,0,1,2.136,2.999,1,"grøn","4_2",-2,1,0,"Left_lead","Female","Female",1,0.214836062974766,1.03266394890762,0.0326639489076213,3,0.883699140327812,1.5,0.5,"left"
"450","4_1",78,"4","Female",23,"Stim\r09y15g18b07.jpeg","Stim\r17y22g16b15.jpeg",9,17,15,22,18,16,7,15,4,1,0,0,1.983,4.368,1,"grøn","4_2",-2,1,1,"Left_lead","Female","Female",0,0.207949387427623,1.0155314767177,0.0155314767177037,4,2.24323627929368,2,1,"left"
"451","4_1",82,"4","Female",23,"Stim\r07y14g27b22.jpeg","Stim\r05y28g23b30.jpeg",7,5,14,28,27,23,22,30,-3,1,1,0,1.641,2.325,1,"grøn","4_2",-4,0,1,"Left_lead","Female","Female",1,0.216732579831551,1.04814287844628,0.0481428784462818,3,0.883699140327812,1,0,"left"
"453","4_1",89,"4","Female",23,"Stim\r09y17g32b21.jpeg","Stim\r22y02g34b05.jpeg",9,22,17,2,32,34,21,5,2,1,1,1,2.484,2.135,1,"grøn","4_2",2,1,1,"Left_lead","Female","Female",0,0.263349073218051,1.07489809542724,0.0748980954272358,2,-0.475837998638053,2,1,"left"
"455","4_1",95,"4","Female",23,"Stim\r10y07g11b10.jpeg","Stim\r08y09g09b11.jpeg",10,8,7,9,11,9,10,11,2,1,0,0,1.101,1.52,1,"grøn","4_2",-2,1,1,"Left_lead","Female","Female",0,0.240074122131741,1.01061722418359,0.0106172241835878,2,-0.475837998638053,2,1,"left"
"459","3_2",14,"3","Male",24,"Stim\r17y11g38b07.jpeg","Stim\r15y05g12b10.jpeg",17,15,11,5,38,12,7,10,-2,-1,1,1,2.296,1.349,2,"rød","3_2",-2,0,0,"Left_lead","Male","Female",0,0.207086715539638,1.00502918820241,0.00502918820241294,2,0.199862211488984,2,1,"left"
"465","3_2",27,"3","Male",24,"Stim\r09y15g18b07.jpeg","Stim\r22y23g20b06.jpeg",9,22,15,23,18,20,7,6,-1,1,1,0,1.031,1.162,2,"blå","3_2",-1,0,1,"Left_lead","Male","Female",1,0.232157775183946,1.03553716870476,0.0355371687047599,1,-0.999311057444918,0.5,-0.5,"left"
"467","3_2",36,"3","Male",24,"Stim\r15y05g12b10.jpeg","Stim\r17y20g40b07.jpeg",15,17,5,20,12,40,10,7,-1,1,1,0,1.786,1.195,2,"blå","3_2",-3,0,1,"Left_lead","Male","Female",1,0.217102441084892,1.07266709974323,0.0726670997432319,1,-0.999311057444918,0.5,-0.5,"left"
"468","3_2",37,"3","Male",24,"Stim\r13y21g23b09.jpeg","Stim\r07y02g03b06.jpeg",13,7,21,2,23,3,9,6,-1,1,1,0,1.21,2.417,2,"blå","3_2",-3,0,1,"Left_lead","Male","Female",1,0.193308485823249,1.0655543662158,0.0655543662157951,1,-0.999311057444918,1,0,"left"
"469","3_2",38,"3","Male",24,"Stim\r17y12g19b18.jpeg","Stim\r17y22g16b15.jpeg",17,17,12,22,19,16,18,15,-2,-1,1,1,1.16,3.758,2,"blå","3_2",-3,0,0,"Left_lead","Male","Female",0,0.172321359335789,1.03354396492051,0.0335439649205085,2,0.199862211488984,1,0,"left"
"470","3_2",47,"3","Male",24,"Stim\r05y40g33b16.jpeg","Stim\r04y16g13b13.jpeg",5,4,40,16,33,13,16,13,-1,1,1,0,0.891,1.621,2,"blå","3_2",-3,0,1,"Left_lead","Male","Female",1,0.191222515857363,1.05033717824038,0.0503371782403848,1,-0.999311057444918,0.25,-0.75,"left"
"472","3_2",50,"3","Male",24,"Stim\r14y08g21b39.jpeg","Stim\r22y02g34b05.jpeg",14,22,8,2,21,34,39,5,1,-1,0,1,3.065,1.076,2,"gul","3_2",-6,1,0,"Left_lead","Male","Female",1,0.192628386942767,0.91547904544097,-0.0845209545590295,1,-0.999311057444918,1,0,"left"
"473","3_2",51,"3","Male",24,"Stim\r11y13g22b35.jpeg","Stim\r19y10g06b15.jpeg",11,19,13,10,22,6,35,15,-3,-1,1,1,1.787,1.339,2,"gul","3_2",-3,0,0,"Left_lead","Male","Female",0,0.199259989178473,0.944625540726071,-0.0553744592739291,3,1.39903548042289,1.5,0.5,"left"
"474","3_2",56,"3","Male",24,"Stim\r12y09g30b18.jpeg","Stim\r17y12g19b18.jpeg",12,17,9,12,30,19,18,18,2,1,1,1,1.032,1.106,2,"gul","3_2",3,1,1,"Left_lead","Male","Female",0,0.187030330665778,1.00648843934472,0.00648843934471532,2,0.199862211488984,2,1,"left"
"475","3_2",59,"3","Male",24,"Stim\r02y10g14b11.jpeg","Stim\r08y09g09b11.jpeg",2,8,10,9,14,9,11,11,-2,1,1,0,1.155,1.028,2,"gul","3_2",-1,0,1,"Left_lead","Male","Female",1,0.197470083298545,1.01446748978776,0.0144674897877568,2,0.199862211488984,1,0,"left"
"479","3_2",76,"3","Male",24,"Stim\r14y08g21b39.jpeg","Stim\r10y27g22b14.jpeg",14,10,8,27,21,22,39,14,-2,-1,0,0,1.009,1.471,2,"grøn","3_2",1,0,0,"Left_lead","Male","Female",0,0.232365819064384,0.987299236883717,-0.0127007631162828,2,0.199862211488984,1,0,"left"
"480","3_2",77,"3","Male",24,"Stim\r03y03g02b05.jpeg","Stim\r13y33g08b23.jpeg",3,13,3,33,2,8,5,23,-1,1,0,1,0.956,0.845,2,"grøn","3_2",6,0,1,"Left_lead","Male","Female",1,0.204193675231958,0.960364273531821,-0.0396357264681795,1,-0.999311057444918,0.5,-0.5,"left"
"481","3_2",79,"3","Male",24,"Stim\r10y37g07b02.jpeg","Stim\r14y12g04b29.jpeg",10,14,37,12,7,4,2,29,1,-1,0,1,1.508,3.854,2,"grøn","3_2",-3,1,0,"Left_lead","Male","Female",1,0.194021288668169,0.932084503744989,-0.0679154962550115,1,-0.999311057444918,1,0,"left"
"483","3_2",81,"3","Male",24,"Stim\r05y09g02b34.jpeg","Stim\r07y02g03b06.jpeg",5,7,9,2,2,3,34,6,2,1,1,1,3.478,1.413,2,"grøn","3_2",1,1,1,"Left_lead","Male","Female",0,0.202287961210714,0.920978493773301,-0.0790215062266989,2,0.199862211488984,1,0,"left"
"484","3_2",82,"3","Male",24,"Stim\r13y21g23b09.jpeg","Stim\r08y12g20b03.jpeg",13,8,21,12,23,20,9,3,2,-1,0,1,1.463,1.146,2,"grøn","3_2",-3,1,0,"Left_lead","Male","Female",1,0.198503854206619,0.893393383185596,-0.106606616814404,2,0.199862211488984,0.666666666666667,-0.333333333333333,"left"
"485","3_2",94,"3","Male",24,"Stim\r09y17g32b21.jpeg","Stim\r06y14g31b25.jpeg",9,6,17,14,32,31,21,25,-4,-1,1,1,1.208,1.067,2,"grøn","3_2",-1,0,0,"Left_lead","Male","Female",0,0.245724539767248,1.00463988980896,0.0046398898089639,4,2.59820874935679,2,1,"left"
"486","3_2",95,"3","Male",24,"Stim\r17y22g16b15.jpeg","Stim\r22y23g20b06.jpeg",17,22,22,23,16,20,15,6,-2,-1,0,0,1.838,3.19,2,"grøn","3_2",4,0,0,"Left_lead","Male","Female",0,0.240252481766069,0.9958527246697,-0.00414727533029979,2,0.199862211488984,2,1,"left"
"490","23_1",15,"23","Male",23,"Stim\r04y28g27b06.jpeg","Stim\r07y06g08b05.jpeg",4,7,28,6,27,8,6,5,2,1,1,1,1.317,1.344,1,"rød","23_22",3,1,1,"Left_lead","Male","Female",0,0.216221731654901,1.01798510462595,0.0179851046259469,2,0.740191901388164,2,1,"left"
"492","23_1",23,"23","Male",23,"Stim\r17y12g19b18.jpeg","Stim\r15y05g12b10.jpeg",17,15,12,5,19,12,18,10,2,-1,0,1,2.122,2.074,1,"rød","23_22",-2,1,0,"Left_lead","Male","Female",1,0.23683915875249,1.02411527989726,0.0241152798972641,2,0.740191901388164,1,0,"left"
"494","23_1",26,"23","Male",23,"Stim\r09y15g18b07.jpeg","Stim\r09y07g06b09.jpeg",9,9,15,7,18,6,7,9,-1,1,0,1,2.335,1.582,1,"blå","23_22",2,0,1,"Left_lead","Male","Female",1,0.233026416805383,0.941560307164007,-0.0584396928359933,1,-0.653110501224851,1,0,"left"
"495","23_1",28,"23","Male",23,"Stim\r08y23g10b29.jpeg","Stim\r09y06g26b32.jpeg",8,9,23,6,10,26,29,32,1,-1,1,0,2.348,1.45,1,"blå","23_22",3,1,0,"Left_lead","Male","Female",1,0.198066562346268,0.888698237826481,-0.111301762173519,1,-0.653110501224851,1,0,"left"
"499","23_1",45,"23","Male",23,"Stim\r14y08g21b39.jpeg","Stim\r11y13g22b35.jpeg",14,11,8,13,21,22,39,35,1,-1,0,1,3.548,1.565,1,"blå","23_22",-4,1,0,"Left_lead","Male","Female",1,0.176165214157651,1.01396450217857,0.0139645021785704,1,-0.653110501224851,0.5,-0.5,"left"
"503","23_1",67,"23","Male",23,"Stim\r08y09g09b11.jpeg","Stim\r07y06g08b05.jpeg",8,7,9,6,9,8,11,5,2,-1,0,1,1.177,3.843,1,"gul","23_22",-3,1,0,"Left_lead","Male","Female",1,0.215275413096266,0.96841818958271,-0.0315818104172901,2,0.740191901388164,1,0,"left"
"505","23_1",70,"23","Male",23,"Stim\r22y02g34b05.jpeg","Stim\r21y03g15b37.jpeg",22,21,2,3,34,15,5,37,1,-1,1,0,1.844,2.38,1,"gul","23_22",1,1,0,"Left_lead","Male","Female",1,0.214796063501896,0.905952197399245,-0.0940478026007551,1,-0.653110501224851,1,0,"left"
"506","23_1",72,"23","Male",23,"Stim\r09y07g06b09.jpeg","Stim\r07y14g27b22.jpeg",9,7,7,14,6,27,9,22,2,1,1,1,1.2,1.765,1,"gul","23_22",7,1,1,"Left_lead","Male","Female",0,0.232706499242528,1.01392988312022,0.0139298831202246,2,0.740191901388164,2,1,"left"
"508","23_1",76,"23","Male",23,"Stim\r10y03g03b07.jpeg","Stim\r03y03g02b05.jpeg",10,3,3,3,3,2,7,5,1,-1,0,1,0.989,1.654,1,"grøn","23_22",-1,1,0,"Left_lead","Male","Female",1,0.216744790518963,0.956202349411737,-0.0437976505882631,1,-0.653110501224851,1,0,"left"
"509","23_1",80,"23","Male",23,"Stim\r12y07g16b25.jpeg","Stim\r03y06g12b09.jpeg",12,3,7,6,16,12,25,9,-1,1,1,0,1.841,1.82,1,"grøn","23_22",-4,0,1,"Left_lead","Male","Female",1,0.210558802821039,1.06137789784384,0.0613778978438391,1,-0.653110501224851,1,0,"left"
"516","23_1",92,"23","Male",23,"Stim\r20y04g39b23.jpeg","Stim\r10y02g36b05.jpeg",20,10,4,2,39,36,23,5,3,1,0,0,2.536,1.693,1,"grøn","23_22",-3,1,1,"Left_lead","Male","Female",0,0.242487704832862,1.06088762762621,0.0608876276262149,3,2.13349430400118,3,2,"left"
"519","24_2",10,"24","Female",25,"Stim\r02y10g14b11.jpeg","Stim\r04y39g24b15.jpeg",2,4,10,39,14,24,11,15,1,-1,1,0,2.407,1.396,2,"rød","24_22",2,1,0,"Left_lead","Female","Female",1,0.224646234547065,1.07479165947369,0.0747916594736895,1,-0.83452296039628,1,0,"left"
"520","24_2",11,"24","Female",25,"Stim\r11y26g25b38.jpeg","Stim\r18y19g14b27.jpeg",11,18,26,19,25,14,38,27,-2,-1,0,0,1.337,2.203,2,"rød","24_22",7,0,0,"Left_lead","Female","Female",0,0.19228839395106,1.00298176022748,0.0029817602274842,2,0.83452296039628,2,1,"left"
"521","24_2",14,"24","Female",25,"Stim\r04y39g24b15.jpeg","Stim\r10y07g11b10.jpeg",4,10,39,7,24,11,15,10,-1,1,0,1,3.031,1.703,2,"rød","24_22",6,0,1,"Left_lead","Female","Female",1,0.199132125711668,0.966591004112694,-0.0334089958873059,1,-0.83452296039628,0.5,-0.5,"left"
"526","24_2",28,"24","Female",25,"Stim\r17y11g38b07.jpeg","Stim\r02y10g14b11.jpeg",17,2,11,10,38,14,7,11,1,-1,1,0,1.948,2.613,2,"blå","24_22",4,1,0,"Left_lead","Female","Female",1,0.223920403145673,0.969345542791954,-0.0306544572080465,1,-0.83452296039628,1,0,"left"
"527","24_2",32,"24","Female",25,"Stim\r04y28g27b06.jpeg","Stim\r17y11g38b07.jpeg",4,17,28,11,27,38,6,7,-1,1,0,1,1.815,1.574,2,"blå","24_22",1,0,1,"Left_lead","Female","Female",1,0.217463274194377,1.04005471041246,0.0400547104124578,1,-0.83452296039628,1,0,"left"
"528","24_2",33,"24","Female",25,"Stim\r13y24g05b28.jpeg","Stim\r21y03g15b37.jpeg",13,21,24,3,5,15,28,37,-3,-1,0,0,2.044,1.955,2,"blå","24_22",9,0,0,"Left_lead","Female","Female",0,0.193526564646647,0.937327793216178,-0.0626722067838223,3,2.50356888118884,3,2,"left"
"529","24_2",35,"24","Female",25,"Stim\r16y09g06b10.jpeg","Stim\r17y20g40b07.jpeg",16,17,9,20,6,40,10,7,2,1,0,0,1.518,6.417,2,"blå","24_22",-3,1,1,"Left_lead","Female","Female",0,0.129471923321077,0.690285063982661,-0.309714936017339,2,0.83452296039628,2,1,"left"
"530","24_2",36,"24","Female",25,"Stim\r14y12g04b29.jpeg","Stim\r18y19g14b27.jpeg",14,18,12,19,4,14,29,27,-1,1,1,0,2.907,2.908,2,"blå","24_22",-2,0,1,"Left_lead","Female","Female",1,0.144369687119007,0.814818808190107,-0.185181191809893,1,-0.83452296039628,0.5,-0.5,"left"
"532","24_2",39,"24","Female",25,"Stim\r07y14g27b22.jpeg","Stim\r12y07g16b25.jpeg",7,12,14,7,27,16,22,25,-2,-1,0,0,1.195,5.141,2,"blå","24_22",3,0,0,"Left_lead","Female","Female",0,0.143072404175949,0.856939497222045,-0.143060502777955,2,0.83452296039628,1,0,"left"
"533","24_2",45,"24","Female",25,"Stim\r11y10g06b19.jpeg","Stim\r12y07g07b17.jpeg",11,12,10,7,6,7,19,17,1,-1,0,1,2.099,1.629,2,"blå","24_22",-2,1,0,"Left_lead","Female","Female",1,0.167968991909731,0.97003549236054,-0.0299645076394597,1,-0.83452296039628,1,0,"left"
"534","24_2",47,"24","Female",25,"Stim\r15y16g12b03.jpeg","Stim\r22y02g34b05.jpeg",15,22,16,2,12,34,3,5,-1,1,0,1,1.937,1.29,2,"blå","24_22",2,0,1,"Left_lead","Female","Female",1,0.173015228973105,0.943308147777501,-0.056691852222499,1,-0.83452296039628,1,0,"left"
"536","24_2",54,"24","Female",25,"Stim\r11y14g08b23.jpeg","Stim\r10y13g07b36.jpeg",11,10,14,13,8,7,23,36,-2,1,1,0,2.226,1.473,2,"gul","24_22",-1,0,1,"Left_lead","Female","Female",1,0.188816537696312,0.896354653530995,-0.103645346469005,2,0.83452296039628,1,0,"left"
"540","24_2",60,"24","Female",25,"Stim\r14y12g04b29.jpeg","Stim\r03y11g01b26.jpeg",14,3,12,11,4,1,29,26,1,1,0,0,1.39,1.675,2,"gul","24_22",-1,1,1,"Left_lead","Female","Female",0,0.196286996812404,1.04979044721358,0.0497904472135806,1,-0.83452296039628,1,0,"left"
"541","24_2",61,"24","Female",25,"Stim\r10y13g07b36.jpeg","Stim\r12y12g14b26.jpeg",10,12,13,12,7,14,36,26,-1,1,1,0,1.188,2.37,2,"gul","24_22",-1,0,1,"Left_lead","Female","Female",1,0.193477634630899,1.0487316469091,0.0487316469090984,1,-0.83452296039628,1,0,"left"
"542","24_2",67,"24","Female",25,"Stim\r02y19g24b04.jpeg","Stim\r14y20g16b10.jpeg",2,14,19,20,24,16,4,10,-2,1,0,1,1.98,1.389,2,"gul","24_22",1,0,1,"Left_lead","Female","Female",1,0.240107629773844,1.03198270737757,0.0319827073775705,2,0.83452296039628,1,0,"left"
"544","24_2",71,"24","Female",25,"Stim\r14y20g16b10.jpeg","Stim\r09y17g32b21.jpeg",14,9,20,17,16,32,10,21,1,-1,0,1,1.103,3.819,2,"gul","24_22",-3,1,0,"Left_lead","Female","Female",1,0.217318707663799,0.965854325834996,-0.034145674165004,1,-0.83452296039628,0.5,-0.5,"left"
"546","24_2",73,"24","Female",25,"Stim\r16y09g06b10.jpeg","Stim\r16y21g04b04.jpeg",16,16,9,21,6,4,10,4,1,1,0,0,0.941,1.314,2,"grøn","24_22",-2,1,1,"Left_lead","Female","Female",0,0.205372194455786,0.883942356533585,-0.116057643466415,1,-0.83452296039628,1,0,"left"
"547","24_2",74,"24","Female",25,"Stim\r06y14g31b25.jpeg","Stim\r12y09g30b18.jpeg",6,12,14,9,31,30,25,18,-1,-1,1,1,1.292,2.602,2,"grøn","24_22",-1,0,0,"Left_lead","Female","Female",0,0.211237423014674,0.897854584658923,-0.102145415341077,1,-0.83452296039628,1,0,"left"
"548","24_2",75,"24","Female",25,"Stim\r02y10g14b11.jpeg","Stim\r14y10g15b15.jpeg",2,14,10,10,14,15,11,15,-1,1,0,1,2.209,1.676,2,"grøn","24_22",1,0,1,"Left_lead","Female","Female",1,0.208640210763706,0.890495036552295,-0.109504963447705,1,-0.83452296039628,1,0,"left"
"549","24_2",76,"24","Female",25,"Stim\r07y14g27b22.jpeg","Stim\r15y17g24b30.jpeg",7,15,14,17,27,24,22,30,-2,-1,1,1,1.26,1.8,2,"grøn","24_22",-3,0,0,"Left_lead","Female","Female",0,0.207973156327002,0.9379933291588,-0.0620066708411996,2,0.83452296039628,2,1,"left"
"550","24_2",77,"24","Female",25,"Stim\r17y11g38b07.jpeg","Stim\r17y20g40b07.jpeg",17,17,11,20,38,40,7,7,2,1,1,1,2.711,1.519,2,"grøn","24_22",2,1,1,"Left_lead","Female","Female",0,0.192936612596289,0.965635250240312,-0.0343647497596877,2,0.83452296039628,2,1,"left"
"552","24_2",81,"24","Female",25,"Stim\r09y17g32b21.jpeg","Stim\r06y14g31b25.jpeg",9,6,17,14,32,31,21,25,-2,1,1,0,1.194,2.829,2,"grøn","24_22",-1,0,1,"Left_lead","Female","Female",1,0.203876311338894,0.986625019336604,-0.0133749806633962,2,0.83452296039628,0.5,-0.5,"left"
"557","24_2",92,"24","Female",25,"Stim\r03y11g01b26.jpeg","Stim\r21y01g04b27.jpeg",3,21,11,1,1,4,26,27,-1,1,0,1,2.912,1.455,2,"grøn","24_22",3,0,1,"Left_lead","Female","Female",1,0.233679459262083,0.963483801025762,-0.036516198974238,1,-0.83452296039628,1,0,"left"
"560","21_2",13,"21","Male",24,"Stim\r12y07g07b17.jpeg","Stim\r13y24g05b28.jpeg",12,13,7,24,7,5,17,28,-2,-1,0,0,2,2.511,2,"rød","21_23",1,0,0,"Left_lead","Male","Male",0,0.210697798790573,1.05069005557263,0.0506900555726304,2,1.22140963310492,1,0,"left"
"564","21_2",29,"21","Male",24,"Stim\r11y26g25b38.jpeg","Stim\r05y09g02b34.jpeg",11,5,26,9,25,2,38,34,1,-1,0,1,1.464,1.759,2,"blå","21_23",-4,1,0,"Left_lead","Male","Male",1,0.209605807439482,0.788804932085304,-0.211195067914696,1,-0.793916261518197,0.5,-0.5,"left"
"569","21_2",43,"21","Male",24,"Stim\r16y09g06b10.jpeg","Stim\r10y03g03b07.jpeg",16,10,9,3,6,3,10,7,-2,1,1,0,1.508,2.031,2,"blå","21_23",-3,0,1,"Left_lead","Male","Male",1,0.153736491779005,1.05705695109014,0.0570569510901402,2,1.22140963310492,1,0,"left"
"571","21_2",49,"21","Male",24,"Stim\r07y02g03b06.jpeg","Stim\r20y04g39b23.jpeg",7,20,2,4,3,39,6,23,-1,1,0,1,3.05,2.227,2,"gul","21_23",2,0,1,"Left_lead","Male","Male",1,0.182798388223519,0.994680646183419,-0.00531935381658066,1,-0.793916261518197,1,0,"left"
"572","21_2",50,"21","Male",24,"Stim\r20y14g02b19.jpeg","Stim\r15y17g24b30.jpeg",20,15,14,17,2,24,19,30,-1,1,0,1,1.53,1.708,2,"gul","21_23",3,0,1,"Left_lead","Male","Male",1,0.180951453390369,0.959587474867508,-0.0404125251324918,1,-0.793916261518197,0.5,-0.5,"left"
"573","21_2",53,"21","Male",24,"Stim\r03y06g12b09.jpeg","Stim\r09y02g05b02.jpeg",3,9,6,2,12,5,9,2,-2,1,1,0,1.27,2.709,2,"gul","21_23",-4,0,1,"Left_lead","Male","Male",1,0.213431359746156,1.06832467191877,0.0683246719187736,2,1.22140963310492,1,0,"left"
"575","21_2",56,"21","Male",24,"Stim\r15y16g12b03.jpeg","Stim\r06y19g29b08.jpeg",15,6,16,19,12,29,3,8,-2,-1,0,0,1.278,1.53,2,"gul","21_23",3,0,0,"Left_lead","Male","Male",0,0.195441426431205,0.795151451228299,-0.204848548771701,2,1.22140963310492,2,1,"left"
"577","21_2",61,"21","Male",24,"Stim\r05y28g23b30.jpeg","Stim\r13y24g05b28.jpeg",5,13,28,24,23,5,30,28,2,-1,0,1,1.587,3.641,2,"gul","21_23",-4,1,0,"Left_lead","Male","Male",1,0.204156619960311,0.946355422092568,-0.0536445779074324,2,1.22140963310492,1,0,"left"
"578","21_2",65,"21","Male",24,"Stim\r05y40g33b16.jpeg","Stim\r06y36g16b14.jpeg",5,6,40,36,33,16,16,14,1,-1,0,1,2.212,1.328,2,"gul","21_23",-4,1,0,"Left_lead","Male","Male",1,0.205526167262296,0.908811093924846,-0.0911889060751541,1,-0.793916261518197,0.5,-0.5,"left"
"579","21_2",66,"21","Male",24,"Stim\r09y07g06b09.jpeg","Stim\r15y05g12b10.jpeg",9,15,7,5,6,12,9,10,-2,-1,1,1,1.842,3.293,2,"gul","21_23",-2,0,0,"Left_lead","Male","Male",0,0.21341526200392,0.949801305592389,-0.0501986944076115,2,1.22140963310492,2,1,"left"
"580","21_2",67,"21","Male",24,"Stim\r22y23g20b06.jpeg","Stim\r10y27g22b14.jpeg",22,10,23,27,20,22,6,14,-1,1,0,1,1.785,2.863,2,"gul","21_23",4,0,1,"Left_lead","Male","Male",1,0.220813701106039,0.924584637825277,-0.0754153621747232,1,-0.793916261518197,1,0,"left"
"581","21_2",68,"21","Male",24,"Stim\r03y11g01b26.jpeg","Stim\r14y10g15b15.jpeg",3,14,11,10,1,15,26,15,1,-1,0,1,1.599,1.812,2,"gul","21_23",-1,1,0,"Left_lead","Male","Male",1,0.22656742554547,0.937253240461634,-0.0627467595383656,1,-0.793916261518197,1,0,"left"
"586","21_2",83,"21","Male",24,"Stim\r11y10g06b19.jpeg","Stim\r11y14g08b23.jpeg",11,11,10,14,6,8,19,23,-1,1,0,1,1.118,1.162,2,"grøn","21_23",2,0,1,"Left_lead","Male","Male",1,0.21190437845353,0.964109708581396,-0.035890291418604,1,-0.793916261518197,0.5,-0.5,"left"
"587","21_2",87,"21","Male",24,"Stim\r09y15g18b07.jpeg","Stim\r10y27g22b14.jpeg",9,10,15,27,18,22,7,14,-2,-1,0,0,1.957,1.242,2,"grøn","21_23",4,0,0,"Left_lead","Male","Male",0,0.23380117328556,0.944584537850418,-0.0554154621495822,2,1.22140963310492,2,1,"left"
"589","21_2",90,"21","Male",24,"Stim\r08y09g09b11.jpeg","Stim\r17y07g07b24.jpeg",8,17,9,7,9,7,11,24,-2,1,1,0,2.629,1.161,2,"grøn","21_23",-2,0,1,"Left_lead","Male","Male",1,0.241985611851191,0.967138177470638,-0.0328618225293624,2,1.22140963310492,1,0,"left"
"590","21_2",95,"21","Male",24,"Stim\r02y19g24b04.jpeg","Stim\r11y13g22b35.jpeg",2,11,19,13,24,22,4,35,-1,1,1,0,1.121,2.644,2,"grøn","21_23",-2,0,1,"Left_lead","Male","Male",1,0.243377196810097,1.01734943289528,0.0173494328952759,1,-0.793916261518197,1,0,"left"
"591","21_2",96,"21","Male",24,"Stim\r04y39g24b15.jpeg","Stim\r13y21g23b09.jpeg",4,13,39,21,24,23,15,9,-1,1,1,0,1.153,1.688,2,"grøn","21_23",-1,0,1,"Left_lead","Male","Male",1,0.238972252102449,1.01428445407392,0.0142844540739229,1,-0.793916261518197,0.5,-0.5,"left"
"593","21_1",17,"21","Male",24,"Stim\r03y06g12b09.jpeg","Stim\r06y14g31b25.jpeg",3,6,6,14,12,31,9,25,-1,1,0,1,3.989,3.536,1,"rød","21_24",3,0,1,"Left_lead","Male","Female",1,0.189756886598868,0.920576784399794,-0.079423215600206,1,-0.87388478319842,0.5,-0.5,"left"
"594","21_1",18,"21","Male",24,"Stim\r14y12g04b29.jpeg","Stim\r17y11g38b07.jpeg",14,17,12,11,4,38,29,7,-1,1,0,1,2.313,2.826,1,"rød","21_24",3,0,1,"Left_lead","Male","Female",1,0.187975357686484,0.8571559854523,-0.1428440145477,1,-0.87388478319842,0.5,-0.5,"left"
"595","21_1",20,"21","Male",24,"Stim\r16y21g04b04.jpeg","Stim\r13y24g05b28.jpeg",16,13,21,24,4,5,4,28,-2,1,1,0,2.667,3.561,1,"rød","21_24",-3,0,1,"Left_lead","Male","Female",1,0.232435581931794,0.97646622475535,-0.0235337752446496,2,0.953328854398277,1,0,"left"
"596","21_1",21,"21","Male",24,"Stim\r10y02g36b05.jpeg","Stim\r14y12g04b29.jpeg",10,14,2,12,36,4,5,29,1,1,1,1,2.193,2.849,1,"rød","21_24",4,1,1,"Left_lead","Male","Female",0,0.226729511276767,0.984726045415956,-0.0152739545840438,1,-0.87388478319842,1,0,"left"
"598","21_1",27,"21","Male",24,"Stim\r17y07g07b24.jpeg","Stim\r21y01g04b27.jpeg",17,21,7,1,7,4,24,27,2,1,1,1,1.703,1.862,1,"blå","21_24",3,1,1,"Left_lead","Male","Female",0,0.253046247309095,1.1179642119266,0.117964211926605,2,0.953328854398277,1,0,"left"
"599","21_1",31,"21","Male",24,"Stim\r09y07g06b09.jpeg","Stim\r06y19g29b08.jpeg",9,6,7,19,6,29,9,8,-2,-1,1,1,2.079,2.865,1,"blå","21_24",-1,0,0,"Left_lead","Male","Female",0,0.241809709180872,1.11994316129688,0.119943161296877,2,0.953328854398277,2,1,"left"
"600","21_1",34,"21","Male",24,"Stim\r13y24g05b28.jpeg","Stim\r17y07g07b24.jpeg",13,17,24,7,5,7,28,24,-1,1,1,0,2.48,1.845,1,"blå","21_24",-4,0,1,"Left_lead","Male","Female",1,0.243141509672715,1.15036898341224,0.150368983412239,1,-0.87388478319842,0.5,-0.5,"left"
"603","21_1",38,"21","Male",24,"Stim\r12y12g14b26.jpeg","Stim\r06y14g31b25.jpeg",12,6,12,14,14,31,26,25,2,1,0,0,2.999,1.91,1,"blå","21_24",-1,1,1,"Left_lead","Male","Female",0,0.165419556853336,1.04574579245411,0.045745792454106,2,0.953328854398277,2,1,"left"
"606","21_1",45,"21","Male",24,"Stim\r10y27g22b14.jpeg","Stim\r10y07g11b10.jpeg",10,10,27,7,22,11,14,10,-1,-1,1,1,5.419,1.568,1,"blå","21_24",-4,0,0,"Left_lead","Male","Female",0,0.169441581279082,1.0143244134887,0.0143244134887022,1,-0.87388478319842,0.5,-0.5,"left"
"607","21_1",47,"21","Male",24,"Stim\r13y33g08b23.jpeg","Stim\r10y27g22b14.jpeg",13,10,33,27,8,22,23,14,-2,-1,1,1,1.771,2.189,1,"blå","21_24",-9,0,0,"Left_lead","Male","Female",0,0.180937222397031,1.06496668459133,0.0649666845913346,2,0.953328854398277,2,1,"left"
"611","21_1",52,"21","Male",24,"Stim\r21y01g04b27.jpeg","Stim\r03y03g02b05.jpeg",21,3,1,3,4,2,27,5,-2,-1,0,0,4.284,1.746,1,"gul","21_24",2,0,0,"Left_lead","Male","Female",0,0.164229406276499,0.964656523361702,-0.0353434766382978,2,0.953328854398277,2,1,"left"
"613","21_1",55,"21","Male",24,"Stim\r22y02g34b05.jpeg","Stim\r15y05g12b10.jpeg",22,15,2,5,34,12,5,10,2,1,1,1,1.215,2.004,1,"gul","21_24",3,1,1,"Left_lead","Male","Female",0,0.18091819225563,0.990664309404545,-0.00933569059545547,2,0.953328854398277,2,1,"left"
"614","21_1",56,"21","Male",24,"Stim\r16y21g04b04.jpeg","Stim\r15y17g24b30.jpeg",16,15,21,17,4,24,4,30,-2,1,1,0,1.888,1.943,1,"gul","21_24",-4,0,1,"Left_lead","Male","Female",1,0.188661346581895,1.2315670854489,0.2315670854489,2,0.953328854398277,1,0,"left"
"619","21_1",61,"21","Male",24,"Stim\r19y15g35b05.jpeg","Stim\r04y16g13b13.jpeg",19,4,15,16,35,13,5,13,1,-1,1,0,2.329,2.207,1,"gul","21_24",1,1,0,"Left_lead","Male","Female",1,0.222764936363008,1.42431519833125,0.424315198331246,1,-0.87388478319842,0.5,-0.5,"left"
"620","21_1",62,"21","Male",24,"Stim\r18y13g28b06.jpeg","Stim\r17y12g19b18.jpeg",18,17,13,12,28,19,6,18,-1,1,1,0,4.013,2.415,1,"gul","21_24",-1,0,1,"Left_lead","Male","Female",1,0.233318008439092,1.42206551649075,0.422065516490753,1,-0.87388478319842,1,0,"left"
"621","21_1",63,"21","Male",24,"Stim\r20y14g02b19.jpeg","Stim\r08y12g20b03.jpeg",20,8,14,12,2,20,19,3,-1,-1,1,1,4.275,2.813,1,"gul","21_24",-2,0,0,"Left_lead","Male","Female",0,0.234057891564223,1.37232960914207,0.372329609142074,1,-0.87388478319842,1,0,"left"
"622","21_1",64,"21","Male",24,"Stim\r03y11g01b26.jpeg","Stim\r12y07g07b17.jpeg",3,12,11,7,1,7,26,17,2,1,0,0,1.383,1.72,1,"gul","21_24",-4,1,1,"Left_lead","Male","Female",0,0.221690465252923,1.24383135965101,0.243831359651012,2,0.953328854398277,2,1,"left"
"623","21_1",65,"21","Male",24,"Stim\r09y17g32b21.jpeg","Stim\r14y10g15b15.jpeg",9,14,17,10,32,15,21,15,1,-1,0,1,5.318,1.499,1,"gul","21_24",-7,1,0,"Left_lead","Male","Female",1,0.209460014405505,1.12648020285919,0.126480202859186,1,-0.87388478319842,0.5,-0.5,"left"
"624","21_1",70,"21","Male",24,"Stim\r13y21g23b09.jpeg","Stim\r09y17g32b21.jpeg",13,9,21,17,23,32,9,21,-2,-1,1,1,1.687,2.161,1,"gul","21_24",-4,0,0,"Left_lead","Male","Female",0,0.235032020539587,0.944799340330828,-0.0552006596691718,2,0.953328854398277,2,1,"left"
"626","21_1",75,"21","Male",24,"Stim\r15y05g12b10.jpeg","Stim\r06y36g16b14.jpeg",15,6,5,36,12,16,10,14,-2,1,0,1,1.447,3.565,1,"grøn","21_24",4,0,1,"Left_lead","Male","Female",1,0.249256639929235,0.985418578369438,-0.014581421630562,2,0.953328854398277,1,0,"left"
"627","21_1",77,"21","Male",24,"Stim\r17y12g19b18.jpeg","Stim\r22y23g20b06.jpeg",17,22,12,23,19,20,18,6,-1,1,0,1,2.387,1.411,1,"grøn","21_24",1,0,1,"Left_lead","Male","Female",1,0.212984334770347,0.971847621075883,-0.0281523789241174,1,-0.87388478319842,0.5,-0.5,"left"
"629","21_1",80,"21","Male",24,"Stim\r16y21g04b04.jpeg","Stim\r03y03g02b05.jpeg",16,3,21,3,4,2,4,5,1,-1,0,1,2.706,2.038,1,"grøn","21_24",-2,1,0,"Left_lead","Male","Female",1,0.202851457600151,0.930518511483042,-0.0694814885169583,1,-0.87388478319842,1,0,"left"
"632","21_1",85,"21","Male",24,"Stim\r14y20g16b10.jpeg","Stim\r11y26g25b38.jpeg",14,11,20,26,16,25,10,38,-1,1,0,1,2.356,2.861,1,"grøn","21_24",9,0,1,"Left_lead","Male","Female",1,0.18257743787769,0.919572910820801,-0.0804270891791987,1,-0.87388478319842,1,0,"left"
"633","21_1",87,"21","Male",24,"Stim\r21y31g06b08.jpeg","Stim\r10y03g03b07.jpeg",21,10,31,3,6,3,8,7,-1,1,1,0,3.217,1.394,1,"grøn","21_24",-3,0,1,"Left_lead","Male","Female",1,0.216645889714251,0.97056665227526,-0.02943334772474,1,-0.87388478319842,1,0,"left"
"634","21_1",92,"21","Male",24,"Stim\r19y15g35b05.jpeg","Stim\r07y14g27b22.jpeg",19,7,15,14,35,27,5,22,2,-1,0,1,2.667,1.362,1,"grøn","21_24",-8,1,0,"Left_lead","Male","Female",1,0.230202905050152,0.914057081699086,-0.0859429183009137,2,0.953328854398277,1,0,"left"
"636","21_1",96,"21","Male",24,"Stim\r12y09g30b18.jpeg","Stim\r04y28g27b06.jpeg",12,4,9,28,30,27,18,6,2,1,0,0,3.051,1.442,1,"grøn","21_24",-3,1,1,"Left_lead","Male","Female",0,0.228527006814496,0.977772422564373,-0.0222275774356271,2,0.953328854398277,1,0,"left"
"642","26_2",15,"26","Female",24,"Stim\r09y06g26b32.jpeg","Stim\r06y14g31b25.jpeg",9,6,6,14,26,31,32,25,1,1,0,0,1.137,1.834,2,"rød","26_27",-3,1,1,"Left_lead","Female","Male",0,0.220388917729422,1.00543223169681,0.00543223169680984,1,-0.515978455203089,1,0,"left"
"644","26_2",19,"26","Female",24,"Stim\r22y02g34b05.jpeg","Stim\r14y10g15b15.jpeg",22,14,2,10,34,15,5,15,-1,-1,1,1,0.972,1.597,2,"rød","26_27",-8,0,0,"Left_lead","Female","Male",0,0.218301132016147,1.09071048674564,0.090710486745637,1,-0.515978455203089,1,0,"left"
"649","26_2",25,"26","Female",24,"Stim\r03y03g02b05.jpeg","Stim\r09y15g18b07.jpeg",3,9,3,15,2,18,5,7,1,-1,1,0,1.249,2.357,2,"blå","26_27",2,1,0,"Left_lead","Female","Male",1,0.235442201958911,1.06665901537116,0.0666590153711604,1,-0.515978455203089,1,0,"left"
"653","26_2",37,"26","Female",24,"Stim\r13y24g05b28.jpeg","Stim\r15y17g24b30.jpeg",13,15,24,17,5,24,28,30,2,1,1,1,1.867,1.566,2,"blå","26_27",2,1,1,"Left_lead","Female","Male",0,0.184388885447609,1.09299035944782,0.0929903594478219,2,1.89192100241133,2,1,"left"
"654","26_2",40,"26","Female",24,"Stim\r15y16g12b03.jpeg","Stim\r02y19g24b04.jpeg",15,2,16,19,12,24,3,4,1,-1,1,0,1.231,1.596,2,"blå","26_27",1,1,0,"Left_lead","Female","Male",1,0.161398015086967,1.06161944393019,0.0616194439301856,1,-0.515978455203089,0.5,-0.5,"left"
"655","26_2",43,"26","Female",24,"Stim\r07y02g03b06.jpeg","Stim\r03y03g02b05.jpeg",7,3,2,3,3,2,6,5,-1,-1,1,1,1.691,1.552,2,"blå","26_27",-1,0,0,"Left_lead","Female","Male",0,0.159213217919267,1.04819161124389,0.048191611243894,1,-0.515978455203089,1,0,"left"
"658","26_2",48,"26","Female",24,"Stim\r07y14g27b22.jpeg","Stim\r13y33g08b23.jpeg",7,13,14,33,27,8,22,23,2,1,1,1,1.669,1.74,2,"blå","26_27",1,1,1,"Left_lead","Female","Male",0,0.178086054941148,0.962125887779311,-0.0378741122206887,2,1.89192100241133,2,1,"left"
"660","26_2",56,"26","Female",24,"Stim\r15y17g24b30.jpeg","Stim\r13y21g23b09.jpeg",15,13,17,21,24,23,30,9,1,-1,1,0,1.244,1.623,2,"gul","26_27",4,1,0,"Left_lead","Female","Male",1,0.231137956938132,0.991534752610387,-0.00846524738961318,1,-0.515978455203089,0.333333333333333,-0.666666666666667,"left"
"661","26_2",61,"26","Female",24,"Stim\r16y21g04b04.jpeg","Stim\r09y17g32b21.jpeg",16,9,21,17,4,32,4,21,1,-1,0,1,1.022,1.26,2,"gul","26_27",-4,1,0,"Left_lead","Female","Male",1,0.2027012642475,0.975650361765067,-0.0243496382349326,1,-0.515978455203089,0.5,-0.5,"left"
"663","26_2",66,"26","Female",24,"Stim\r14y10g15b15.jpeg","Stim\r11y14g08b23.jpeg",14,11,10,14,15,8,15,23,-1,1,0,1,1.414,1.977,2,"gul","26_27",4,0,1,"Left_lead","Female","Male",1,0.207935579322682,0.956854643724016,-0.0431453562759839,1,-0.515978455203089,0.25,-0.75,"left"
"666","26_2",74,"26","Female",24,"Stim\r06y14g31b25.jpeg","Stim\r09y17g32b21.jpeg",6,9,14,17,31,32,25,21,-2,1,0,1,1.559,1.998,2,"grøn","26_27",1,0,1,"Left_lead","Female","Male",1,0.224580394839024,0.991293905766017,-0.00870609423398316,2,1.89192100241133,0.666666666666667,-0.333333333333333,"left"
"668","26_2",76,"26","Female",24,"Stim\r08y09g09b11.jpeg","Stim\r11y10g06b19.jpeg",8,11,9,10,9,6,11,19,2,1,0,0,1.808,2.627,2,"grøn","26_27",-3,1,1,"Left_lead","Female","Male",0,0.228859407103637,1.04535997776309,0.0453599777630873,2,1.89192100241133,1,0,"left"
"669","26_2",78,"26","Female",24,"Stim\r10y07g11b10.jpeg","Stim\r15y16g12b03.jpeg",10,15,7,16,11,12,10,3,2,1,1,1,1.776,2.248,2,"grøn","26_27",1,1,1,"Left_lead","Female","Male",0,0.194935874053253,1.06259503937144,0.0625950393714367,2,1.89192100241133,2,1,"left"
"672","26_2",84,"26","Female",24,"Stim\r06y19g29b08.jpeg","Stim\r04y28g27b06.jpeg",6,4,19,28,29,27,8,6,-1,1,1,0,1.579,1.292,2,"grøn","26_27",-2,0,1,"Left_lead","Female","Male",1,0.176692453394305,1.00624867938137,0.0062486793813652,1,-0.515978455203089,0.333333333333333,-0.666666666666667,"left"
"674","26_2",86,"26","Female",24,"Stim\r22y02g34b05.jpeg","Stim\r17y11g38b07.jpeg",22,17,2,11,34,38,5,7,1,-1,1,0,1.815,1.75,2,"grøn","26_27",4,1,0,"Left_lead","Female","Male",1,0.180992255756038,1.05604608501042,0.056046085010417,1,-0.515978455203089,1,0,"left"
"678","26_2",92,"26","Female",24,"Stim\r14y08g21b39.jpeg","Stim\r15y17g24b30.jpeg",14,15,8,17,21,24,39,30,-1,1,0,1,1.633,1.334,2,"grøn","26_27",3,0,1,"Left_lead","Female","Male",1,0.23511136472257,0.943949866520745,-0.0560501334792551,1,-0.515978455203089,0.333333333333333,-0.666666666666667,"left"
"681","26_1",13,"26","Female",24,"Stim\r12y07g16b25.jpeg","Stim\r14y10g15b15.jpeg",12,14,7,10,16,15,25,15,-1,1,0,1,2.612,3.768,1,"rød","26_28",2,0,1,"Left_lead","Female","Female",1,0.197345838076341,1.00278564558064,0.00278564558063654,1,-0.839719122759632,1,0,"left"
"687","26_1",34,"26","Female",24,"Stim\r17y20g40b07.jpeg","Stim\r15y16g12b03.jpeg",17,15,20,16,40,12,7,3,-2,-1,1,1,1.393,2.948,1,"blå","26_28",-4,0,0,"Left_lead","Female","Female",0,0.191108887255921,1.08961318895085,0.0896131889508467,2,1.14507153103586,2,1,"left"
"688","26_1",35,"26","Female",24,"Stim\r17y07g07b24.jpeg","Stim\r09y17g32b21.jpeg",17,9,7,17,7,32,24,21,2,1,0,0,1.914,3.364,1,"blå","26_28",-3,1,1,"Left_lead","Female","Female",0,0.171905031350231,1.06189052738406,0.0618905273840613,2,1.14507153103586,1,0,"left"
"690","26_1",42,"26","Female",24,"Stim\r16y21g04b04.jpeg","Stim\r21y31g06b08.jpeg",16,21,21,31,4,6,4,8,2,1,1,1,1.464,2.031,1,"blå","26_28",4,1,1,"Left_lead","Female","Female",0,0.152579103988798,1.01409336943264,0.0140933694326353,2,1.14507153103586,2,1,"left"
"692","26_1",51,"26","Female",24,"Stim\r08y23g10b29.jpeg","Stim\r17y20g40b07.jpeg",8,17,23,20,10,40,29,7,2,1,0,0,1.426,3.101,1,"gul","26_28",-3,1,1,"Left_lead","Female","Female",0,0.206143408778485,1.11356307911696,0.113563079116962,2,1.14507153103586,2,1,"left"
"694","26_1",53,"26","Female",24,"Stim\r15y16g12b03.jpeg","Stim\r22y23g20b06.jpeg",15,22,16,23,12,20,3,6,1,1,1,1,1.898,2.401,1,"gul","26_28",7,1,1,"Left_lead","Female","Female",0,0.208849094094231,1.18289119342888,0.182891193428876,1,-0.839719122759632,1,0,"left"
"695","26_1",63,"26","Female",24,"Stim\r14y12g04b29.jpeg","Stim\r11y14g08b23.jpeg",14,11,12,14,4,8,29,23,2,1,1,1,1.257,1.867,1,"gul","26_28",2,1,1,"Left_lead","Female","Female",0,0.216167806230727,0.995577749330965,-0.00442225066903479,2,1.14507153103586,2,1,"left"
"696","26_1",64,"26","Female",24,"Stim\r15y17g24b30.jpeg","Stim\r06y19g29b08.jpeg",15,6,17,19,24,29,30,8,2,1,1,1,1.43,2.663,1,"gul","26_28",2,1,1,"Left_lead","Female","Female",0,0.217004283955596,1.01898455610864,0.0189845561086439,2,1.14507153103586,2,1,"left"
"701","26_1",75,"26","Female",24,"Stim\r05y40g33b16.jpeg","Stim\r06y19g29b08.jpeg",5,6,40,19,33,29,16,8,-1,1,1,0,1.051,3.341,1,"grøn","26_28",-4,0,1,"Left_lead","Female","Female",1,0.228991961925676,1.03056053310196,0.0305605331019554,1,-0.839719122759632,1,0,"left"
"702","26_1",78,"26","Female",24,"Stim\r20y14g02b19.jpeg","Stim\r11y14g08b23.jpeg",20,11,14,14,2,8,19,23,1,1,1,1,0.842,2.03,1,"grøn","26_28",6,1,1,"Left_lead","Female","Female",0,0.196895561965416,1.05820691010941,0.0582069101094114,1,-0.839719122759632,1,0,"left"
"704","26_1",83,"26","Female",24,"Stim\r08y23g10b29.jpeg","Stim\r11y14g08b23.jpeg",8,11,23,14,10,8,29,23,1,-1,0,1,2.202,1.698,1,"grøn","26_28",-2,1,0,"Left_lead","Female","Female",1,0.203209025551004,1.13047355799135,0.13047355799135,1,-0.839719122759632,1,0,"left"
"707","30_1",15,"30","Female",24,"Stim\r17y11g38b07.jpeg","Stim\r21y24g16b04.jpeg",17,21,11,24,38,16,7,4,-2,1,0,1,4.56,2.787,1,"rød","30_31",4,0,1,"Left_lead","Female","Male",1,0.210342730654939,0.935177064252015,-0.0648229357479851,2,0.158113883008419,0.5,-0.5,"left"
"714","30_1",29,"30","Female",24,"Stim\r13y21g23b09.jpeg","Stim\r06y19g29b08.jpeg",13,6,21,19,23,29,9,8,2,1,0,0,3.323,3.684,1,"blå","30_31",-1,1,1,"Left_lead","Female","Male",0,0.239667521687563,1.15409140678011,0.154091406780107,2,0.158113883008419,2,1,"left"
"720","30_1",35,"30","Female",24,"Stim\r10y13g07b36.jpeg","Stim\r11y26g25b38.jpeg",10,11,13,26,7,25,36,38,2,-1,1,0,3.127,4.829,1,"blå","30_31",2,1,0,"Left_lead","Female","Male",1,0.21944613015303,3.30295945790118,2.30295945790118,2,0.158113883008419,1,0,"left"
"721","30_1",39,"30","Female",24,"Stim\r17y20g40b07.jpeg","Stim\r16y09g06b10.jpeg",17,16,20,9,40,6,7,10,2,-1,1,0,2.973,3.468,1,"blå","30_31",3,1,0,"Left_lead","Female","Male",1,0.163512636944953,1.14375564497301,0.143755644973014,2,0.158113883008419,0.666666666666667,-0.333333333333333,"left"
"722","30_1",42,"30","Female",24,"Stim\r14y20g16b10.jpeg","Stim\r09y15g18b07.jpeg",14,9,20,15,16,18,10,7,-2,1,1,0,1.606,4.664,1,"blå","30_31",-3,0,1,"Left_lead","Female","Male",1,0.156348512753417,1.07859299927557,0.0785929992755683,2,0.158113883008419,0.666666666666667,-0.333333333333333,"left"
"723","30_1",43,"30","Female",24,"Stim\r06y14g31b25.jpeg","Stim\r09y17g32b21.jpeg",6,9,14,17,31,32,25,21,2,-1,0,1,5.1,9.659,1,"blå","30_31",-4,1,0,"Left_lead","Female","Male",1,0.155939886404609,1.06819854941048,0.0681985494104842,2,0.158113883008419,0.666666666666667,-0.333333333333333,"left"
"728","30_1",50,"30","Female",24,"Stim\r21y24g16b04.jpeg","Stim\r15y16g12b03.jpeg",21,15,24,16,16,12,4,3,2,-1,0,1,2.234,3.8,1,"gul","30_31",-8,1,0,"Left_lead","Female","Male",1,0.160998226291174,0.942640842156892,-0.0573591578431083,2,0.158113883008419,1,0,"left"
"729","30_1",52,"30","Female",24,"Stim\r16y21g04b04.jpeg","Stim\r14y20g16b10.jpeg",16,14,21,20,4,16,4,10,2,-1,0,1,2.152,4.77,1,"gul","30_31",-1,1,0,"Left_lead","Female","Male",1,0.142370791222741,0.8256087709575,-0.1743912290425,2,0.158113883008419,0.666666666666667,-0.333333333333333,"left"
"730","30_1",54,"30","Female",24,"Stim\r10y03g03b07.jpeg","Stim\r22y02g34b05.jpeg",10,22,3,2,3,34,7,5,-2,1,1,0,1.719,5.633,1,"gul","30_31",-1,0,1,"Left_lead","Female","Male",1,0.177200921369717,0.997891435420351,-0.00210856457964914,2,0.158113883008419,1,0,"left"
"731","30_1",59,"30","Female",24,"Stim\r13y21g23b09.jpeg","Stim\r08y23g10b29.jpeg",13,8,21,23,23,10,9,29,-2,1,0,1,3.69,5.888,1,"gul","30_31",2,0,1,"Left_lead","Female","Male",1,0.147608258343368,0.83245857489798,-0.16754142510202,2,0.158113883008419,1,0,"left"
"733","30_1",62,"30","Female",24,"Stim\r13y33g08b23.jpeg","Stim\r10y37g07b02.jpeg",13,10,33,37,8,7,23,2,2,-1,1,0,2.658,3.24,1,"gul","30_31",4,1,0,"Left_lead","Female","Male",1,0.201239947681927,1.04894399641106,0.048943996411057,2,0.158113883008419,0.666666666666667,-0.333333333333333,"left"
"734","30_1",65,"30","Female",24,"Stim\r10y02g36b05.jpeg","Stim\r21y03g15b37.jpeg",10,21,2,3,36,15,5,37,3,-1,1,0,2.359,6.742,1,"gul","30_31",1,1,0,"Left_lead","Female","Male",1,0.21012514981931,1.01077359617913,0.0107735961791346,3,2.26629898978734,1.5,0.5,"left"
"737","30_1",72,"30","Female",24,"Stim\r11y14g08b23.jpeg","Stim\r12y07g07b17.jpeg",11,12,14,7,8,7,23,17,2,-1,0,1,2.044,3.256,1,"gul","30_31",-7,1,0,"Left_lead","Female","Male",1,0.220080843222783,0.921386107938336,-0.0786138920616641,2,0.158113883008419,0.666666666666667,-0.333333333333333,"left"
"738","30_1",82,"30","Female",24,"Stim\r07y14g27b22.jpeg","Stim\r06y14g31b25.jpeg",7,6,14,14,27,31,22,25,2,-1,1,0,3.745,3.446,1,"grøn","30_31",4,1,0,"Left_lead","Female","Male",1,0.208551782174576,1.03694556816735,0.0369455681673496,2,0.158113883008419,1,0,"left"
"739","30_1",85,"30","Female",24,"Stim\r10y37g07b02.jpeg","Stim\r11y14g08b23.jpeg",10,11,37,14,7,8,2,23,-1,1,0,1,1.155,3.068,1,"grøn","30_31",1,0,1,"Left_lead","Female","Male",1,0.195377535072947,1.02539129421179,0.0253912942117862,1,-1.9500712237705,1,0,"left"
"747","29_2",16,"29","Male",23,"Stim\r21y03g15b37.jpeg","Stim\r22y02g34b05.jpeg",21,22,3,2,15,34,37,5,3,-1,1,0,1.891,1.414,2,"rød","29_31",1,1,0,"Left_lead","Male","Male",1,0.197729609345637,0.971451224325163,-0.0285487756748367,3,0.254588394565053,1.5,0.5,"left"
"748","29_2",19,"29","Male",23,"Stim\r20y14g02b19.jpeg","Stim\r21y01g04b27.jpeg",20,21,14,1,2,4,19,27,-4,-1,0,0,1.923,1.613,2,"rød","29_31",1,0,0,"Left_lead","Male","Male",0,0.214188231451704,1.01451471239606,0.0145147123960643,4,1.24465437342915,2,1,"left"
"752","29_2",25,"29","Male",23,"Stim\r12y07g07b17.jpeg","Stim\r17y22g16b15.jpeg",12,17,7,22,7,16,17,15,2,-1,0,1,1.803,1.546,2,"blå","29_31",-2,1,0,"Left_lead","Male","Male",1,0.239500871914333,1.05111822055364,0.0511182205536438,2,-0.735477584299042,0.666666666666667,-0.333333333333333,"left"
"755","29_2",29,"29","Male",23,"Stim\r18y19g14b27.jpeg","Stim\r11y10g06b19.jpeg",18,11,19,10,14,6,27,19,-4,-1,1,1,1.514,1.546,2,"blå","29_31",-8,0,0,"Left_lead","Male","Male",0,0.232853429235845,1.27133486136039,0.271334861360387,4,1.24465437342915,4,3,"left"
"756","29_2",31,"29","Male",23,"Stim\r15y16g12b03.jpeg","Stim\r22y23g20b06.jpeg",15,22,16,23,12,20,3,6,1,-1,1,0,1.549,1.632,2,"blå","29_31",3,1,0,"Left_lead","Male","Male",1,0.220390108840056,1.18952649452787,0.189526494527869,1,-1.72554356316314,0.333333333333333,-0.666666666666667,"left"
"758","29_2",35,"29","Male",23,"Stim\r09y07g06b09.jpeg","Stim\r22y35g09b11.jpeg",9,22,7,35,6,9,9,11,3,1,1,1,1.617,1.944,2,"blå","29_31",2,1,1,"Left_lead","Male","Male",0,0.222151017555623,1.93205867136615,0.932058671366148,3,0.254588394565053,1,0,"left"
"759","29_2",36,"29","Male",23,"Stim\r03y06g12b09.jpeg","Stim\r22y02g34b05.jpeg",3,22,6,2,12,34,9,5,2,-1,0,1,1.227,2.712,2,"blå","29_31",-4,1,0,"Left_lead","Male","Male",1,0.182032256797121,1.25292005483842,0.252920054838425,2,-0.735477584299042,1,0,"left"
"767","29_2",55,"29","Male",23,"Stim\r09y06g26b32.jpeg","Stim\r05y09g02b34.jpeg",9,5,6,9,26,2,32,34,4,1,1,1,1.657,1.432,2,"gul","29_31",3,1,1,"Left_lead","Male","Male",0,0.104976901875615,0.568125489735682,-0.431874510264318,4,1.24465437342915,1.33333333333333,0.333333333333333,"left"
"768","29_2",63,"29","Male",23,"Stim\r09y15g18b07.jpeg","Stim\r09y17g32b21.jpeg",9,9,15,17,18,32,7,21,4,1,1,1,2.006,1.915,2,"gul","29_31",2,1,1,"Left_lead","Male","Male",0,0.232060932446244,1.00573673750034,0.0057367375003432,4,1.24465437342915,1.33333333333333,0.333333333333333,"left"
"769","29_2",64,"29","Male",23,"Stim\r14y20g16b10.jpeg","Stim\r13y24g05b28.jpeg",14,13,20,24,16,5,10,28,2,-1,1,0,1.675,1.363,2,"gul","29_31",4,1,0,"Left_lead","Male","Male",1,0.230355416448732,1.0286141830636,0.0286141830635982,2,-0.735477584299042,0.666666666666667,-0.333333333333333,"left"
"770","29_2",67,"29","Male",23,"Stim\r05y09g02b34.jpeg","Stim\r14y08g21b39.jpeg",5,14,9,8,2,21,34,39,3,-1,0,1,1.468,1.732,2,"gul","29_31",-1,1,0,"Left_lead","Male","Male",1,0.24084645002232,1.05234484675824,0.0523448467582408,3,0.254588394565053,0.75,-0.25,"left"
"771","29_2",68,"29","Male",23,"Stim\r09y17g32b21.jpeg","Stim\r06y14g31b25.jpeg",9,6,17,14,32,31,21,25,3,1,0,0,1.493,1.295,2,"gul","29_31",-3,1,1,"Left_lead","Male","Male",0,0.24074693298506,1.02774241759404,0.0277424175940391,3,0.254588394565053,1,0,"left"
"777","29_2",80,"29","Male",23,"Stim\r07y02g03b06.jpeg","Stim\r03y11g01b26.jpeg",7,3,2,11,3,1,6,26,-4,-1,1,1,2.197,1.763,2,"grøn","29_31",-2,0,0,"Left_lead","Male","Male",0,0.207084174340765,0.959122444472718,-0.0408775555272816,4,1.24465437342915,1.33333333333333,0.333333333333333,"left"
"779","29_2",88,"29","Male",23,"Stim\r17y22g16b15.jpeg","Stim\r12y12g14b26.jpeg",17,12,22,12,16,14,15,26,2,1,0,0,1.108,3.77,2,"grøn","29_31",-2,1,1,"Left_lead","Male","Male",0,0.229540481133979,0.991427280229251,-0.00857271977074892,2,-0.735477584299042,2,1,"left"
"780","29_2",94,"29","Male",23,"Stim\r06y19g29b08.jpeg","Stim\r04y28g27b06.jpeg",6,4,19,28,29,27,8,6,2,-1,0,1,0.877,1.384,2,"grøn","29_31",-2,1,0,"Left_lead","Male","Male",1,0.241825632060906,0.962508686278179,-0.037491313721821,2,-0.735477584299042,0.666666666666667,-0.333333333333333,"left"
"783","29_1",20,"29","Male",23,"Stim\r15y17g24b30.jpeg","Stim\r08y09g09b11.jpeg",15,8,17,9,24,9,30,11,4,-1,0,1,2.099,2.144,1,"rød","29_32",-7,1,0,"Left_lead","Male","Female",1,0.214999932716856,0.840869700557148,-0.159130299442852,4,1.31417111385123,1.33333333333333,0.333333333333333,"left"
"786","29_1",25,"29","Male",23,"Stim\r09y02g05b02.jpeg","Stim\r08y23g10b29.jpeg",9,8,2,23,5,10,2,29,2,-1,0,1,2.502,3.013,1,"rød","29_32",-1,1,0,"Left_lead","Male","Female",1,0.224840119841493,0.877818235697001,-0.122181764302999,2,-0.535403046383835,0.5,-0.5,"left"
"789","29_1",28,"29","Male",23,"Stim\r09y06g26b32.jpeg","Stim\r11y13g22b35.jpeg",9,11,6,13,26,22,32,35,-1,1,0,1,2.363,2.492,1,"blå","29_32",3,0,1,"Left_lead","Male","Female",1,0.203023054903423,0.797448035932595,-0.202551964067405,1,-1.46019012650137,0.25,-0.75,"left"
"790","29_1",29,"29","Male",23,"Stim\r11y14g08b23.jpeg","Stim\r21y01g04b27.jpeg",11,21,14,1,8,4,23,27,4,1,1,1,1.94,1.511,1,"blå","29_32",4,1,1,"Left_lead","Male","Female",0,0.193874011926448,0.814452700637614,-0.185547299362386,4,1.31417111385123,1.33333333333333,0.333333333333333,"left"
"793","29_1",32,"29","Male",23,"Stim\r18y19g14b27.jpeg","Stim\r06y14g31b25.jpeg",18,6,19,14,14,31,27,25,-2,-1,1,1,2.143,2.876,1,"blå","29_32",-2,0,0,"Left_lead","Male","Female",0,0.212440785946356,1.08215960333988,0.0821596033398817,2,-0.535403046383835,0.666666666666667,-0.333333333333333,"left"
"795","29_1",40,"29","Male",23,"Stim\r07y02g03b06.jpeg","Stim\r15y16g12b03.jpeg",7,15,2,16,3,12,6,3,2,-1,0,1,1.802,1.485,1,"blå","29_32",-3,1,0,"Left_lead","Male","Female",1,0.149767280352948,1.05283940325116,0.0528394032511601,2,-0.535403046383835,2,1,"left"
"796","29_1",48,"29","Male",23,"Stim\r06y36g16b14.jpeg","Stim\r04y39g24b15.jpeg",6,4,36,39,16,24,14,15,-4,1,0,1,2.461,1.675,1,"blå","29_32",1,0,1,"Left_lead","Male","Female",1,0.188301367694636,0.968661733630006,-0.0313382663699945,4,1.31417111385123,1.33333333333333,0.333333333333333,"left"
"797","29_1",50,"29","Male",23,"Stim\r08y23g10b29.jpeg","Stim\r14y20g16b10.jpeg",8,14,23,20,10,16,29,10,2,1,0,0,1.708,1.893,1,"gul","29_32",-3,1,1,"Left_lead","Male","Female",0,0.208280706301828,0.941046715484408,-0.0589532845155918,2,-0.535403046383835,1,0,"left"
"799","29_1",59,"29","Male",23,"Stim\r21y03g15b37.jpeg","Stim\r09y06g26b32.jpeg",21,9,3,6,15,26,37,32,3,1,1,1,1.342,1.448,1,"gul","29_32",3,1,1,"Left_lead","Male","Female",0,0.213910170308199,0.986542877191538,-0.0134571228084623,3,0.389384033733698,1.5,0.5,"left"
"802","29_1",64,"29","Male",23,"Stim\r08y09g09b11.jpeg","Stim\r07y06g08b05.jpeg",8,7,9,6,9,8,11,5,-2,1,1,0,1.766,4.396,1,"gul","29_32",-3,0,1,"Left_lead","Male","Female",1,0.235241281727756,1.08338476415968,0.0833847641596817,2,-0.535403046383835,1,0,"left"
"805","29_1",71,"29","Male",23,"Stim\r15y16g12b03.jpeg","Stim\r06y14g31b25.jpeg",15,6,16,14,12,31,3,25,2,-1,0,1,2.83,2.163,1,"gul","29_32",-2,1,0,"Left_lead","Male","Female",1,0.265903897562958,1.31621485080182,0.316214850801817,2,-0.535403046383835,0.5,-0.5,"left"
"808","29_1",79,"29","Male",23,"Stim\r07y14g27b22.jpeg","Stim\r04y39g24b15.jpeg",7,4,14,39,27,24,22,15,3,1,0,0,1.715,2.107,1,"grøn","29_32",-3,1,1,"Left_lead","Male","Female",0,0.193664503251009,0.973658514535933,-0.0263414854640668,3,0.389384033733698,0.75,-0.25,"left"
"810","29_1",80,"29","Male",23,"Stim\r14y10g15b15.jpeg","Stim\r15y05g12b10.jpeg",14,15,10,5,15,12,15,10,1,1,0,0,1.994,5.364,1,"grøn","29_32",-3,1,1,"Left_lead","Male","Female",0,0.198117804767487,0.950424472390883,-0.049575527609117,1,-1.46019012650137,1,0,"left"
"813","29_1",84,"29","Male",23,"Stim\r19y10g06b15.jpeg","Stim\r12y07g07b17.jpeg",19,12,10,7,6,7,15,17,-1,1,0,1,3.816,4.146,1,"grøn","29_32",1,0,1,"Left_lead","Male","Female",1,0.196535755235588,1.11927665478853,0.119276654788527,1,-1.46019012650137,1,0,"left"
"816","29_1",91,"29","Male",23,"Stim\r04y28g27b06.jpeg","Stim\r09y15g18b07.jpeg",4,9,28,15,27,18,6,7,3,-1,0,1,1.696,2.015,1,"grøn","29_32",-9,1,0,"Left_lead","Male","Female",1,0.240002957132627,0.992685333034649,-0.00731466696535132,3,0.389384033733698,0.75,-0.25,"left"
"821","30_2",12,"30","Female",24,"Stim\r17y22g16b15.jpeg","Stim\r10y13g07b36.jpeg",17,10,22,13,16,7,15,36,-1,1,1,0,1.7,4.575,2,"rød","30_32",-7,0,1,"Left_lead","Female","Female",1,0.218292691715686,1.16366927049591,0.163669270495905,1,-1.39044357430761,1,0,"left"
